noir.cube
TITLE Hazy LUT (opacity=0.6, blur=2, noise=0.05)
LUT_3D_SIZE 33
DOMAIN_MIN 0 0 0
DOMAIN_MAX 1 1 1
0.000000 0.000000 0.000000
0.000000 0.000000 0.117761
0.000000 0.000000 0.163136
0.000000 0.000000 0.176049
0.000000 0.000000 0.175966
0.000000 0.000000 0.169733
0.000000 0.000000 0.172643
0.000000 0.000000 0.181969
0.000000 0.000000 0.202014
0.000000 0.000000 0.225445
0.000000 0.000000 0.232901
0.000000 0.000000 0.245190
0.000000 0.000000 0.251042
0.000000 0.000000 0.261523
0.000000 0.000000 0.295453
0.000000 0.000000 0.319336
0.000000 0.000000 0.350000
0.000000 0.000000 0.381836
0.000000 0.000000 0.414844
0.000000 0.000000 0.449023
0.000000 0.000000 0.487005
0.000000 0.000000 0.525832
0.000000 0.000000 0.563762
0.000000 0.000000 0.616697
0.000000 0.000000 0.659879
0.000000 0.000000 0.712518
0.000000 0.000000 0.756576
0.000000 0.000000 0.805772
0.000000 0.000000 0.854086
0.000000 0.000000 0.901146
0.000000 0.000000 0.941382
0.000000 0.000000 0.972004
0.000000 0.000000 1.000000
0.000000 0.118566 0.000000
0.000000 0.116554 0.118566
0.000000 0.115333 0.165223
0.000000 0.118566 0.172692
0.000000 0.118566 0.180062
0.000000 0.115668 0.174857
0.000000 0.116253 0.170775
0.000000 0.115873 0.186329
0.000000 0.116017 0.211186
0.000000 0.114445 0.217881
0.000000 0.118566 0.232731
0.000000 0.118566 0.232664
0.000000 0.117738 0.252748
0.000000 0.116275 0.261969
0.000000 0.118566 0.294335
0.000000 0.118566 0.319616
0.000000 0.118566 0.350000
0.000000 0.118566 0.385768
0.000000 0.114819 0.415634
0.000000 0.118566 0.449023
0.000000 0.115401 0.488825
0.000000 0.118566 0.528141
0.000000 0.117148 0.562890
0.000000 0.118566 0.622011
0.000000 0.116477 0.664759
0.000000 0.118566 0.712439
0.000000 0.118566 0.755324
0.000000 0.117747 0.803006
0.000000 0.118312 0.851338
0.000000 0.118566 0.901404
0.000000 0.118566 0.940947
0.000000 0.118566 0.972236
0.000000 0.117831 1.000000
0.000000 0.163477 0.000000
0.000000 0.160912 0.117117
0.000000 0.164527 0.160327
0.000000 0.164066 0.170781
0.000000 0.168627 0.173029
0.000000 0.167407 0.170748
0.000000 0.165029 0.168273
0.000000 0.167403 0.183352
0.000000 0.162315 0.202397
0.000000 0.168324 0.223813
0.000000 0.160642 0.230863
0.000000 0.165934 0.239639
0.000000 0.165782 0.245484
0.000000 0.166458 0.261523
0.000000 0.159529 0.289844
0.000000 0.162117 0.324567
0.000000 0.165052 0.350000
0.000000 0.158626 0.388911
0.000000 0.163316 0.415066
0.000000 0.163208 0.452923
0.000000 0.163471 0.484375
0.000000 0.165583 0.520898
0.000000 0.161526 0.567921
0.000000 0.158822 0.614681
0.000000 0.164223 0.658488
0.000000 0.164550 0.712692
0.000000 0.163466 0.755062
0.000000 0.159893 0.805016
0.000000 0.162502 0.852917
0.000000 0.158146 0.901166
0.000000 0.164666 0.941760
0.000000 0.167340 0.972493
0.000000 0.160678 1.000000
0.000000 0.176423 0.000000
0.000000 0.175989 0.115965
0.000000 0.176425 0.163163
0.000000 0.176742 0.171297
0.000000 0.178543 0.168820
0.000000 0.170295 0.164060
0.000000 0.176105 0.171648
0.000000 0.171040 0.185308
0.000000 0.172230 0.203061
0.000000 0.176389 0.221167
0.000000 0.176774 0.237953
0.000000 0.173478 0.240544
0.000000 0.172174 0.243128
0.000000 0.171847 0.261523
0.000000 0.174567 0.289844
0.000000 0.178526 0.320520
0.000000 0.170911 0.350000
0.000000 0.179892 0.381836
0.000000 0.176742 0.414844
0.000000 0.172992 0.449851
0.000000 0.178403 0.486357
0.000000 0.174294 0.528099
0.000000 0.179483 0.563364
0.000000 0.181240 0.614660
0.000000 0.181854 0.666591
0.000000 0.175384 0.713131
0.000000 0.175275 0.761846
0.000000 0.171811 0.806988
0.000000 0.173281 0.855532
0.000000 0.172220 0.903670
0.000000 0.173968 0.941976
0.000000 0.180027 0.972157
0.000000 0.181597 1.000000
0.000000 0.179546 0.000000
0.000000 0.176003 0.118566
0.000000 0.173058 0.164526
0.000000 0.167734 0.175939
0.000000 0.178993 0.175889
0.000000 0.171177 0.163912
0.000000 0.172401 0.168949
0.000000 0.176980 0.186943
0.000000 0.176629 0.207532
0.000000 0.166995 0.221198
0.000000 0.174421 0.233402
0.000000 0.172944 0.242900
0.000000 0.179574 0.252736
0.000000 0.178732 0.262355
0.000000 0.173596 0.295596
0.000000 0.178833 0.319336
0.000000 0.175417 0.354572
0.000000 0.167865 0.381836
0.000000 0.177835 0.419109
0.000000 0.167948 0.449023
0.000000 0.172771 0.490602
0.000000 0.174225 0.521027
0.000000 0.172724 0.570428
0.000000 0.176004 0.611438
0.000000 0.171998 0.667086
0.000000 0.179477 0.708540
0.000000 0.177323 0.759470
0.000000 0.168793 0.809299
0.000000 0.167205 0.854492
0.000000 0.179431 0.903725
0.000000 0.173948 0.941254
0.000000 0.179167 0.971988
0.000000 0.179958 1.000000
0.000000 0.167742 0.000000
0.000000 0.163122 0.114632
0.000000 0.163591 0.164669
0.000000 0.168352 0.180965
0.000000 0.161461 0.170471
0.000000 0.161523 0.163234
0.000000 0.169116 0.168388
0.000000 0.161944 0.191282
0.000000 0.167200 0.211470
0.000000 0.166727 0.220745
0.000000 0.166599 0.228883
0.000000 0.165868 0.244398
0.000000 0.161784 0.242149
0.000000 0.168140 0.268082
0.000000 0.162108 0.297211
0.000000 0.171953 0.322049
0.000000 0.174826 0.350000
0.000000 0.160821 0.381836
0.000000 0.170818 0.414844
0.000000 0.168552 0.450269
0.000000 0.168994 0.487178
0.000000 0.166182 0.524463
0.000000 0.174057 0.569622
0.000000 0.172145 0.612669
0.000000 0.167914 0.660969
0.000000 0.162532 0.711931
0.000000 0.165913 0.759853
0.000000 0.167438 0.807336
0.000000 0.166052 0.856535
0.000000 0.171733 0.903090
0.000000 0.166740 0.941841
0.000000 0.168670 0.972213
0.000000 0.170514 1.000000
0.000000 0.176967 0.000000
0.000000 0.168287 0.114892
0.000000 0.170555 0.159792
0.000000 0.173778 0.178235
0.000000 0.176326 0.168488
0.000000 0.168309 0.172847
0.000000 0.175515 0.169651
0.000000 0.172321 0.182715
0.000000 0.168987 0.204694
0.000000 0.175795 0.217118
0.000000 0.173881 0.235938
0.000000 0.174622 0.244751
0.000000 0.176343 0.245743
0.000000 0.169600 0.261523
0.000000 0.171213 0.289844
0.000000 0.168931 0.319336
0.000000 0.173041 0.350000
0.000000 0.176449 0.381836
0.000000 0.169382 0.414844
0.000000 0.170868 0.449023
0.000000 0.177197 0.490108
0.000000 0.176590 0.522265
0.000000 0.173902 0.569427
0.000000 0.169138 0.618348
0.000000 0.172774 0.665399
0.000000 0.171223 0.706689
0.000000 0.170517 0.755959
0.000000 0.169225 0.809415
0.000000 0.169880 0.854358
0.000000 0.171348 0.900234
0.000000 0.170020 0.940832
0.000000 0.173679 0.972251
0.000000 0.168826 1.000000
0.000000 0.186924 0.000000
0.000000 0.182632 0.117701
0.000000 0.186318 0.162417
0.000000 0.182193 0.176273
0.000000 0.188232 0.179897
0.000000 0.188146 0.173101
0.000000 0.188302 0.169596
0.000000 0.186800 0.188792
0.000000 0.190871 0.202888
0.000000 0.184641 0.222105
0.000000 0.183279 0.226743
0.000000 0.191278 0.240917
0.000000 0.190256 0.248854
0.000000 0.182637 0.261880
0.000000 0.184123 0.289844
0.000000 0.181644 0.319829
0.000000 0.191410 0.351072
0.000000 0.189666 0.384418
0.000000 0.188162 0.414844
0.000000 0.185808 0.453426
0.000000 0.185222 0.488392
0.000000 0.190754 0.522075
0.000000 0.184951 0.570820
0.000000 0.185025 0.610436
0.000000 0.181691 0.659507
0.000000 0.185284 0.709461
0.000000 0.187217 0.761612
0.000000 0.187976 0.805162
0.000000 0.186664 0.854478
0.000000 0.184669 0.899909
0.000000 0.189342 0.941811
0.000000 0.188226 0.972249
0.000000 0.189306 1.000000
0.000000 0.205458 0.000000
0.000000 0.209512 0.118211
0.000000 0.207226 0.167229
0.000000 0.207366 0.177143
0.000000 0.204994 0.168030
0.000000 0.206233 0.168033
0.000000 0.204654 0.172092
0.000000 0.201605 0.189492
0.000000 0.208729 0.202638
0.000000 0.207550 0.222755
0.000000 0.201238 0.234270
0.000000 0.212346 0.235486
0.000000 0.202640 0.244905
0.000000 0.203455 0.263592
0.000000 0.207944 0.289844
0.000000 0.206344 0.323888
0.000000 0.212070 0.350000
0.000000 0.208357 0.386259
0.000000 0.211259 0.417826
0.000000 0.208656 0.453097
0.000000 0.203030 0.484375
0.000000 0.203443 0.523215
0.000000 0.207124 0.573490
0.000000 0.212054 0.611728
0.000000 0.209912 0.666440
0.000000 0.203546 0.710117
0.000000 0.203149 0.756992
0.000000 0.204225 0.803747
0.000000 0.206759 0.850680
0.000000 0.201451 0.900664
0.000000 0.205099 0.942319
0.000000 0.210709 0.972319
0.000000 0.205392 1.000000
0.000000 0.222416 0.000000
0.000000 0.223449 0.118566
0.000000 0.227407 0.164371
0.000000 0.218391 0.180541
0.000000 0.219408 0.174495
0.000000 0.218911 0.163807
0.000000 0.218144 0.176875
0.000000 0.225906 0.189628
0.000000 0.221016 0.204199
0.000000 0.220751 0.215876
0.000000 0.215630 0.231176
0.000000 0.224315 0.240654
0.000000 0.220775 0.242594
0.000000 0.226057 0.261523
0.000000 0.223282 0.293345
0.000000 0.223030 0.324645
0.000000 0.227318 0.350000
0.000000 0.222791 0.386855
0.000000 0.226997 0.414844
0.000000 0.216986 0.453050
0.000000 0.215930 0.484375
0.000000 0.220191 0.520898
0.000000 0.222724 0.561950
0.000000 0.223753 0.615851
0.000000 0.222630 0.668798
0.000000 0.219216 0.711594
0.000000 0.219609 0.755779
0.000000 0.221691 0.809823
0.000000 0.220952 0.852496
0.000000 0.225570 0.902860
0.000000 0.216529 0.941956
0.000000 0.221286 0.972836
0.000000 0.217118 1.000000
0.000000 0.234770 0.000000
0.000000 0.235020 0.116277
0.000000 0.227562 0.160656
0.000000 0.228433 0.170792
0.000000 0.237201 0.167583
0.000000 0.232456 0.164947
0.000000 0.232907 0.170165
0.000000 0.234249 0.187325
0.000000 0.238409 0.208214
0.000000 0.231764 0.219258
0.000000 0.231915 0.228447
0.000000 0.233869 0.239720
0.000000 0.234089 0.239490
0.000000 0.233072 0.262166
0.000000 0.229017 0.289844
0.000000 0.235587 0.319336
0.000000 0.236732 0.350906
0.000000 0.235520 0.388506
0.000000 0.228730 0.416934
0.000000 0.226756 0.451758
0.000000 0.234964 0.487869
0.000000 0.226666 0.525745
0.000000 0.235567 0.565839
0.000000 0.228045 0.618602
0.000000 0.238934 0.667045
0.000000 0.236633 0.711440
0.000000 0.231071 0.761240
0.000000 0.237354 0.804716
0.000000 0.236564 0.854144
0.000000 0.235770 0.903355
0.000000 0.235774 0.941723
0.000000 0.236553 0.972737
0.000000 0.237663 1.000000
0.000000 0.233679 0.000000
0.000000 0.235329 0.114906
0.000000 0.245259 0.161889
0.000000 0.239180 0.173567
0.000000 0.237000 0.179640
0.000000 0.232696 0.167005
0.000000 0.244403 0.170855
0.000000 0.239481 0.185908
0.000000 0.239501 0.210063
0.000000 0.232694 0.225073
0.000000 0.234781 0.237593
0.000000 0.244686 0.235320
0.000000 0.234186 0.241323
0.000000 0.245431 0.261523
0.000000 0.244251 0.289844
0.000000 0.233821 0.319336
0.000000 0.241204 0.350000
0.000000 0.238087 0.388777
0.000000 0.237617 0.414844
0.000000 0.240915 0.449023
0.000000 0.234431 0.489475
0.000000 0.242739 0.520898
0.000000 0.238432 0.570186
0.000000 0.235611 0.617525
0.000000 0.236734 0.662612
0.000000 0.239272 0.713332
0.000000 0.244011 0.760809
0.000000 0.235387 0.808012
0.000000 0.232354 0.850981
0.000000 0.242012 0.901611
0.000000 0.244155 0.941817
0.000000 0.232870 0.972046
0.000000 0.234802 1.000000
0.000000 0.251407 0.000000
0.000000 0.243637 0.118566
0.000000 0.248992 0.160814
0.000000 0.249654 0.174211
0.000000 0.239813 0.176897
0.000000 0.245770 0.165551
0.000000 0.243172 0.170967
0.000000 0.249616 0.189574
0.000000 0.245023 0.205096
0.000000 0.246211 0.220192
0.000000 0.239203 0.234603
0.000000 0.245585 0.241112
0.000000 0.247362 0.251012
0.000000 0.250905 0.261523
0.000000 0.244487 0.296002
0.000000 0.240400 0.319336
0.000000 0.239294 0.356271
0.000000 0.244336 0.384474
0.000000 0.240091 0.417757
0.000000 0.248499 0.452781
0.000000 0.244083 0.491318
0.000000 0.248892 0.520898
0.000000 0.245040 0.564005
0.000000 0.242138 0.613075
0.000000 0.244325 0.664329
0.000000 0.241587 0.708047
0.000000 0.246021 0.762680
0.000000 0.243057 0.802122
0.000000 0.246537 0.852562
0.000000 0.244978 0.901023
0.000000 0.249659 0.942081
0.000000 0.246445 0.972421
0.000000 0.251184 1.000000
0.000000 0.261523 0.000000
0.000000 0.261523 0.118566
0.000000 0.261523 0.168394
0.000000 0.268006 0.178518
0.000000 0.262398 0.171173
0.000000 0.261523 0.174675
0.000000 0.266219 0.173802
0.000000 0.261523 0.183798
0.000000 0.262697 0.211429
0.000000 0.261523 0.222408
0.000000 0.261523 0.237847
0.000000 0.261523 0.239726
0.000000 0.265114 0.240087
0.000000 0.262044 0.261523
0.000000 0.261523 0.290940
0.000000 0.265350 0.319336
0.000000 0.261523 0.354503
0.000000 0.261523 0.387031
0.000000 0.261523 0.414844
0.000000 0.261523 0.449377
0.000000 0.261523 0.490458
0.000000 0.261523 0.520898
0.000000 0.265540 0.568277
0.000000 0.264920 0.612976
0.000000 0.265911 0.663695
0.000000 0.261523 0.708237
0.000000 0.265977 0.758479
0.000000 0.261523 0.804287
0.000000 0.261523 0.855101
0.000000 0.261523 0.901723
0.000000 0.263973 0.942181
0.000000 0.261523 0.972708
0.000000 0.261882 1.000000
0.000000 0.293813 0.000000
0.000000 0.292261 0.117606
0.000000 0.291064 0.163186
0.000000 0.296358 0.172814
0.000000 0.289844 0.177040
0.000000 0.289844 0.162255
0.000000 0.289844 0.170296
0.000000 0.290606 0.188083
0.000000 0.289844 0.201162
0.000000 0.290495 0.222166
0.000000 0.289929 0.233478
0.000000 0.289844 0.242748
0.000000 0.289844 0.241517
0.000000 0.289844 0.261523
0.000000 0.289844 0.293443
0.000000 0.292581 0.319336
0.000000 0.289844 0.353983
0.000000 0.289844 0.381836
0.000000 0.289844 0.414844
0.000000 0.292659 0.449023
0.000000 0.295390 0.484375
0.000000 0.293716 0.525313
0.000000 0.291575 0.566583
0.000000 0.289844 0.621371
0.000000 0.295215 0.661661
0.000000 0.289844 0.713620
0.000000 0.289844 0.757935
0.000000 0.289844 0.806452
0.000000 0.289844 0.852896
0.000000 0.289844 0.899945
0.000000 0.289844 0.942531
0.000000 0.289844 0.972371
0.000000 0.289844 1.000000
0.000000 0.326698 0.000000
0.000000 0.320673 0.114614
0.000000 0.324917 0.168162
0.000000 0.319336 0.173278
0.000000 0.319336 0.170562
0.000000 0.324535 0.173502
0.000000 0.319336 0.168971
0.000000 0.321965 0.182365
0.000000 0.319336 0.212166
0.000000 0.325892 0.215881
0.000000 0.319336 0.238463
0.000000 0.319336 0.240378
0.000000 0.319336 0.248327
0.000000 0.320861 0.261523
0.000000 0.322204 0.296141
0.000000 0.319336 0.319336
0.000000 0.319336 0.350000
0.000000 0.323646 0.381836
0.000000 0.322329 0.416413
0.000000 0.319336 0.449023
0.000000 0.319533 0.484375
0.000000 0.325033 0.528166
0.000000 0.319336 0.562255
0.000000 0.319336 0.610886
0.000000 0.323158 0.658029
0.000000 0.321521 0.707083
0.000000 0.324735 0.756922
0.000000 0.319336 0.805886
0.000000 0.319336 0.854404
0.000000 0.326279 0.899455
0.000000 0.320282 0.940986
0.000000 0.319336 0.972154
0.000000 0.319336 1.000000
0.000000 0.350000 0.000000
0.000000 0.354638 0.118566
0.000000 0.355865 0.158890
0.000000 0.350000 0.182173
0.000000 0.357473 0.174928
0.000000 0.356728 0.170156
0.000000 0.350000 0.175381
0.000000 0.350000 0.189482
0.000000 0.350000 0.204050
0.000000 0.351881 0.218736
0.000000 0.350000 0.231145
0.000000 0.353329 0.240877
0.000000 0.350000 0.245986
0.000000 0.350000 0.264493
0.000000 0.351597 0.290807
0.000000 0.355204 0.326094
0.000000 0.350000 0.355436
0.000000 0.354558 0.383297
0.000000 0.357052 0.414844
0.000000 0.356388 0.452795
0.000000 0.354160 0.484375
0.000000 0.350000 0.520898
0.000000 0.350000 0.570365
0.000000 0.350000 0.616188
0.000000 0.350000 0.659550
0.000000 0.350000 0.707076
0.000000 0.350000 0.759308
0.000000 0.350253 0.802711
0.000000 0.350000 0.855580
0.000000 0.350000 0.900930
0.000000 0.351009 0.942002
0.000000 0.354314 0.972233
0.000000 0.350000 1.000000
0.000000 0.388321 0.000000
0.000000 0.384351 0.118566
0.000000 0.387400 0.158261
0.000000 0.381836 0.175474
0.000000 0.381836 0.179977
0.000000 0.383565 0.163483
0.000000 0.381836 0.173078
0.000000 0.384168 0.187756
0.000000 0.381836 0.206936
0.000000 0.381836 0.216883
0.000000 0.381836 0.234986
0.000000 0.385917 0.232690
0.000000 0.388295 0.250822
0.000000 0.388838 0.267138
0.000000 0.386581 0.291737
0.000000 0.385582 0.325567
0.000000 0.381836 0.350000
0.000000 0.381836 0.383402
0.000000 0.382383 0.419646
0.000000 0.381836 0.449023
0.000000 0.381836 0.484763
0.000000 0.381836 0.522238
0.000000 0.381836 0.567349
0.000000 0.387480 0.620015
0.000000 0.384008 0.661690
0.000000 0.381836 0.711151
0.000000 0.381836 0.757767
0.000000 0.381836 0.803627
0.000000 0.383674 0.850656
0.000000 0.381836 0.901395
0.000000 0.388636 0.942354
0.000000 0.381836 0.972009
0.000000 0.381836 1.000000
0.000000 0.414844 0.000000
0.000000 0.417888 0.118566
0.000000 0.419065 0.163091
0.000000 0.414844 0.179917
0.000000 0.419729 0.172334
0.000000 0.418544 0.161227
0.000000 0.414844 0.169580
0.000000 0.414844 0.181311
0.000000 0.414927 0.201159
0.000000 0.414844 0.224421
0.000000 0.414844 0.227705
0.000000 0.417088 0.237614
0.000000 0.414844 0.252592
0.000000 0.414844 0.261523
0.000000 0.418017 0.289844
0.000000 0.416248 0.319336
0.000000 0.414844 0.357396
0.000000 0.414844 0.382037
0.000000 0.414844 0.421081
0.000000 0.418951 0.455530
0.000000 0.420116 0.486284
0.000000 0.416487 0.528753
0.000000 0.418498 0.564557
0.000000 0.415855 0.615353
0.000000 0.415007 0.668758
0.000000 0.414844 0.707051
0.000000 0.422209 0.762605
0.000000 0.414844 0.802503
0.000000 0.416360 0.852368
0.000000 0.416605 0.900598
0.000000 0.414844 0.942432
0.000000 0.418868 0.972024
0.000000 0.414844 1.000000
0.000000 0.449023 0.000000
0.000000 0.449023 0.115680
0.000000 0.449965 0.165212
0.000000 0.449023 0.170885
0.000000 0.449023 0.174674
0.000000 0.449023 0.172581
0.000000 0.449023 0.176803
0.000000 0.449023 0.182320
0.000000 0.455922 0.210412
0.000000 0.455495 0.218262
0.000000 0.453742 0.237361
0.000000 0.455344 0.236049
0.000000 0.449023 0.246413
0.000000 0.449023 0.261523
0.000000 0.449023 0.290690
0.000000 0.454562 0.325081
0.000000 0.455300 0.350000
0.000000 0.449023 0.381836
0.000000 0.455093 0.416241
0.000000 0.449023 0.449023
0.000000 0.452660 0.489765
0.000000 0.449203 0.520898
0.000000 0.449023 0.569924
0.000000 0.449023 0.620075
0.000000 0.449023 0.663410
0.000000 0.449023 0.705875
0.000000 0.449023 0.756719
0.000000 0.449761 0.806294
0.000000 0.449023 0.853505
0.000000 0.452177 0.900616
0.000000 0.452340 0.940931
0.000000 0.453276 0.972701
0.000000 0.449023 1.000000
0.000000 0.491396 0.000000
0.000000 0.484375 0.116789
0.000000 0.484375 0.157991
0.000000 0.484375 0.170227
0.000000 0.487883 0.169672
0.000000 0.484375 0.174805
0.000000 0.489911 0.168252
0.000000 0.489231 0.186299
0.000000 0.489010 0.209627
0.000000 0.486587 0.224050
0.000000 0.490314 0.235057
0.000000 0.490960 0.239396
0.000000 0.484375 0.245263
0.000000 0.491379 0.267223
0.000000 0.484655 0.291188
0.000000 0.487142 0.319336
0.000000 0.484375 0.350000
0.000000 0.485966 0.381836
0.000000 0.484375 0.419018
0.000000 0.487097 0.449023
0.000000 0.487216 0.484375
0.000000 0.484466 0.520898
0.000000 0.485361 0.563258
0.000000 0.484375 0.620264
0.000000 0.489969 0.667499
0.000000 0.484375 0.707682
0.000000 0.484375 0.754568
0.000000 0.484375 0.806774
0.000000 0.484375 0.852391
0.000000 0.484375 0.904242
0.000000 0.488338 0.941196
0.000000 0.487018 0.972114
0.000000 0.489277 1.000000
0.000000 0.520898 0.000000
0.000000 0.528948 0.114442
0.000000 0.522786 0.162456
0.000000 0.520898 0.172899
0.000000 0.520898 0.166890
0.000000 0.524919 0.171502
0.000000 0.526436 0.173140
0.000000 0.528038 0.182305
0.000000 0.524049 0.206198
0.000000 0.520898 0.221375
0.000000 0.523738 0.237475
0.000000 0.522015 0.237062
0.000000 0.529505 0.244884
0.000000 0.524717 0.263823
0.000000 0.525259 0.293774
0.000000 0.520898 0.319336
0.000000 0.520898 0.350000
0.000000 0.528892 0.381836
0.000000 0.527247 0.414844
0.000000 0.521250 0.454940
0.000000 0.529517 0.484375
0.000000 0.523571 0.520898
0.000000 0.526092 0.570642
0.000000 0.529519 0.620202
0.000000 0.521394 0.658403
0.000000 0.520898 0.715663
0.000000 0.526728 0.762506
0.000000 0.522598 0.802372
0.000000 0.524387 0.850885
0.000000 0.523736 0.903967
0.000000 0.520898 0.942387
0.000000 0.529696 0.972750
0.000000 0.525448 1.000000
0.000000 0.573543 0.000000
0.000000 0.573204 0.116561
0.000000 0.573033 0.164652
0.000000 0.572658 0.170898
0.000000 0.571776 0.168942
0.000000 0.574291 0.173074
0.000000 0.574537 0.169561
0.000000 0.573977 0.190389
0.000000 0.572754 0.211062
0.000000 0.569657 0.220489
0.000000 0.570340 0.235922
0.000000 0.570806 0.233732
0.000000 0.568925 0.242815
0.000000 0.562212 0.261835
0.000000 0.572861 0.289844
0.000000 0.565989 0.319336
0.000000 0.564413 0.351380
0.000000 0.573689 0.382606
0.000000 0.565358 0.419655
0.000000 0.567775 0.449023
0.000000 0.573015 0.489523
0.000000 0.563791 0.528259
0.000000 0.573561 0.564718
0.000000 0.573132 0.621134
0.000000 0.563512 0.661092
0.000000 0.566763 0.714580
0.000000 0.566048 0.761576
0.000000 0.566235 0.807417
0.000000 0.573937 0.853078
0.000000 0.566327 0.904086
0.000000 0.569093 0.942401
0.000000 0.573305 0.972190
0.000000 0.566085 1.000000
0.000000 0.618940 0.000000
0.000000 0.614879 0.118566
0.000000 0.613143 0.158639
0.000000 0.621982 0.178810
0.000000 0.612742 0.177813
0.000000 0.616090 0.162976
0.000000 0.610775 0.177323
0.000000 0.621071 0.182698
0.000000 0.610483 0.201163
0.000000 0.610825 0.226486
0.000000 0.622236 0.232732
0.000000 0.619351 0.239699
0.000000 0.619151 0.244568
0.000000 0.612922 0.261523
0.000000 0.613089 0.291619
0.000000 0.613812 0.319562
0.000000 0.614245 0.350000
0.000000 0.619979 0.381836
0.000000 0.610745 0.414844
0.000000 0.612359 0.454584
0.000000 0.619095 0.486749
0.000000 0.613998 0.520898
0.000000 0.617242 0.571780
0.000000 0.618576 0.613629
0.000000 0.620798 0.659341
0.000000 0.617618 0.709548
0.000000 0.610259 0.759721
0.000000 0.621813 0.803920
0.000000 0.612678 0.851792
0.000000 0.616420 0.904214
0.000000 0.611882 0.941898
0.000000 0.619142 0.972120
0.000000 0.620508 1.000000
0.000000 0.661360 0.000000
0.000000 0.667309 0.118566
0.000000 0.666860 0.159678
0.000000 0.662989 0.179282
0.000000 0.667600 0.172230
0.000000 0.666435 0.165302
0.000000 0.665053 0.172249
0.000000 0.659614 0.190305
0.000000 0.662265 0.205643
0.000000 0.661352 0.221095
0.000000 0.663857 0.237318
0.000000 0.660339 0.238988
0.000000 0.659820 0.248497
0.000000 0.659816 0.261523
0.000000 0.666150 0.296672
0.000000 0.661101 0.324288
0.000000 0.664866 0.355362
0.000000 0.663225 0.383801
0.000000 0.662469 0.421161
0.000000 0.660720 0.449023
0.000000 0.659443 0.488941
0.000000 0.666056 0.521582
0.000000 0.662959 0.564360
0.000000 0.660038 0.612148
0.000000 0.662048 0.661658
0.000000 0.667501 0.712982
0.000000 0.666905 0.754354
0.000000 0.657709 0.808166
0.000000 0.659445 0.851516
0.000000 0.663786 0.899848
0.000000 0.665156 0.940965
0.000000 0.661839 0.972646
0.000000 0.666067 1.000000
0.000000 0.713129 0.000000
0.000000 0.713109 0.118566
0.000000 0.705818 0.161283
0.000000 0.711209 0.177372
0.000000 0.712509 0.176345
0.000000 0.712217 0.162996
0.000000 0.715391 0.171426
0.000000 0.708682 0.188161
0.000000 0.709813 0.211964
0.000000 0.712740 0.217329
0.000000 0.708028 0.228643
0.000000 0.715252 0.233553
0.000000 0.710632 0.247034
0.000000 0.714238 0.261523
0.000000 0.708309 0.294009
0.000000 0.714305 0.325984
0.000000 0.715418 0.350000
0.000000 0.710294 0.387224
0.000000 0.709019 0.414844
0.000000 0.715575 0.451770
0.000000 0.710209 0.489071
0.000000 0.712276 0.521259
0.000000 0.715651 0.574109
0.000000 0.708195 0.611440
0.000000 0.705694 0.665678
0.000000 0.707436 0.711451
0.000000 0.710051 0.757099
0.000000 0.714371 0.805917
0.000000 0.714086 0.850435
0.000000 0.715339 0.900111
0.000000 0.708467 0.941401
0.000000 0.707740 0.971930
0.000000 0.707231 1.000000
0.000000 0.762542 0.000000
0.000000 0.761262 0.116204
0.000000 0.761790 0.158209
0.000000 0.756855 0.180324
0.000000 0.763402 0.177052
0.000000 0.763123 0.168184
0.000000 0.761590 0.174193
0.000000 0.757357 0.188762
0.000000 0.761446 0.211557
0.000000 0.757384 0.222162
0.000000 0.762150 0.233770
0.000000 0.757175 0.233044
0.000000 0.762526 0.251814
0.000000 0.757825 0.261523
0.000000 0.757468 0.289844
0.000000 0.760519 0.322821
0.000000 0.755377 0.350000
0.000000 0.755031 0.381836
0.000000 0.758844 0.420043
0.000000 0.763168 0.449023
0.000000 0.762835 0.485133
0.000000 0.759476 0.527898
0.000000 0.761122 0.569843
0.000000 0.755669 0.621229
0.000000 0.761969 0.668379
0.000000 0.757737 0.707456
0.000000 0.761894 0.754450
