noir.cube
TITLE Hazy LUT (opacity=0.6, blur=2, noise=0.05)
LUT_3D_SIZE 5
DOMAIN_MIN 0 0 0
DOMAIN_MAX 1 1 1
0.000000 0.000000 0.000000
0.000000 0.000000 0.202014
0.000000 0.000000 0.350000
0.000000 0.000000 0.659879
0.000000 0.000000 1.000000
0.000000 0.205458 0.000000
0.000000 0.208729 0.202638
0.000000 0.212070 0.350000
0.000000 0.209912 0.666440
0.000000 0.205392 1.000000
0.000000 0.350000 0.000000
0.000000 0.350000 0.204050
0.000000 0.350000 0.355436
0.000000 0.350000 0.659550
0.000000 0.350000 1.000000
0.000000 0.661360 0.000000
0.000000 0.662265 0.205643
0.000000 0.664866 0.355362
0.000000 0.662048 0.661658
0.000000 0.666067 1.000000
0.000000 1.000000 0.000000
0.000000 1.000000 0.207081
0.000000 1.000000 0.351443
0.000000 1.000000 0.667295
0.000000 1.000000 1.000000
0.202505 0.000000 0.000000
0.206214 0.000000 0.208810
0.209712 0.000000 0.357499
0.202939 0.000000 0.657974
0.206196 0.000000 1.000000
0.210662 0.205463 0.000000
0.210300 0.211252 0.205512
0.208780 0.207187 0.354820
0.208099 0.209738 0.666952
0.204239 0.208866 1.000000
0.211319 0.350000 0.000000
0.207295 0.356709 0.210390
0.207388 0.350302 0.350000
0.205039 0.350000 0.664664
0.201264 0.350000 1.000000
0.203350 0.658051 0.000000
0.209484 0.665000 0.204753
0.208306 0.667791 0.350000
0.211530 0.667286 0.665965
0.210135 0.664533 1.000000
0.209543 1.000000 0.000000
0.210535 1.000000 0.212130
0.203893 1.000000 0.352133
0.208875 1.000000 0.660005
0.207277 1.000000 1.000000
0.350000 0.000000 0.000000
0.350000 0.000000 0.201289
0.351641 0.000000 0.353055
0.356486 0.000000 0.658488
0.350000 0.000000 1.000000
0.355914 0.210679 0.000000
0.350000 0.208062 0.209597
0.350000 0.202286 0.351489
0.350000 0.208244 0.661827
0.350000 0.211765 1.000000
0.356225 0.350933 0.000000
0.356018 0.350000 0.203172
0.350000 0.350000 0.356647
0.350000 0.350000 0.660405
0.350000 0.350000 1.000000
0.350000 0.665262 0.000000
0.350000 0.662805 0.206483
0.350000 0.668121 0.350000
0.352598 0.660662 0.661692
0.350000 0.666242 1.000000
0.350340 1.000000 0.000000
0.350000 1.000000 0.211682
0.350000 1.000000 0.351766
0.350000 1.000000 0.662516
0.357189 1.000000 1.000000
0.661025 0.000000 0.000000
0.661225 0.000000 0.211889
0.661189 0.000000 0.356326
0.668622 0.000000 0.660355
0.661408 0.000000 1.000000
0.661498 0.208260 0.000000
0.657986 0.206446 0.202349
0.661029 0.204065 0.350000
0.665708 0.208856 0.667356
0.661381 0.210338 1.000000
0.663337 0.350000 0.000000
0.657993 0.354256 0.209316
0.660692 0.350000 0.353475
0.662505 0.350000 0.662808
0.668713 0.352610 1.000000
0.668536 0.665968 0.000000
0.657776 0.665544 0.206121
0.662847 0.659312 0.350000
0.661196 0.660625 0.662149
0.659974 0.657929 1.000000
0.667008 1.000000 0.000000
0.660092 1.000000 0.210466
0.664375 1.000000 0.350000
0.664922 1.000000 0.667852
0.664577 1.000000 1.000000
1.000000 0.000000 0.000000
1.000000 0.000000 0.209551
1.000000 0.000000 0.350000
1.000000 0.000000 0.661301
1.000000 0.000000 1.000000
1.000000 0.203667 0.000000
1.000000 0.209137 0.207955
1.000000 0.211352 0.350000
1.000000 0.205447 0.658992
1.000000 0.205439 1.000000
1.000000 0.350000 0.000000
1.000000 0.357041 0.210724
1.000000 0.350000 0.350000
1.000000 0.350000 0.659504
1.000000 0.356599 1.000000
1.000000 0.661084 0.000000
1.000000 0.657804 0.201557
1.000000 0.667733 0.350000
1.000000 0.668013 0.666430
1.000000 0.659397 1.000000
1.000000 1.000000 0.000000
1.000000 1.000000 0.207403
1.000000 1.000000 0.350000
1.000000 1.000000 0.658664
1.000000 1.000000 1.000000
