noir.cube
TITLE Hazy LUT (opacity=0.6, blur=2, noise=0.05)
LUT_3D_SIZE 9
DOMAIN_MIN 0 0 0
DOMAIN_MAX 1 1 1
0.000000 0.000000 0.000000
0.000000 0.000000 0.175966
0.000000 0.000000 0.202014
0.000000 0.000000 0.251042
0.000000 0.000000 0.350000
0.000000 0.000000 0.487005
0.000000 0.000000 0.659879
0.000000 0.000000 0.854086
0.000000 0.000000 1.000000
0.000000 0.179546 0.000000
0.000000 0.178993 0.175889
0.000000 0.176629 0.207532
0.000000 0.179574 0.252736
0.000000 0.175417 0.354572
0.000000 0.172771 0.490602
0.000000 0.171998 0.667086
0.000000 0.167205 0.854492
0.000000 0.179958 1.000000
0.000000 0.205458 0.000000
0.000000 0.204994 0.168030
0.000000 0.208729 0.202638
0.000000 0.202640 0.244905
0.000000 0.212070 0.350000
0.000000 0.203030 0.484375
0.000000 0.209912 0.666440
0.000000 0.206759 0.850680
0.000000 0.205392 1.000000
0.000000 0.251407 0.000000
0.000000 0.239813 0.176897
0.000000 0.245023 0.205096
0.000000 0.247362 0.251012
0.000000 0.239294 0.356271
0.000000 0.244083 0.491318
0.000000 0.244325 0.664329
0.000000 0.246537 0.852562
0.000000 0.251184 1.000000
0.000000 0.350000 0.000000
0.000000 0.357473 0.174928
0.000000 0.350000 0.204050
0.000000 0.350000 0.245986
0.000000 0.350000 0.355436
0.000000 0.354160 0.484375
0.000000 0.350000 0.659550
0.000000 0.350000 0.855580
0.000000 0.350000 1.000000
0.000000 0.491396 0.000000
0.000000 0.487883 0.169672
0.000000 0.489010 0.209627
0.000000 0.484375 0.245263
0.000000 0.484375 0.350000
0.000000 0.487216 0.484375
0.000000 0.489969 0.667499
0.000000 0.484375 0.852391
0.000000 0.489277 1.000000
0.000000 0.661360 0.000000
0.000000 0.667600 0.172230
0.000000 0.662265 0.205643
0.000000 0.659820 0.248497
0.000000 0.664866 0.355362
0.000000 0.659443 0.488941
0.000000 0.662048 0.661658
0.000000 0.659445 0.851516
0.000000 0.666067 1.000000
0.000000 0.853846 0.000000
0.000000 0.850901 0.172522
0.000000 0.853391 0.206800
0.000000 0.854787 0.249332
0.000000 0.853759 0.356474
0.000000 0.855459 0.485553
0.000000 0.850854 0.662411
0.000000 0.856432 0.853983
0.000000 0.855083 1.000000
0.000000 1.000000 0.000000
0.000000 1.000000 0.169443
0.000000 1.000000 0.207081
0.000000 1.000000 0.247489
0.000000 1.000000 0.351443
0.000000 1.000000 0.484375
0.000000 1.000000 0.667295
0.000000 1.000000 0.854577
0.000000 1.000000 1.000000
0.170640 0.000000 0.000000
0.177725 0.000000 0.168223
0.175630 0.000000 0.208819
0.174431 0.000000 0.250521
0.175585 0.000000 0.350000
0.168601 0.000000 0.484375
0.168757 0.000000 0.662874
0.174098 0.000000 0.856695
0.173862 0.000000 1.000000
0.177980 0.174195 0.000000
0.171568 0.168018 0.171104
0.169508 0.169460 0.209322
0.178273 0.175867 0.240942
0.177046 0.177652 0.356200
0.176377 0.169151 0.484404
0.175788 0.176146 0.663958
0.169453 0.172634 0.853089
0.171999 0.179232 1.000000
0.170143 0.202948 0.000000
0.180353 0.202256 0.168565
0.168867 0.210422 0.210405
0.175039 0.207063 0.251582
0.178807 0.201899 0.354560
0.169587 0.204330 0.484375
0.176205 0.208986 0.663933
0.169138 0.206949 0.851437
0.170953 0.210853 1.000000
0.169462 0.246124 0.000000
0.172093 0.248676 0.173756
0.171253 0.240394 0.207999
0.169672 0.246012 0.243610
0.169420 0.251488 0.350000
0.176014 0.248384 0.485571
0.169687 0.252156 0.666205
0.179372 0.248076 0.855115
0.171868 0.248063 1.000000
0.176597 0.350843 0.000000
0.178852 0.352707 0.176063
0.178722 0.353120 0.203504
0.167792 0.356508 0.251428
0.175328 0.353828 0.354473
0.173567 0.350702 0.484821
0.172597 0.350252 0.659699
0.167108 0.350278 0.852102
0.179476 0.350734 1.000000
0.169184 0.484375 0.000000
0.172905 0.484375 0.170787
0.166842 0.484375 0.203698
0.170642 0.484375 0.247155
0.167935 0.489332 0.350000
0.175395 0.488883 0.488701
0.178618 0.484375 0.666878
0.174459 0.488797 0.854075
0.175086 0.487594 1.000000
0.176344 0.665964 0.000000
0.172723 0.661043 0.178115
0.173902 0.658112 0.210379
0.176881 0.659059 0.246934
0.176048 0.664202 0.350298
0.174134 0.660777 0.484375
0.170422 0.663344 0.665002
0.167966 0.659728 0.851892
0.176402 0.662636 1.000000
0.175867 0.851776 0.000000
0.168573 0.851598 0.180140
0.171162 0.853829 0.203011
0.176896 0.852947 0.251073
0.169416 0.855799 0.350000
0.171093 0.851243 0.484375
0.179982 0.856340 0.666411
0.169534 0.851659 0.855230
0.170577 0.853434 1.000000
0.172527 1.000000 0.000000
0.169897 1.000000 0.167530
0.166817 1.000000 0.206736
0.172760 1.000000 0.247357
0.178310 1.000000 0.352605
0.172437 1.000000 0.484375
0.180109 1.000000 0.668109
0.166935 1.000000 0.854450
0.167676 1.000000 1.000000
0.202505 0.000000 0.000000
0.212210 0.000000 0.169129
0.206214 0.000000 0.208810
0.210373 0.000000 0.244230
0.209712 0.000000 0.357499
0.206036 0.000000 0.485677
0.202939 0.000000 0.657974
0.207245 0.000000 0.851269
0.206196 0.000000 1.000000
0.205616 0.175846 0.000000
0.212244 0.171684 0.178239
0.205575 0.174831 0.203118
0.211111 0.172486 0.252501
0.207197 0.176562 0.353780
0.207944 0.167924 0.484375
0.201401 0.179195 0.660296
0.211046 0.166880 0.855708
0.208720 0.179603 1.000000
0.210662 0.205463 0.000000
0.208308 0.207245 0.179413
0.210300 0.211252 0.205512
0.208546 0.205327 0.245677
0.208780 0.207187 0.354820
0.207227 0.201347 0.490209
0.208099 0.209738 0.666952
0.211781 0.211308 0.853212
0.204239 0.208866 1.000000
0.208131 0.246219 0.000000
0.204393 0.244291 0.174627
0.201195 0.239272 0.205015
0.204104 0.241262 0.239119
0.210185 0.248582 0.351306
0.207508 0.238983 0.487474
0.203569 0.246832 0.668715
0.202635 0.241878 0.856708
0.205264 0.248991 1.000000
0.211319 0.350000 0.000000
0.207485 0.352576 0.174895
0.207295 0.356709 0.210390
0.204037 0.353733 0.252083
0.207388 0.350302 0.350000
0.203630 0.350000 0.484375
0.205039 0.350000 0.664664
0.209011 0.352422 0.850907
0.201264 0.350000 1.000000
0.204175 0.484660 0.000000
0.210924 0.484599 0.167003
0.206810 0.489540 0.205864
0.207717 0.484375 0.251694
0.208666 0.490804 0.350000
0.205187 0.485192 0.484901
0.210400 0.488028 0.668019
0.203811 0.488841 0.853056
0.202845 0.489181 1.000000
0.203350 0.658051 0.000000
0.203479 0.658198 0.174696
0.209484 0.665000 0.204753
0.203890 0.664515 0.242215
0.208306 0.667791 0.350000
0.202750 0.659792 0.489032
0.211530 0.667286 0.665965
0.205128 0.662599 0.852268
0.210135 0.664533 1.000000
0.204128 0.851772 0.000000
0.201415 0.853336 0.173893
0.206415 0.855732 0.205410
0.211049 0.852695 0.248055
0.203278 0.856411 0.350132
0.210995 0.853598 0.484375
0.209215 0.850985 0.667157
0.205655 0.850405 0.852791
0.203507 0.856030 1.000000
0.209543 1.000000 0.000000
0.201989 1.000000 0.174651
0.210535 1.000000 0.212130
0.211039 1.000000 0.246555
0.203893 1.000000 0.352133
0.203005 1.000000 0.486301
0.208875 1.000000 0.660005
0.202118 1.000000 0.853031
0.207277 1.000000 1.000000
0.251346 0.000000 0.000000
0.242041 0.000000 0.170494
0.251345 0.000000 0.206109
0.247373 0.000000 0.243941
0.241352 0.000000 0.350000
0.249466 0.000000 0.491154
0.242185 0.000000 0.667744
0.247624 0.000000 0.853750
0.249830 0.000000 1.000000
0.248355 0.172647 0.000000
0.246679 0.176339 0.172202
0.248847 0.176642 0.210422
0.252428 0.169470 0.250648
0.249043 0.168837 0.350000
0.248563 0.168440 0.486843
0.251738 0.178006 0.664806
0.250479 0.175555 0.853348
0.248130 0.170567 1.000000
0.248781 0.207933 0.000000
0.252557 0.212012 0.178343
0.251689 0.204751 0.210202
0.241213 0.211192 0.247920
0.248554 0.204324 0.352544
0.249496 0.211508 0.484375
0.249685 0.210817 0.662515
0.246859 0.207333 0.852641
0.247612 0.212142 1.000000
0.251530 0.246220 0.000000
0.251940 0.239064 0.169601
0.250854 0.252941 0.204715
0.241979 0.251116 0.240783
0.248788 0.242252 0.350000
0.245366 0.242135 0.488951
0.244148 0.248296 0.664949
0.246757 0.245172 0.851632
0.246885 0.244433 1.000000
0.242822 0.350000 0.000000
0.251957 0.352271 0.173323
0.246584 0.350000 0.201421
0.246223 0.350000 0.246032
0.241168 0.350000 0.350000
0.246240 0.350000 0.484375
0.251984 0.351550 0.666093
0.242778 0.350000 0.851862
0.249935 0.353449 1.000000
0.251962 0.484375 0.000000
0.240815 0.484375 0.172063
0.252990 0.488225 0.206367
0.240372 0.484375 0.252853
0.242562 0.490022 0.352070
0.242574 0.484375 0.484375
0.251453 0.488649 0.666775
0.246666 0.484375 0.856786
0.243959 0.488835 1.000000
0.242537 0.666131 0.000000
0.243740 0.664136 0.179075
0.252631 0.668528 0.206713
0.252585 0.667260 0.249941
0.248701 0.662956 0.350000
0.243513 0.664733 0.484375
0.240851 0.664853 0.664736
0.251949 0.662521 0.851931
0.241896 0.663280 1.000000
0.249921 0.853291 0.000000
0.252429 0.851696 0.169205
0.251242 0.853185 0.207815
0.245465 0.856451 0.252508
0.253005 0.853066 0.355601
0.244764 0.854844 0.487766
0.239391 0.851366 0.663301
0.241474 0.850890 0.854935
0.240181 0.854857 1.000000
0.250988 1.000000 0.000000
0.239721 1.000000 0.174433
0.246482 1.000000 0.206523
0.242979 1.000000 0.238995
0.243248 1.000000 0.350000
0.248361 1.000000 0.487244
0.247422 1.000000 0.664914
0.244748 1.000000 0.855263
0.241378 1.000000 1.000000
0.350000 0.000000 0.000000
0.350000 0.000000 0.170256
0.350000 0.000000 0.201289
0.350000 0.000000 0.249784
0.351641 0.000000 0.353055
0.350000 0.000000 0.484375
0.356486 0.000000 0.658488
0.356100 0.000000 0.854652
0.350000 0.000000 1.000000
0.350000 0.173437 0.000000
0.356615 0.168348 0.169430
0.350000 0.169493 0.210678
0.350000 0.180380 0.249743
0.350000 0.172294 0.354938
0.350000 0.171214 0.487070
0.351665 0.166843 0.661625
0.357195 0.173352 0.854288
0.350000 0.176982 1.000000
0.355914 0.210679 0.000000
0.355919 0.203803 0.171230
0.350000 0.208062 0.209597
0.357207 0.206996 0.247959
0.350000 0.202286 0.351489
0.351759 0.202364 0.487901
0.350000 0.208244 0.661827
0.352273 0.210090 0.854133
0.350000 0.211765 1.000000
0.350171 0.247319 0.000000
0.350000 0.241394 0.172419
0.350000 0.240709 0.204032
0.352117 0.250429 0.240167
0.350000 0.249022 0.350000
0.350000 0.252617 0.484375
0.350000 0.248012 0.668152
0.350000 0.247900 0.853040
0.350000 0.246361 1.000000
0.356225 0.350933 0.000000
0.350000 0.352455 0.177470
0.356018 0.350000 0.203172
0.350000 0.352851 0.239446
0.350000 0.350000 0.356647
0.350000 0.355814 0.489058
0.350000 0.350000 0.660405
0.350000 0.350625 0.854791
0.350000 0.350000 1.000000
0.350000 0.490112 0.000000
0.355767 0.484375 0.172058
0.350000 0.484375 0.203526
0.350000 0.484375 0.241298
0.350000 0.487572 0.350000
0.354891 0.485644 0.484375
0.356090 0.484375 0.661903
0.353005 0.484375 0.850535
0.350000 0.489349 1.000000
0.350000 0.665262 0.000000
0.350000 0.663077 0.170362
0.350000 0.662805 0.206483
0.350000 0.666739 0.240829
0.350000 0.668121 0.350000
0.350000 0.660231 0.484375
0.352598 0.660662 0.661692
0.350000 0.667340 0.853385
0.350000 0.666242 1.000000
0.350000 0.850842 0.000000
0.356509 0.853406 0.178328
0.350000 0.854895 0.202015
0.350000 0.852162 0.240581
0.356062 0.855879 0.351811
0.350000 0.855703 0.484679
0.350000 0.856542 0.668604
0.350000 0.852423 0.851929
0.355131 0.853680 1.000000
0.350340 1.000000 0.000000
0.350000 1.000000 0.178088
0.350000 1.000000 0.211682
0.352372 1.000000 0.244401
0.350000 1.000000 0.351766
0.353270 1.000000 0.484375
0.350000 1.000000 0.662516
0.354283 1.000000 0.851406
0.357189 1.000000 1.000000
0.484375 0.000000 0.000000
0.484375 0.000000 0.171775
0.488250 0.000000 0.209537
0.491237 0.000000 0.242018
0.484375 0.000000 0.350000
0.484762 0.000000 0.484375
0.484375 0.000000 0.658158
0.484375 0.000000 0.855838
0.484375 0.000000 1.000000
0.484375 0.168508 0.000000
0.484375 0.167100 0.173378
0.484375 0.174341 0.203874
0.484375 0.177183 0.246672
0.488990 0.168496 0.355709
0.484375 0.177084 0.484375
0.484549 0.169571 0.667981
0.489035 0.173926 0.853887
0.490546 0.177286 1.000000
0.484375 0.201472 0.000000
0.484375 0.206356 0.171056
0.486786 0.203476 0.208847
0.486745 0.206747 0.243966
0.487717 0.205767 0.350000
0.487048 0.205305 0.485621
0.487694 0.203945 0.658186
0.489746 0.211409 0.850495
0.484375 0.211943 1.000000
0.486241 0.248381 0.000000
0.484615 0.246324 0.173460
0.491024 0.239727 0.203722
0.484375 0.240763 0.246840
0.489582 0.242101 0.351535
0.487565 0.239409 0.487336
0.484375 0.248237 0.664907
0.488855 0.242168 0.850844
0.484375 0.243013 1.000000
0.484375 0.350000 0.000000
0.489301 0.353707 0.173413
0.484375 0.352795 0.211087
0.488097 0.350000 0.239734
0.485780 0.354434 0.350000
0.484375 0.350000 0.484375
0.485847 0.350000 0.661554
0.484375 0.352249 0.855560
0.484375 0.350000 1.000000
0.484375 0.486145 0.000000
0.484375 0.488929 0.168498
0.484375 0.487838 0.205992
0.484375 0.487934 0.242215
0.489138 0.490571 0.350000
0.484375 0.484375 0.487301
0.484375 0.490579 0.664271
0.484375 0.484375 0.850408
0.484375 0.484375 1.000000
0.485704 0.665269 0.000000
0.487581 0.663517 0.171250
0.484375 0.664392 0.207284
0.484375 0.667968 0.248974
0.489476 0.659809 0.353886
0.485018 0.661558 0.489300
0.484375 0.662795 0.667715
0.484375 0.668040 0.852671
0.484527 0.663793 1.000000
0.484522 0.852537 0.000000
0.487512 0.854294 0.166891
0.484628 0.855721 0.211875
0.485782 0.853337 0.249220
0.490946 0.856738 0.350000
0.488537 0.852466 0.484375
0.486693 0.852233 0.663590
0.489774 0.853640 0.853778
0.485355 0.850622 1.000000
0.485852 1.000000 0.000000
0.490703 1.000000 0.171824
0.484375 1.000000 0.208962
0.488505 1.000000 0.248974
0.484375 1.000000 0.350000
0.484375 1.000000 0.486987
0.485865 1.000000 0.666329
0.489240 1.000000 0.851235
0.486200 1.000000 1.000000
0.661025 0.000000 0.000000
0.667087 0.000000 0.175512
0.661225 0.000000 0.211889
0.663522 0.000000 0.244507
0.661189 0.000000 0.356326
0.664399 0.000000 0.484375
0.668622 0.000000 0.660355
0.657754 0.000000 0.850408
0.661408 0.000000 1.000000
0.662801 0.175342 0.000000
0.665530 0.170192 0.173442
0.668791 0.179237 0.202950
0.664749 0.174167 0.252796
0.662189 0.177877 0.353620
0.667699 0.177108 0.484375
0.658036 0.173383 0.662638
0.662233 0.171184 0.855156
0.668469 0.176575 1.000000
0.661498 0.208260 0.000000
0.665115 0.206275 0.167995
0.657986 0.206446 0.202349
0.664642 0.202227 0.239487
0.661029 0.204065 0.350000
0.664378 0.208198 0.484375
0.665708 0.208856 0.667356
0.668723 0.203208 0.856064
0.661381 0.210338 1.000000
0.666405 0.240067 0.000000
0.667464 0.251402 0.177890
0.662112 0.246692 0.208829
0.667645 0.246624 0.242411
0.662985 0.251765 0.350727
0.664104 0.250883 0.484375
0.660386 0.242154 0.668212
0.668151 0.250852 0.851409
0.661218 0.242677 1.000000
0.663337 0.350000 0.000000
0.668755 0.351187 0.168413
0.657993 0.354256 0.209316
0.668377 0.356839 0.248315
0.660692 0.350000 0.353475
0.662457 0.350000 0.484375
0.662505 0.350000 0.662808
0.660586 0.350000 0.856317
0.668713 0.352610 1.000000
0.662887 0.484375 0.000000
0.664981 0.484375 0.180140
0.666088 0.484375 0.206544
0.665348 0.484830 0.248140
0.668700 0.484375 0.350000
0.660652 0.484375 0.484375
0.661337 0.485117 0.665758
0.663321 0.487660 0.854331
0.666713 0.484375 1.000000
0.668536 0.665968 0.000000
0.667606 0.664678 0.168712
0.657776 0.665544 0.206121
0.659177 0.666953 0.247271
0.662847 0.659312 0.350000
0.667200 0.668085 0.488478
0.661196 0.660625 0.662149
0.660002 0.661371 0.853209
0.659974 0.657929 1.000000
0.660929 0.852912 0.000000
0.667894 0.853682 0.169255
0.665617 0.855366 0.207673
0.664106 0.850833 0.248588
0.657702 0.850764 0.350000
0.662798 0.856094 0.490566
0.664479 0.856569 0.658405
0.658085 0.856395 0.852870
0.659316 0.852257 1.000000
0.667008 1.000000 0.000000
0.660042 1.000000 0.174764
0.660092 1.000000 0.210466
0.659397 1.000000 0.239494
0.664375 1.000000 0.350000
0.663539 1.000000 0.484375
0.664922 1.000000 0.667852
0.667037 1.000000 0.850586
0.664577 1.000000 1.000000
0.856253 0.000000 0.000000
0.856368 0.000000 0.175541
0.851189 0.000000 0.201871
0.856858 0.000000 0.252281
0.852699 0.000000 0.355557
0.851369 0.000000 0.484375
0.853961 0.000000 0.661953
0.856762 0.000000 0.850556
0.854191 0.000000 1.000000
0.853285 0.175565 0.000000
0.851725 0.172006 0.179214
0.854809 0.177336 0.208054
0.854366 0.176935 0.243663
0.852620 0.178333 0.350000
0.851899 0.173587 0.484375
0.854314 0.174320 0.661634
0.853956 0.179369 0.852129
0.853238 0.177339 1.000000
0.851841 0.207562 0.000000
0.851494 0.207715 0.178860
0.852261 0.201544 0.202047
0.855812 0.209946 0.246998
0.854219 0.202846 0.350000
0.851131 0.203299 0.486206
0.854247 0.204272 0.660853
0.850422 0.201277 0.853424
0.852564 0.210654 1.000000
0.854274 0.246626 0.000000
0.853033 0.252688 0.178609
0.855823 0.245064 0.201391
0.853280 0.241003 0.245597
0.853912 0.250268 0.350000
0.851978 0.245639 0.484375
0.853625 0.241200 0.664513
0.852725 0.251895 0.852517
0.851207 0.250374 1.000000
0.854082 0.353828 0.000000
0.854879 0.354281 0.175763
0.850679 0.350000 0.202685
0.852517 0.353072 0.247315
0.851836 0.350000 0.351771
0.855635 0.351471 0.484375
0.854736 0.355690 0.659411
0.851022 0.350832 0.853829
0.851696 0.350000 1.000000
0.852972 0.484375 0.000000
0.853683 0.484375 0.170750
0.852653 0.484881 0.206525
0.850916 0.484375 0.248961
0.856568 0.484375 0.352220
0.853051 0.484375 0.489177
0.856000 0.484399 0.667237
0.854705 0.490175 0.856905
0.855828 0.487125 1.000000
0.854884 0.659295 0.000000
0.851690 0.668203 0.168621
0.851847 0.664860 0.203800
0.854498 0.659537 0.245060
0.855707 0.663207 0.350520
0.852448 0.668567 0.487631
0.854508 0.667697 0.664382
0.853900 0.664448 0.854989
0.851943 0.660422 1.000000
0.852705 0.854216 0.000000
0.854621 0.852897 0.170214
0.850395 0.853461 0.203520
0.853749 0.853296 0.240962
0.852976 0.851698 0.350000
0.850808 0.851070 0.490901
0.855314 0.856389 0.664141
0.854907 0.855516 0.853788
0.854355 0.853791 1.000000
0.852488 1.000000 0.000000
0.850504 1.000000 0.178890
0.851469 1.000000 0.206132
0.850837 1.000000 0.247168
0.855642 1.000000 0.357192
0.850472 1.000000 0.484375
0.856108 1.000000 0.661257
0.855219 1.000000 0.856691
0.851860 1.000000 1.000000
1.000000 0.000000 0.000000
1.000000 0.000000 0.170677
1.000000 0.000000 0.209551
1.000000 0.000000 0.251501
1.000000 0.000000 0.350000
1.000000 0.000000 0.484375
1.000000 0.000000 0.661301
1.000000 0.000000 0.852175
1.000000 0.000000 1.000000
1.000000 0.176524 0.000000
1.000000 0.168117 0.174158
1.000000 0.175385 0.204086
1.000000 0.174324 0.251979
1.000000 0.180282 0.350000
1.000000 0.174899 0.489113
1.000000 0.179671 0.662424
1.000000 0.169391 0.855072
1.000000 0.171869 1.000000
1.000000 0.203667 0.000000
1.000000 0.210888 0.173644
1.000000 0.209137 0.207955
1.000000 0.203701 0.245484
1.000000 0.211352 0.350000
1.000000 0.203778 0.490034
1.000000 0.205447 0.658992
1.000000 0.201478 0.853428
1.000000 0.205439 1.000000
1.000000 0.250225 0.000000
1.000000 0.239525 0.179607
1.000000 0.240537 0.205342
1.000000 0.243466 0.244478
1.000000 0.245377 0.351699
1.000000 0.252518 0.484375
1.000000 0.243483 0.661142
1.000000 0.250205 0.854526
1.000000 0.250555 1.000000
1.000000 0.350000 0.000000
1.000000 0.350000 0.179663
1.000000 0.357041 0.210724
1.000000 0.356973 0.242770
1.000000 0.350000 0.350000
1.000000 0.355042 0.484375
1.000000 0.350000 0.659504
1.000000 0.355457 0.856241
1.000000 0.356599 1.000000
1.000000 0.484375 0.000000
1.000000 0.484375 0.173526
1.000000 0.484432 0.203735
1.000000 0.484375 0.248740
1.000000 0.484375 0.350000
1.000000 0.484375 0.484375
1.000000 0.491061 0.667611
1.000000 0.484375 0.852118
1.000000 0.484375 1.000000
1.000000 0.661084 0.000000
1.000000 0.662456 0.174150
1.000000 0.657804 0.201557
1.000000 0.662789 0.242651
1.000000 0.667733 0.350000
1.000000 0.666114 0.488638
1.000000 0.668013 0.666430
1.000000 0.663459 0.850405
1.000000 0.659397 1.000000
1.000000 0.852255 0.000000
1.000000 0.850970 0.174612
1.000000 0.852998 0.201427
1.000000 0.852826 0.248719
1.000000 0.855721 0.350000
1.000000 0.851011 0.489691
1.000000 0.855965 0.658938
1.000000 0.850519 0.854020
1.000000 0.855738 1.000000
1.000000 1.000000 0.000000
1.000000 1.000000 0.171759
1.000000 1.000000 0.207403
1.000000 1.000000 0.247023
1.000000 1.000000 0.350000
1.000000 1.000000 0.484375
1.000000 1.000000 0.658664
1.000000 1.000000 0.856883
1.000000 1.000000 1.000000
