peugeot_night.cube
TITLE Film Emulation LUT (shadow=1.8, mid=0.3, highlight=1.5)
LUT_3D_SIZE 5
DOMAIN_MIN 0 0 0
DOMAIN_MAX 1 1 1
0.000000 0.000000 0.000000
0.000000 0.000000 0.223635
0.000000 0.000000 0.481347
0.000000 0.000000 0.761470
0.000000 0.000000 1.000000
0.000000 0.223095 0.000000
0.000000 0.223087 0.222782
0.000000 0.223082 0.490482
0.000000 0.222802 0.764789
0.000000 0.222404 1.000000
0.000000 0.495847 0.000000
0.000000 0.495201 0.222180
0.000000 0.494317 0.494797
0.000000 0.493276 0.765008
0.000000 0.492414 1.000000
0.000000 0.764283 0.000000
0.000000 0.763948 0.222791
0.000000 0.763666 0.489455
0.000000 0.763215 0.763203
0.000000 0.762977 1.000000
0.000000 1.000000 0.000000
0.000000 1.000000 0.223393
0.000000 1.000000 0.483921
0.000000 1.000000 0.761508
0.000000 1.000000 1.000000
0.223381 0.000000 0.000000
0.223395 0.000000 0.223525
0.223398 0.000000 0.486537
0.222888 0.000000 0.762998
0.222879 0.000000 1.000000
0.222905 0.222645 0.000000
0.222715 0.222762 0.222475
0.222467 0.222387 0.495300
0.222329 0.222411 0.766154
0.222239 0.222470 1.000000
0.222711 0.493587 0.000000
0.222613 0.493178 0.222768
0.222721 0.491821 0.491539
0.222706 0.490559 0.764214
0.222621 0.489657 1.000000
0.222843 0.763229 0.000000
0.223253 0.763080 0.223017
0.223297 0.762804 0.486131
0.223562 0.762425 0.762384
0.223595 0.761977 1.000000
0.223684 1.000000 0.000000
0.223836 1.000000 0.223916
0.222183 1.000000 0.495560
0.222570 1.000000 0.765226
0.222627 1.000000 1.000000
0.486921 0.000000 0.000000
0.488888 0.000000 0.222698
0.490776 0.000000 0.490846
0.492746 0.000000 0.764601
0.493983 0.000000 1.000000
0.496431 0.222455 0.000000
0.495292 0.222391 0.222468
0.494395 0.222205 0.494500
0.493175 0.222606 0.765043
0.492235 0.222885 1.000000
0.491472 0.491207 0.000000
0.490425 0.490098 0.222677
0.488935 0.489047 0.489419
0.487867 0.487693 0.763129
0.486771 0.486711 1.000000
0.485480 0.762499 0.000000
0.484558 0.762060 0.223373
0.483610 0.761862 0.483734
0.482842 0.761268 0.761300
0.495820 0.766158 1.000000
0.494609 1.000000 0.000000
0.492845 1.000000 0.222796
0.491633 1.000000 0.491916
0.490174 1.000000 0.764033
0.489422 1.000000 1.000000
0.764451 0.000000 0.000000
0.765063 0.000000 0.222778
0.765667 0.000000 0.495542
0.766171 0.000000 0.765915
0.765584 0.000000 1.000000
0.765170 0.222568 0.000000
0.764698 0.222580 0.222376
0.764429 0.222564 0.491563
0.764211 0.222907 0.764262
0.763714 0.223084 1.000000
0.763357 0.488109 0.000000
0.762829 0.487617 0.223255
0.762549 0.486362 0.486542
0.762242 0.485227 0.762251
0.762071 0.484425 1.000000
0.761648 0.761569 0.000000
0.760952 0.761193 0.223626
0.765751 0.765642 0.495189
0.765216 0.765198 0.765245
0.764694 0.764630 1.000000
0.764355 1.000000 0.000000
0.763657 1.000000 0.223095
0.763305 1.000000 0.487854
0.762838 1.000000 0.762929
0.762343 1.000000 1.000000
1.000000 0.000000 0.000000
1.000000 0.000000 0.222475
1.000000 0.000000 0.494024
1.000000 0.000000 0.764992
1.000000 0.000000 1.000000
1.000000 0.222609 0.000000
1.000000 0.222985 0.222926
1.000000 0.223199 0.488636
1.000000 0.223007 0.763051
1.000000 0.223110 1.000000
1.000000 0.485650 0.000000
1.000000 0.485037 0.223595
1.000000 0.483383 0.483438
1.000000 0.482295 0.761197
1.000000 0.496377 1.000000
1.000000 0.765395 0.000000
1.000000 0.764809 0.222303
1.000000 0.764632 0.491432
1.000000 0.764157 0.764108
1.000000 0.763406 1.000000
1.000000 1.000000 0.000000
1.000000 1.000000 0.223303
1.000000 1.000000 0.484238
1.000000 1.000000 0.761375
1.000000 1.000000 1.000000
