peugeot_night.cube
TITLE Film Emulation LUT (shadow=1.8, mid=0.3, highlight=1.5)
LUT_3D_SIZE 9
DOMAIN_MIN 0 0 0
DOMAIN_MAX 1 1 1
0.000000 0.000000 0.000000
0.000000 0.000000 0.108320
0.000000 0.000000 0.223635
0.000000 0.000000 0.344483
0.000000 0.000000 0.481347
0.000000 0.000000 0.623094
0.000000 0.000000 0.761470
0.000000 0.000000 0.885959
0.000000 0.000000 1.000000
0.000000 0.107059 0.000000
0.000000 0.106721 0.106647
0.000000 0.106340 0.223469
0.000000 0.106086 0.347619
0.000000 0.105662 0.486307
0.000000 0.105274 0.627302
0.000000 0.104931 0.763251
0.000000 0.104492 0.886716
0.000000 0.104473 1.000000
0.000000 0.223095 0.000000
0.000000 0.222986 0.104788
0.000000 0.223087 0.222782
0.000000 0.222696 0.350278
0.000000 0.223082 0.490482
0.000000 0.222544 0.630494
0.000000 0.222802 0.764789
0.000000 0.222559 0.887357
0.000000 0.222404 1.000000
0.000000 0.351876 0.000000
0.000000 0.351889 0.103329
0.000000 0.352742 0.222463
0.000000 0.353452 0.353634
0.000000 0.353641 0.495289
0.000000 0.354473 0.634370
0.000000 0.354703 0.766090
0.000000 0.354458 0.887832
0.000000 0.354335 1.000000
0.000000 0.495847 0.000000
0.000000 0.496454 0.101893
0.000000 0.495201 0.222180
0.000000 0.494702 0.354022
0.000000 0.494317 0.494797
0.000000 0.494215 0.632602
0.000000 0.493276 0.765008
0.000000 0.492820 0.887467
0.000000 0.492414 1.000000
0.000000 0.632861 0.000000
0.000000 0.632326 0.102770
0.000000 0.631956 0.222725
0.000000 0.631222 0.352155
0.000000 0.630921 0.491693
0.000000 0.630661 0.630545
0.000000 0.630348 0.764319
0.000000 0.629513 0.886932
0.000000 0.629503 1.000000
0.000000 0.764283 0.000000
0.000000 0.764295 0.103834
0.000000 0.763948 0.222791
0.000000 0.763691 0.350487
0.000000 0.763666 0.489455
0.000000 0.763316 0.628609
0.000000 0.763215 0.763203
0.000000 0.762953 0.886460
0.000000 0.762977 1.000000
0.000000 0.886685 0.000000
0.000000 0.886517 0.104843
0.000000 0.886499 0.223114
0.000000 0.886450 0.348698
0.000000 0.886335 0.486841
0.000000 0.886295 0.626377
0.000000 0.886081 0.762292
0.000000 0.886148 0.886080
0.000000 0.886024 1.000000
0.000000 1.000000 0.000000
0.000000 1.000000 0.105772
0.000000 1.000000 0.223393
0.000000 1.000000 0.346775
0.000000 1.000000 0.483921
0.000000 1.000000 0.623719
0.000000 1.000000 0.761508
0.000000 1.000000 0.885649
0.000000 1.000000 1.000000
0.107666 0.000000 0.000000
0.107511 0.000000 0.107283
0.107136 0.000000 0.223750
0.106783 0.000000 0.346011
0.106486 0.000000 0.483652
0.105994 0.000000 0.625251
0.105673 0.000000 0.762356
0.105477 0.000000 0.886411
0.105147 0.000000 1.000000
0.106170 0.106080 0.000000
0.105692 0.105607 0.105681
0.105318 0.105317 0.223333
0.105204 0.105146 0.348583
0.104850 0.104864 0.488654
0.104509 0.104336 0.628876
0.104171 0.104179 0.763947
0.103695 0.103771 0.887057
0.103431 0.103604 1.000000
0.104312 0.222744 0.000000
0.104232 0.222624 0.103949
0.103632 0.222946 0.222945
0.103455 0.222692 0.352166
0.103221 0.222348 0.493021
0.102676 0.222384 0.632341
0.102510 0.222531 0.765505
0.102016 0.222343 0.887758
0.101735 0.222452 1.000000
0.102624 0.353166 0.000000
0.102363 0.353886 0.102403
0.102018 0.354065 0.222383
0.101665 0.354921 0.354801
0.101854 0.354840 0.495495
0.102206 0.354329 0.633753
0.102250 0.354162 0.765672
0.102676 0.353603 0.887674
0.102691 0.353247 1.000000
0.102249 0.495281 0.000000
0.102498 0.494856 0.102431
0.102689 0.494358 0.222288
0.102623 0.494009 0.353362
0.102998 0.493357 0.493389
0.103150 0.492682 0.631613
0.103322 0.492142 0.764536
0.103385 0.491624 0.887143
0.103876 0.491129 1.000000
0.103074 0.631414 0.000000
0.103358 0.630910 0.103307
0.103408 0.630601 0.222563
0.103693 0.630221 0.351318
0.103823 0.630070 0.490357
0.104197 0.629644 0.629638
0.104468 0.629011 0.763823
0.104564 0.628820 0.886750
0.104773 0.628368 1.000000
0.104248 0.763950 0.000000
0.104356 0.763616 0.104485
0.104579 0.763344 0.223163
0.104845 0.763191 0.349476
0.105020 0.763169 0.487842
0.105169 0.762881 0.627230
0.105275 0.762779 0.762831
0.105411 0.762486 0.886242
0.105807 0.762394 1.000000
0.105239 0.886400 0.000000
0.105260 0.886308 0.105536
0.105516 0.886283 0.223060
0.105848 0.886171 0.347853
0.105864 0.886163 0.484981
0.106099 0.885950 0.625199
0.106506 0.886004 0.761939
0.106451 0.885788 0.885887
0.106671 0.885750 1.000000
0.106162 1.000000 0.000000
0.106294 1.000000 0.106237
0.106415 1.000000 0.223511
0.106752 1.000000 0.345837
0.107079 1.000000 0.482619
0.107133 1.000000 0.622249
0.102091 1.000000 0.766111
0.102036 1.000000 0.887809
0.102313 1.000000 1.000000
0.223381 0.000000 0.000000
0.223781 0.000000 0.106454
0.223395 0.000000 0.223525
0.223517 0.000000 0.347251
0.223398 0.000000 0.486537
0.223128 0.000000 0.627194
0.222888 0.000000 0.762998
0.223017 0.000000 0.886641
0.222879 0.000000 1.000000
0.223094 0.105268 0.000000
0.223340 0.104844 0.105001
0.222921 0.104595 0.222798
0.223112 0.104214 0.350715
0.222830 0.103987 0.490799
0.222781 0.103456 0.630523
0.222368 0.103401 0.764628
0.222765 0.102782 0.887510
0.222563 0.102762 1.000000
0.222905 0.222645 0.000000
0.222701 0.222648 0.103358
0.222715 0.222762 0.222475
0.222541 0.222380 0.353425
0.222467 0.222387 0.495300
0.222303 0.222009 0.634396
0.222329 0.222411 0.766154
0.222564 0.222541 0.887841
0.222239 0.222470 1.000000
0.222336 0.354725 0.000000
0.222151 0.354614 0.101905
0.222043 0.354008 0.222234
0.222240 0.353752 0.353644
0.222595 0.353762 0.494541
0.222513 0.352927 0.632744
0.222367 0.352964 0.765274
0.222372 0.352360 0.887490
0.222555 0.352361 1.000000
0.222711 0.493587 0.000000
0.222571 0.493490 0.102914
0.222613 0.493178 0.222768
0.222502 0.492511 0.352462
0.222721 0.491821 0.491539
0.222584 0.490943 0.630385
0.222706 0.490559 0.764214
0.222956 0.490372 0.886882
0.222621 0.489657 1.000000
0.222619 0.630470 0.000000
0.223008 0.630058 0.103728
0.222854 0.629822 0.222807
0.222951 0.629115 0.350612
0.223050 0.629046 0.489119
0.222927 0.628437 0.628427
0.223240 0.628127 0.763382
0.222962 0.627746 0.886494
0.222965 0.627347 1.000000
0.222843 0.763229 0.000000
0.222901 0.763052 0.104914
0.223253 0.763080 0.223017
0.223025 0.762884 0.348308
0.223297 0.762804 0.486131
0.223071 0.762375 0.626460
0.223562 0.762425 0.762384
0.223293 0.762098 0.886024
0.223595 0.761977 1.000000
0.223148 0.886172 0.000000
0.223063 0.886128 0.105898
0.223365 0.886107 0.223315
0.223648 0.885936 0.346769
0.223311 0.885952 0.483805
0.223749 0.885787 0.623768
0.223711 0.885628 0.761486
0.223585 0.885525 0.885591
0.222085 0.888029 1.000000
0.223684 1.000000 0.000000
0.223357 1.000000 0.106918
0.223836 1.000000 0.223916
0.222472 1.000000 0.354805
0.222183 1.000000 0.495560
0.222208 1.000000 0.633339
0.222570 1.000000 0.765226
0.222301 1.000000 0.887466
0.222627 1.000000 1.000000
0.347383 0.000000 0.000000
0.347510 0.000000 0.105635
0.348568 0.000000 0.223164
0.348962 0.000000 0.348790
0.349253 0.000000 0.488218
0.350251 0.000000 0.629181
0.350480 0.000000 0.764094
0.351344 0.000000 0.887090
0.352047 0.000000 1.000000
0.350284 0.104340 0.000000
0.350793 0.104104 0.104005
0.351494 0.103787 0.222938
0.352265 0.103291 0.352176
0.352689 0.102951 0.492537
0.353257 0.102617 0.632550
0.354008 0.102521 0.765561
0.354538 0.102138 0.887825
0.355013 0.101694 1.000000
0.353356 0.222543 0.000000
0.354138 0.222661 0.102481
0.354687 0.222212 0.222485
0.354647 0.222464 0.354983
0.354659 0.222172 0.495912
0.354350 0.222583 0.633510
0.354004 0.222600 0.765541
0.353508 0.222477 0.887597
0.353190 0.222769 1.000000
0.354399 0.354134 0.000000
0.354064 0.353420 0.102295
0.353654 0.353759 0.222354
0.352855 0.353312 0.352795
0.352840 0.352513 0.493076
0.352313 0.352152 0.631720
0.351897 0.352104 0.764681
0.351672 0.351593 0.887122
0.351323 0.351200 1.000000
0.352133 0.492362 0.000000
0.352234 0.492115 0.103387
0.351610 0.491398 0.222454
0.351237 0.490763 0.351227
0.350629 0.490339 0.490406
0.350527 0.489751 0.629426
0.350458 0.489487 0.763782
0.349643 0.488813 0.886681
0.349645 0.488545 1.000000
0.350760 0.629360 0.000000
0.349847 0.628949 0.104359
0.350100 0.628699 0.222967
0.349114 0.628051 0.349738
0.348868 0.627942 0.487881
0.348513 0.627283 0.627103
0.348601 0.627073 0.762868
0.348007 0.626325 0.886369
0.347516 0.626259 1.000000
0.348458 0.763002 0.000000
0.348163 0.762759 0.105530
0.348252 0.762713 0.223250
0.347894 0.762493 0.347762
0.347344 0.762178 0.484978
0.346729 0.762051 0.625060
0.346241 0.761874 0.761870
0.346440 0.761620 0.885787
0.345582 0.761462 1.000000
0.346997 0.885986 0.000000
0.346767 0.885855 0.106296
0.346352 0.885809 0.223570
0.345708 0.885812 0.346060
0.345729 0.885632 0.482719
0.344962 0.885594 0.622490
0.354222 0.887828 0.765939
0.353853 0.887699 0.887811
0.353314 0.887693 1.000000
0.345220 1.000000 0.000000
0.354168 1.000000 0.102019
0.354032 1.000000 0.222358
0.353383 1.000000 0.353184
0.352923 1.000000 0.493479
0.352704 1.000000 0.631938
0.352183 1.000000 0.764743
0.351576 1.000000 0.887223
0.350933 1.000000 1.000000
0.486921 0.000000 0.000000
0.487935 0.000000 0.104778
0.488888 0.000000 0.222698
0.489495 0.000000 0.350636
0.490776 0.000000 0.490846
0.491451 0.000000 0.630706
0.492746 0.000000 0.764601
0.493590 0.000000 0.887495
0.493983 0.000000 1.000000
0.491416 0.103508 0.000000
0.492881 0.103062 0.103088
0.493317 0.102765 0.222725
0.493927 0.102701 0.353685
0.494925 0.102183 0.495389
0.495880 0.101832 0.634351
0.496141 0.101708 0.765972
0.495899 0.102059 0.887863
0.494956 0.102340 1.000000
0.496431 0.222455 0.000000
0.496276 0.222127 0.101842
0.495292 0.222391 0.222468
0.495304 0.222389 0.354052
0.494395 0.222205 0.494500
0.493995 0.222261 0.632719
0.493175 0.222606 0.765043
0.492984 0.222750 0.887411
0.492235 0.222885 1.000000
0.493838 0.353256 0.000000
0.493187 0.352604 0.102873
0.492580 0.352215 0.222455
0.492380 0.352345 0.351832
0.491634 0.351919 0.491408
0.491147 0.351744 0.630474
0.490597 0.351158 0.764304
0.489870 0.350797 0.886933
0.489643 0.350364 1.000000
0.491472 0.491207 0.000000
0.490488 0.490765 0.103997
0.490425 0.490098 0.222677
0.489354 0.489748 0.349966
0.488935 0.489047 0.489419
0.488557 0.488859 0.628534
0.487867 0.487693 0.763129
0.487367 0.487563 0.886533
0.486771 0.486711 1.000000
0.488134 0.628510 0.000000
0.488261 0.627852 0.104870
0.487095 0.627367 0.222960
0.486680 0.626972 0.348228
0.486368 0.626779 0.486196
0.486144 0.626301 0.626047
0.485686 0.625747 0.762241
0.485013 0.625271 0.885968
0.484277 0.625201 1.000000
0.485480 0.762499 0.000000
0.485031 0.762250 0.105832
0.484558 0.762060 0.223373
0.484032 0.762000 0.346374
0.483610 0.761862 0.483734
0.483139 0.761436 0.623769
0.482842 0.761268 0.761300
0.482173 0.761293 0.885599
0.495820 0.766158 1.000000
0.482984 0.885690 0.000000
0.482960 0.885674 0.107025
0.481762 0.885628 0.223415
0.495836 0.887894 0.354461
0.495689 0.887881 0.495477
0.494514 0.887760 0.633229
0.493937 0.887667 0.765468
0.493272 0.887438 0.887424
0.492878 0.887356 1.000000
0.494609 1.000000 0.000000
0.493630 1.000000 0.102788
0.492845 1.000000 0.222796
0.492637 1.000000 0.352211
0.491633 1.000000 0.491916
0.491300 1.000000 0.630368
0.490174 1.000000 0.764033
0.489968 1.000000 0.886813
0.489422 1.000000 1.000000
0.629080 0.000000 0.000000
0.629685 0.000000 0.103964
0.630614 0.000000 0.222885
0.631403 0.000000 0.351802
0.631793 0.000000 0.492805
0.632542 0.000000 0.632393
0.633021 0.000000 0.765385
0.633881 0.000000 0.887907
0.634370 0.000000 1.000000
0.632449 0.102539 0.000000
0.633079 0.102181 0.102331
0.633908 0.102030 0.222160
0.634226 0.101882 0.354886
0.634205 0.101869 0.496020
0.633517 0.102269 0.633532
0.633227 0.102284 0.765692
0.632975 0.102583 0.887624
0.632618 0.102858 1.000000
0.633516 0.222094 0.000000
0.632965 0.222389 0.102349
0.632835 0.222297 0.222565
0.632423 0.222512 0.352920
0.632047 0.222514 0.492824
0.631613 0.222543 0.631562
0.631225 0.222526 0.764454
0.630887 0.222951 0.887082
0.630135 0.223029 1.000000
0.631523 0.352377 0.000000
0.631055 0.351919 0.103409
0.630871 0.351233 0.222574
0.630030 0.350930 0.351233
0.630000 0.350641 0.490473
0.629518 0.350151 0.629510
0.628939 0.350237 0.763727
0.628743 0.349578 0.886644
0.627968 0.349265 1.000000
0.629109 0.489718 0.000000
0.629108 0.489468 0.104410
0.628343 0.488904 0.223208
0.628245 0.488206 0.349048
0.627753 0.487949 0.487654
0.627166 0.486896 0.627194
0.626935 0.486422 0.762689
0.626391 0.486285 0.886327
0.626039 0.485534 1.000000
0.627051 0.627294 0.000000
0.626819 0.626982 0.105295
0.626358 0.626533 0.223219
0.625847 0.626126 0.347341
0.625759 0.625809 0.484957
0.624928 0.625124 0.625283
0.624659 0.624984 0.761838
0.623821 0.623982 0.885737
0.623499 0.623211 1.000000
0.625166 0.762023 0.000000
0.624748 0.761788 0.106364
0.623890 0.761633 0.223549
0.623076 0.761562 0.345849
0.623100 0.761128 0.482583
0.622296 0.761001 0.622510
0.633971 0.765900 0.766052
0.633266 0.765820 0.887737
0.632965 0.765447 1.000000
0.634524 0.887948 0.000000
0.634083 0.887881 0.101864
0.633434 0.887804 0.222632
0.632927 0.887623 0.353650
0.632563 0.887601 0.493484
0.631931 0.887367 0.631635
0.631318 0.887244 0.764678
0.630880 0.887167 0.887171
0.630177 0.886968 1.000000
0.631754 1.000000 0.000000
0.631378 1.000000 0.103319
0.630487 1.000000 0.222840
0.630207 1.000000 0.351197
0.629313 1.000000 0.489839
0.628940 1.000000 0.629059
0.628472 1.000000 0.763517
0.628044 1.000000 0.886504
0.627390 1.000000 1.000000
0.764451 0.000000 0.000000
0.764941 0.000000 0.103202
0.765063 0.000000 0.222778
0.765436 0.000000 0.353480
0.765667 0.000000 0.495542
0.766069 0.000000 0.634252
0.766171 0.000000 0.765915
0.765653 0.000000 0.887747
0.765584 0.000000 1.000000
0.766064 0.101851 0.000000
0.766048 0.101836 0.101914
0.765967 0.102247 0.222140
0.765661 0.102321 0.354260
0.765400 0.102604 0.494556
0.765389 0.102781 0.632532
0.764908 0.102886 0.765051
0.764857 0.103028 0.887431
0.764868 0.103352 1.000000
0.765170 0.222568 0.000000
0.765100 0.222520 0.102786
0.764698 0.222580 0.222376
0.764722 0.222421 0.351764
0.764429 0.222564 0.491563
0.764351 0.222823 0.630311
0.764211 0.222907 0.764262
0.764123 0.222676 0.887008
0.763714 0.223084 1.000000
0.764387 0.351029 0.000000
0.764238 0.351240 0.104026
0.763891 0.350649 0.222965
0.763881 0.350290 0.350080
0.763555 0.350192 0.489073
0.763408 0.349792 0.628314
0.763111 0.349000 0.763353
0.763170 0.349080 0.886432
0.762774 0.348315 1.000000
0.763357 0.488109 0.000000
0.763343 0.487982 0.104802
0.762829 0.487617 0.223255
0.762968 0.487228 0.348544
0.762549 0.486362 0.486542
0.762422 0.485740 0.625995
0.762242 0.485227 0.762251
0.762001 0.484495 0.886119
0.762071 0.484425 1.000000
0.762408 0.625943 0.000000
0.762292 0.625520 0.106085
0.762144 0.625139 0.223381
0.761940 0.624916 0.346705
0.761862 0.624025 0.483510
0.761431 0.623554 0.623520
0.761271 0.623188 0.761408
0.761151 0.622734 0.885617
0.766149 0.634135 1.000000
0.761648 0.761569 0.000000
0.761438 0.761347 0.106814
0.760952 0.761193 0.223626
0.765879 0.766120 0.354749
0.765751 0.765642 0.495189
0.765644 0.765671 0.633311
0.765216 0.765198 0.765245
0.764937 0.764979 0.887448
0.764694 0.764630 1.000000
0.765413 0.887655 0.000000
0.765387 0.887560 0.102601
0.765074 0.887490 0.222602
0.764786 0.887249 0.352375
0.764345 0.887131 0.491630
0.764261 0.887163 0.630567
0.764071 0.887060 0.763883
0.763631 0.886939 0.886842
0.763427 0.886709 1.000000
0.764355 1.000000 0.000000
0.763897 1.000000 0.104070
0.763657 1.000000 0.223095
0.763393 1.000000 0.349479
0.763305 1.000000 0.487854
0.763037 1.000000 0.627308
0.762838 1.000000 0.762929
0.762661 1.000000 0.886182
0.762343 1.000000 1.000000
0.887665 0.000000 0.000000
0.887813 0.000000 0.102351
0.887815 0.000000 0.222051
0.888045 0.000000 0.355132
0.887843 0.000000 0.495963
0.887719 0.000000 0.633495
0.887704 0.000000 0.765488
0.887695 0.000000 0.887523
0.887537 0.000000 1.000000
0.887759 0.102281 0.000000
0.887629 0.102390 0.102563
0.887628 0.102713 0.222531
0.887528 0.102898 0.352871
0.887393 0.103126 0.492644
0.887286 0.103207 0.631381
0.887266 0.103419 0.764543
0.887169 0.103735 0.887119
0.887063 0.103881 1.000000
0.887272 0.222668 0.000000
0.887175 0.222728 0.103557
0.887110 0.222471 0.222496
0.887121 0.222942 0.351207
0.886990 0.222639 0.490050
0.886817 0.222713 0.629431
0.886817 0.222813 0.763584
0.886624 0.222715 0.886707
0.886596 0.223235 1.000000
0.886891 0.350424 0.000000
0.886770 0.350372 0.104554
0.886760 0.349635 0.222728
0.886603 0.349077 0.349306
0.886534 0.349185 0.487522
0.886393 0.348598 0.627018
0.886352 0.348020 0.762763
0.886240 0.348199 0.886234
0.886111 0.347768 1.000000
0.886438 0.487273 0.000000
0.886373 0.486777 0.105488
0.886170 0.485985 0.223058
0.886134 0.485680 0.347562
0.886028 0.484643 0.485097
0.886046 0.484563 0.625051
0.885935 0.484256 0.761670
0.885745 0.483495 0.885823
0.885677 0.482711 1.000000
0.885960 0.624939 0.000000
0.885893 0.624235 0.106371
0.885777 0.623976 0.223516
0.885642 0.623050 0.345814
0.885711 0.622756 0.482450
0.885527 0.622128 0.622448
0.887934 0.634002 0.766014
0.887782 0.633659 0.887843
0.887697 0.633004 1.000000
0.888002 0.765974 0.000000
0.887798 0.766008 0.101930
0.887686 0.765662 0.222235
0.887643 0.765256 0.353396
0.887561 0.765127 0.493533
0.887355 0.765051 0.631846
0.887296 0.764782 0.764679
0.887163 0.764439 0.887193
0.886993 0.764073 1.000000
0.887345 0.887386 0.000000
0.887282 0.887234 0.103305
0.887049 0.887134 0.222575
0.887026 0.887013 0.350750
0.886889 0.886853 0.489609
0.886713 0.886720 0.629144
0.886721 0.886751 0.763425
0.886594 0.886611 0.886563
0.886463 0.886447 1.000000
0.886742 1.000000 0.000000
0.886571 1.000000 0.104850
0.886482 1.000000 0.223059
0.886348 1.000000 0.348620
0.886365 1.000000 0.486749
0.886106 1.000000 0.626011
0.886146 1.000000 0.762090
0.886006 1.000000 0.886046
0.885797 1.000000 1.000000
1.000000 0.000000 0.000000
1.000000 0.000000 0.101867
1.000000 0.000000 0.222475
1.000000 0.000000 0.354161
1.000000 0.000000 0.494024
1.000000 0.000000 0.632432
1.000000 0.000000 0.764992
1.000000 0.000000 0.887340
1.000000 0.000000 1.000000
1.000000 0.102815 0.000000
1.000000 0.102808 0.102953
1.000000 0.103177 0.222467
1.000000 0.103346 0.352354
1.000000 0.103683 0.491340
1.000000 0.103749 0.630570
1.000000 0.104058 0.764092
1.000000 0.104007 0.886972
1.000000 0.104261 1.000000
1.000000 0.222609 0.000000
1.000000 0.223021 0.103943
1.000000 0.222985 0.222926
1.000000 0.222765 0.350199
1.000000 0.223199 0.488636
1.000000 0.222872 0.628490
1.000000 0.223007 0.763051
1.000000 0.222860 0.886479
1.000000 0.223110 1.000000
1.000000 0.349672 0.000000
1.000000 0.348781 0.105088
1.000000 0.348477 0.223061
1.000000 0.348268 0.348318
1.000000 0.348008 0.486403
1.000000 0.348009 0.625981
1.000000 0.347202 0.762182
1.000000 0.347183 0.886062
1.000000 0.346845 1.000000
1.000000 0.485650 0.000000
1.000000 0.484981 0.106092
1.000000 0.485037 0.223595
1.000000 0.484516 0.346402
1.000000 0.483383 0.483438
1.000000 0.483382 0.623411
1.000000 0.482295 0.761197
1.000000 0.482366 0.885661
1.000000 0.496377 1.000000
1.000000 0.623294 0.000000
1.000000 0.622706 0.106948
1.000000 0.622430 0.223511
1.000000 0.634072 0.354777
1.000000 0.633645 0.494943
1.000000 0.633046 0.632913
1.000000 0.632802 0.765391
1.000000 0.631787 0.887407
1.000000 0.631406 1.000000
1.000000 0.765395 0.000000
1.000000 0.765195 0.102743
1.000000 0.764809 0.222303
1.000000 0.764721 0.352032
1.000000 0.764632 0.491432
1.000000 0.764340 0.630446
1.000000 0.764157 0.764108
1.000000 0.763774 0.886763
1.000000 0.763406 1.000000
1.000000 0.887028 0.000000
1.000000 0.886877 0.104091
1.000000 0.886817 0.222650
1.000000 0.886696 0.349895
1.000000 0.886660 0.487814
1.000000 0.886414 0.627667
1.000000 0.886435 0.762630
1.000000 0.886169 0.886265
1.000000 0.886197 1.000000
1.000000 1.000000 0.000000
1.000000 1.000000 0.105360
1.000000 1.000000 0.223303
1.000000 1.000000 0.347370
1.000000 1.000000 0.484238
1.000000 1.000000 0.624172
1.000000 1.000000 0.761375
1.000000 1.000000 0.885748
1.000000 1.000000 1.000000
