peugeot_night.cube
TITLE Film Emulation LUT (shadow=1.8, mid=0.3, highlight=1.5)
LUT_3D_SIZE 33
DOMAIN_MIN 0 0 0
DOMAIN_MAX 1 1 1
0.000000 0.000000 0.000000
0.000000 0.000000 0.031134
0.000000 0.000000 0.058952
0.000000 0.000000 0.084377
0.000000 0.000000 0.108320
0.000000 0.000000 0.133271
0.000000 0.000000 0.160986
0.000000 0.000000 0.191581
0.000000 0.000000 0.223635
0.000000 0.000000 0.255772
0.000000 0.000000 0.285554
0.000000 0.000000 0.315034
0.000000 0.000000 0.344483
0.000000 0.000000 0.376016
0.000000 0.000000 0.409894
0.000000 0.000000 0.445213
0.000000 0.000000 0.481347
0.000000 0.000000 0.517750
0.000000 0.000000 0.552775
0.000000 0.000000 0.587281
0.000000 0.000000 0.623094
0.000000 0.000000 0.658890
0.000000 0.000000 0.693781
0.000000 0.000000 0.728328
0.000000 0.000000 0.761470
0.000000 0.000000 0.793630
0.000000 0.000000 0.824725
0.000000 0.000000 0.855550
0.000000 0.000000 0.885959
0.000000 0.000000 0.915723
0.000000 0.000000 0.944734
0.000000 0.000000 0.972869
0.000000 0.000000 1.000000
0.000000 0.030834 0.000000
0.000000 0.030689 0.030751
0.000000 0.030592 0.058369
0.000000 0.030543 0.083714
0.000000 0.030478 0.108000
0.000000 0.030344 0.133189
0.000000 0.030266 0.160781
0.000000 0.030178 0.191695
0.000000 0.030095 0.223983
0.000000 0.029995 0.255346
0.000000 0.029985 0.285703
0.000000 0.029907 0.314859
0.000000 0.029777 0.345331
0.000000 0.029678 0.377113
0.000000 0.029653 0.410942
0.000000 0.029553 0.446364
0.000000 0.029494 0.482712
0.000000 0.029375 0.519304
0.000000 0.029243 0.554119
0.000000 0.029199 0.588522
0.000000 0.029081 0.624431
0.000000 0.029041 0.659733
0.000000 0.028931 0.694372
0.000000 0.028873 0.728983
0.000000 0.028756 0.762010
0.000000 0.028698 0.793966
0.000000 0.028627 0.824989
0.000000 0.028517 0.855724
0.000000 0.028439 0.886069
0.000000 0.028386 0.915848
0.000000 0.028298 0.944772
0.000000 0.028220 0.972897
0.000000 0.028098 1.000000
0.000000 0.057966 0.000000
0.000000 0.057806 0.030262
0.000000 0.057743 0.057678
0.000000 0.057616 0.083081
0.000000 0.057568 0.107414
0.000000 0.057430 0.132853
0.000000 0.057273 0.160544
0.000000 0.057191 0.191443
0.000000 0.056992 0.223433
0.000000 0.056966 0.255594
0.000000 0.056726 0.285766
0.000000 0.056690 0.315659
0.000000 0.056568 0.345731
0.000000 0.056459 0.378004
0.000000 0.056231 0.411468
0.000000 0.056152 0.447740
0.000000 0.056078 0.483704
0.000000 0.055858 0.520558
0.000000 0.055812 0.555257
0.000000 0.055691 0.590068
0.000000 0.055575 0.625201
0.000000 0.055489 0.660120
0.000000 0.055306 0.695157
0.000000 0.055144 0.729236
0.000000 0.055109 0.762206
0.000000 0.054995 0.794312
0.000000 0.054858 0.825281
0.000000 0.054683 0.856033
0.000000 0.054604 0.886299
0.000000 0.054417 0.915960
0.000000 0.054399 0.944872
0.000000 0.054321 0.972926
0.000000 0.054098 1.000000
0.000000 0.082945 0.000000
0.000000 0.082820 0.029818
0.000000 0.082713 0.057107
0.000000 0.082604 0.082495
0.000000 0.082524 0.106895
0.000000 0.082244 0.132445
0.000000 0.082244 0.160602
0.000000 0.082027 0.191438
0.000000 0.081936 0.223356
0.000000 0.081903 0.255413
0.000000 0.081795 0.286278
0.000000 0.081613 0.316155
0.000000 0.081472 0.346376
0.000000 0.081350 0.378777
0.000000 0.081288 0.412766
0.000000 0.081252 0.448666
0.000000 0.080984 0.484929
0.000000 0.081048 0.521079
0.000000 0.080869 0.556167
0.000000 0.080678 0.591166
0.000000 0.080671 0.626271
0.000000 0.080473 0.661259
0.000000 0.080461 0.695626
0.000000 0.080381 0.729721
0.000000 0.080277 0.762846
0.000000 0.080032 0.794663
0.000000 0.079914 0.825779
0.000000 0.079729 0.856341
0.000000 0.079643 0.886558
0.000000 0.079506 0.916146
0.000000 0.079425 0.944942
0.000000 0.079431 0.972926
0.000000 0.079347 1.000000
0.000000 0.107059 0.000000
0.000000 0.106893 0.029456
0.000000 0.106741 0.056512
0.000000 0.106533 0.081992
0.000000 0.106721 0.106647
0.000000 0.106453 0.132218
0.000000 0.106401 0.160355
0.000000 0.106430 0.191416
0.000000 0.106340 0.223469
0.000000 0.106028 0.255366
0.000000 0.106125 0.286208
0.000000 0.106008 0.316724
0.000000 0.106086 0.347619
0.000000 0.105985 0.380038
0.000000 0.105781 0.414315
0.000000 0.105825 0.449539
0.000000 0.105662 0.486307
0.000000 0.105400 0.522312
0.000000 0.105558 0.557792
0.000000 0.105240 0.592072
0.000000 0.105274 0.627302
0.000000 0.105228 0.661782
0.000000 0.105111 0.696478
0.000000 0.105108 0.730105
0.000000 0.104931 0.763251
0.000000 0.105029 0.794863
0.000000 0.104896 0.826010
0.000000 0.104611 0.856658
0.000000 0.104492 0.886716
0.000000 0.104703 0.916266
0.000000 0.104491 0.944965
0.000000 0.104535 0.972934
0.000000 0.104473 1.000000
0.000000 0.132317 0.000000
0.000000 0.132146 0.028939
0.000000 0.132116 0.055899
0.000000 0.132204 0.081497
0.000000 0.131971 0.106099
0.000000 0.131929 0.131976
0.000000 0.132095 0.160215
0.000000 0.131854 0.191530
0.000000 0.131956 0.223555
0.000000 0.131899 0.255295
0.000000 0.131852 0.286139
0.000000 0.131789 0.317250
0.000000 0.131633 0.347852
0.000000 0.131765 0.381292
0.000000 0.131555 0.415500
0.000000 0.131783 0.450999
0.000000 0.131819 0.487176
0.000000 0.131390 0.523201
0.000000 0.131622 0.558543
0.000000 0.131516 0.593691
0.000000 0.131485 0.628061
0.000000 0.131364 0.662663
0.000000 0.131538 0.697070
0.000000 0.131442 0.730630
0.000000 0.131282 0.763451
0.000000 0.131090 0.795303
0.000000 0.131140 0.826321
0.000000 0.131139 0.856855
0.000000 0.131057 0.886959
0.000000 0.131171 0.916367
0.000000 0.130990 0.945054
0.000000 0.130999 0.972961
0.000000 0.131007 1.000000
0.000000 0.160663 0.000000
0.000000 0.160207 0.028509
0.000000 0.160299 0.055208
0.000000 0.160438 0.080847
0.000000 0.160544 0.105634
0.000000 0.160122 0.132018
0.000000 0.160460 0.160167
0.000000 0.160279 0.190998
0.000000 0.160091 0.223106
0.000000 0.160409 0.255065
0.000000 0.160292 0.286648
0.000000 0.160307 0.317719
0.000000 0.160372 0.348795
0.000000 0.160013 0.381686
0.000000 0.160072 0.416112
0.000000 0.159936 0.451955
0.000000 0.160120 0.488219
0.000000 0.160269 0.524238
0.000000 0.159894 0.559899
0.000000 0.159946 0.594448
0.000000 0.160241 0.629045
0.000000 0.160189 0.663353
0.000000 0.160033 0.697683
0.000000 0.159773 0.731298
0.000000 0.159933 0.763977
0.000000 0.159834 0.795484
0.000000 0.159777 0.826508
0.000000 0.159691 0.857166
0.000000 0.159702 0.887085
0.000000 0.159754 0.916408
0.000000 0.159666 0.945063
0.000000 0.159827 0.972979
0.000000 0.159562 1.000000
0.000000 0.191246 0.000000
0.000000 0.191011 0.028105
0.000000 0.191176 0.054633
0.000000 0.190949 0.080212
0.000000 0.191231 0.105489
0.000000 0.191207 0.131802
0.000000 0.191195 0.160053
0.000000 0.191099 0.191199
0.000000 0.191283 0.222905
0.000000 0.190951 0.255266
0.000000 0.190863 0.286346
0.000000 0.191243 0.317978
0.000000 0.191172 0.349713
0.000000 0.190771 0.382919
0.000000 0.190825 0.416972
0.000000 0.190681 0.453145
0.000000 0.191150 0.489468
0.000000 0.191042 0.525819
0.000000 0.190947 0.560786
0.000000 0.190809 0.595658
0.000000 0.190760 0.629865
0.000000 0.191016 0.664110
0.000000 0.190706 0.698348
0.000000 0.190690 0.731532
0.000000 0.190503 0.764185
0.000000 0.190663 0.795905
0.000000 0.190739 0.826973
0.000000 0.190757 0.857297
0.000000 0.190672 0.887275
0.000000 0.190552 0.916518
0.000000 0.190765 0.945171
0.000000 0.190690 0.972996
0.000000 0.190724 1.000000
0.000000 0.223095 0.000000
0.000000 0.223276 0.027678
0.000000 0.223140 0.054093
0.000000 0.223126 0.079634
0.000000 0.222986 0.104788
0.000000 0.223026 0.131439
0.000000 0.222926 0.160066
0.000000 0.222752 0.191131
0.000000 0.223087 0.222782
0.000000 0.223006 0.255250
0.000000 0.222669 0.286879
0.000000 0.223203 0.318158
0.000000 0.222696 0.350278
0.000000 0.222716 0.383973
0.000000 0.222919 0.418153
0.000000 0.222817 0.454477
0.000000 0.223082 0.490482
0.000000 0.222875 0.527008
0.000000 0.222998 0.562394
0.000000 0.222847 0.596563
0.000000 0.222544 0.630494
0.000000 0.222543 0.664913
0.000000 0.222706 0.699055
0.000000 0.222931 0.732059
0.000000 0.222802 0.764789
0.000000 0.222463 0.796263
0.000000 0.222421 0.827138
0.000000 0.222453 0.857509
0.000000 0.222559 0.887357
0.000000 0.222272 0.916656
0.000000 0.222433 0.945256
0.000000 0.222692 0.973015
0.000000 0.222404 1.000000
0.000000 0.255270 0.000000
0.000000 0.255312 0.027283
0.000000 0.255500 0.053433
0.000000 0.255040 0.079106
0.000000 0.255082 0.104525
0.000000 0.255047 0.131099
0.000000 0.255000 0.160194
0.000000 0.255378 0.191034
0.000000 0.255124 0.222750
0.000000 0.255102 0.254858
0.000000 0.254836 0.286882
0.000000 0.255261 0.318867
0.000000 0.255075 0.350925
0.000000 0.255329 0.384492
0.000000 0.255181 0.419721
0.000000 0.255159 0.455643
0.000000 0.255364 0.491349
0.000000 0.255129 0.528135
0.000000 0.255329 0.562984
0.000000 0.254819 0.597479
0.000000 0.254757 0.631338
0.000000 0.254961 0.665497
0.000000 0.255078 0.699294
0.000000 0.255120 0.732677
0.000000 0.255055 0.765251
0.000000 0.254875 0.796646
0.000000 0.254885 0.827403
0.000000 0.254979 0.857934
0.000000 0.254933 0.887594
0.000000 0.255155 0.916834
0.000000 0.254693 0.945297
0.000000 0.254922 0.973058
0.000000 0.254704 1.000000
0.000000 0.286913 0.000000
0.000000 0.286956 0.026792
0.000000 0.286614 0.052760
0.000000 0.286688 0.078316
0.000000 0.287157 0.103942
0.000000 0.286950 0.130908
0.000000 0.287003 0.159747
0.000000 0.287101 0.190816
0.000000 0.287339 0.222840
0.000000 0.287038 0.254979
0.000000 0.287076 0.286902
0.000000 0.287204 0.319272
0.000000 0.287245 0.351533
0.000000 0.287225 0.385838
0.000000 0.287053 0.420561
0.000000 0.287412 0.456216
0.000000 0.287500 0.492796
0.000000 0.287469 0.529315
0.000000 0.287160 0.564163
0.000000 0.287092 0.598349
0.000000 0.287533 0.632487
0.000000 0.287149 0.666527
0.000000 0.287624 0.700041
0.000000 0.287279 0.733251
0.000000 0.287854 0.765586
0.000000 0.287769 0.796979
0.000000 0.287522 0.827862
0.000000 0.287866 0.858041
0.000000 0.287857 0.887826
0.000000 0.287848 0.916965
0.000000 0.287879 0.945345
0.000000 0.287948 0.973069
0.000000 0.288034 1.000000
0.000000 0.318457 0.000000
0.000000 0.318627 0.026345
0.000000 0.319211 0.052163
0.000000 0.318995 0.077776
0.000000 0.318974 0.103812
0.000000 0.318846 0.130741
0.000000 0.319519 0.159669
0.000000 0.319361 0.190642
0.000000 0.319449 0.222822
0.000000 0.319196 0.255221
0.000000 0.319388 0.287517
0.000000 0.319971 0.319503
0.000000 0.319534 0.352387
0.000000 0.320184 0.386771
0.000000 0.320212 0.421384
0.000000 0.319778 0.457284
0.000000 0.320235 0.493622
0.000000 0.320167 0.530425
0.000000 0.320231 0.564765
0.000000 0.320483 0.598953
0.000000 0.320247 0.633424
0.000000 0.320750 0.666977
0.000000 0.320622 0.700804
0.000000 0.320569 0.733703
0.000000 0.320712 0.765839
0.000000 0.320927 0.797374
0.000000 0.321252 0.828150
0.000000 0.320908 0.858387
0.000000 0.320784 0.887900
0.000000 0.321214 0.916984
0.000000 0.321269 0.945364
0.000000 0.320652 0.973033
0.000000 0.320696 1.000000
0.000000 0.351876 0.000000
0.000000 0.351636 0.025965
0.000000 0.352052 0.051531
0.000000 0.352233 0.077193
0.000000 0.351889 0.103329
0.000000 0.352335 0.130478
0.000000 0.352353 0.159563
0.000000 0.352824 0.190722
0.000000 0.352742 0.222463
0.000000 0.352950 0.254929
0.000000 0.352747 0.287524
0.000000 0.353215 0.320244
0.000000 0.353452 0.353634
0.000000 0.353777 0.387694
0.000000 0.353604 0.423165
0.000000 0.353548 0.458663
0.000000 0.353641 0.495289
0.000000 0.354041 0.531296
0.000000 0.353977 0.565972
0.000000 0.354545 0.600222
0.000000 0.354473 0.634370
0.000000 0.354861 0.667804
0.000000 0.354817 0.701219
0.000000 0.354682 0.733960
0.000000 0.354703 0.766090
0.000000 0.354477 0.797283
0.000000 0.354610 0.828171
0.000000 0.354373 0.858113
0.000000 0.354458 0.887832
0.000000 0.354291 0.916897
0.000000 0.354436 0.945342
0.000000 0.354187 0.973042
0.000000 0.354335 1.000000
0.000000 0.386142 0.000000
0.000000 0.386276 0.025528
0.000000 0.386351 0.051034
0.000000 0.387155 0.076683
0.000000 0.387062 0.102774
0.000000 0.386909 0.130507
0.000000 0.387630 0.159594
0.000000 0.387343 0.190330
0.000000 0.387830 0.222669
0.000000 0.387776 0.254991
0.000000 0.387945 0.287844
0.000000 0.388315 0.320625
0.000000 0.388703 0.353851
0.000000 0.388737 0.388511
0.000000 0.388658 0.424015
0.000000 0.389279 0.459685
0.000000 0.389244 0.496313
0.000000 0.389153 0.532268
0.000000 0.389115 0.566329
0.000000 0.388963 0.600522
0.000000 0.389193 0.634473
0.000000 0.389040 0.667652
0.000000 0.389182 0.701070
0.000000 0.389038 0.733665
0.000000 0.388975 0.765837
0.000000 0.388464 0.797085
0.000000 0.388752 0.827868
0.000000 0.388306 0.858023
0.000000 0.387971 0.887790
0.000000 0.387895 0.916845
0.000000 0.388201 0.945311
0.000000 0.387920 0.973047
0.000000 0.387871 1.000000
0.000000 0.422262 0.000000
0.000000 0.422399 0.025075
0.000000 0.422553 0.050337
0.000000 0.423032 0.075974
0.000000 0.422812 0.102497
0.000000 0.422890 0.129941
0.000000 0.423244 0.159307
0.000000 0.423602 0.190441
0.000000 0.423512 0.222045
0.000000 0.424025 0.254930
0.000000 0.424211 0.287782
0.000000 0.424314 0.321228
0.000000 0.424616 0.354685
0.000000 0.424361 0.389119
0.000000 0.424399 0.424600
0.000000 0.424429 0.459806
0.000000 0.423996 0.496059
0.000000 0.423985 0.531553
0.000000 0.423755 0.565948
0.000000 0.423918 0.599742
0.000000 0.423926 0.633551
0.000000 0.423714 0.667461
0.000000 0.423478 0.700642
0.000000 0.422938 0.733641
0.000000 0.423403 0.765540
0.000000 0.422934 0.797044
0.000000 0.422831 0.827672
0.000000 0.422604 0.857933
0.000000 0.422456 0.887617
0.000000 0.422352 0.916726
0.000000 0.422064 0.945293
0.000000 0.422186 0.973020
0.000000 0.422021 1.000000
0.000000 0.459229 0.000000
0.000000 0.459147 0.024612
0.000000 0.459579 0.049800
0.000000 0.459306 0.075387
0.000000 0.459730 0.101924
0.000000 0.460217 0.130028
0.000000 0.459978 0.159129
0.000000 0.460518 0.190053
0.000000 0.460039 0.222520
0.000000 0.460451 0.254598
0.000000 0.459879 0.288041
0.000000 0.459628 0.320996
0.000000 0.459442 0.354597
0.000000 0.459673 0.388670
0.000000 0.459609 0.424073
0.000000 0.459109 0.458996
0.000000 0.459080 0.495077
0.000000 0.459287 0.530891
0.000000 0.459089 0.565542
0.000000 0.458676 0.599344
0.000000 0.458686 0.633133
0.000000 0.458830 0.667100
0.000000 0.458084 0.700128
0.000000 0.457955 0.733015
0.000000 0.458342 0.765194
0.000000 0.458128 0.796645
0.000000 0.458158 0.827462
0.000000 0.457409 0.857766
0.000000 0.457538 0.887547
0.000000 0.457840 0.916642
0.000000 0.457409 0.945180
0.000000 0.456886 0.973000
0.000000 0.457089 1.000000
0.000000 0.495847 0.000000
0.000000 0.496416 0.024246
0.000000 0.496633 0.049073
0.000000 0.495921 0.075187
0.000000 0.496454 0.101893
0.000000 0.496287 0.129933
0.000000 0.495516 0.159483
0.000000 0.495551 0.190470
0.000000 0.495201 0.222180
0.000000 0.495526 0.254770
0.000000 0.495278 0.287581
0.000000 0.495340 0.320750
0.000000 0.494702 0.354022
0.000000 0.494880 0.388402
0.000000 0.494864 0.423144
0.000000 0.494915 0.458995
0.000000 0.494317 0.494797
0.000000 0.494624 0.530464
0.000000 0.494619 0.564718
0.000000 0.494456 0.598996
0.000000 0.494215 0.632602
0.000000 0.493739 0.666328
0.000000 0.493719 0.700024
0.000000 0.493585 0.732892
0.000000 0.493276 0.765008
0.000000 0.493304 0.796442
0.000000 0.493205 0.827352
0.000000 0.493112 0.857525
0.000000 0.492820 0.887467
0.000000 0.492705 0.916611
0.000000 0.492761 0.945195
0.000000 0.492797 0.972994
0.000000 0.492414 1.000000
0.000000 0.532028 0.000000
0.000000 0.531769 0.024402
0.000000 0.531788 0.049432
0.000000 0.531315 0.075411
0.000000 0.531335 0.102265
0.000000 0.531332 0.129883
0.000000 0.530820 0.159434
0.000000 0.531127 0.190446
0.000000 0.530669 0.222391
0.000000 0.530753 0.254706
0.000000 0.530516 0.287678
0.000000 0.530703 0.320070
0.000000 0.530694 0.353806
0.000000 0.530594 0.387953
0.000000 0.530353 0.422528
0.000000 0.530175 0.458291
0.000000 0.529808 0.493728
0.000000 0.529632 0.529811
0.000000 0.529632 0.564599
0.000000 0.529254 0.598295
0.000000 0.529019 0.632159
0.000000 0.529081 0.665981
0.000000 0.528959 0.699553
0.000000 0.529247 0.732723
0.000000 0.528946 0.764840
0.000000 0.528665 0.796361
0.000000 0.528544 0.827127
0.000000 0.528429 0.857399
0.000000 0.528418 0.887219
0.000000 0.528023 0.916553
0.000000 0.528410 0.945177
0.000000 0.527657 0.972973
0.000000 0.527762 1.000000
0.000000 0.565659 0.000000
0.000000 0.565759 0.024664
0.000000 0.565700 0.049877
0.000000 0.565274 0.075857
0.000000 0.565518 0.102333
0.000000 0.565370 0.129954
0.000000 0.565029 0.159326
0.000000 0.564801 0.190186
0.000000 0.564921 0.222169
0.000000 0.564550 0.255112
0.000000 0.564704 0.287220
0.000000 0.564693 0.320046
0.000000 0.564285 0.353437
0.000000 0.564304 0.387090
0.000000 0.564417 0.421678
0.000000 0.564246 0.457191
0.000000 0.563869 0.493560
0.000000 0.563714 0.529084
0.000000 0.563615 0.564120
0.000000 0.563935 0.597995
0.000000 0.563876 0.631685
0.000000 0.563634 0.665745
0.000000 0.563607 0.699090
0.000000 0.563403 0.732282
0.000000 0.563267 0.764825
0.000000 0.562939 0.796035
0.000000 0.563334 0.827088
0.000000 0.562864 0.857216
0.000000 0.562904 0.887155
0.000000 0.562810 0.916460
0.000000 0.562574 0.945146
0.000000 0.562689 0.972964
0.000000 0.562047 1.000000
0.000000 0.599030 0.000000
0.000000 0.599100 0.024858
0.000000 0.599058 0.050280
0.000000 0.598730 0.076034
0.000000 0.598546 0.102639
0.000000 0.598547 0.130401
0.000000 0.598436 0.159755
0.000000 0.598249 0.190298
0.000000 0.598635 0.222697
0.000000 0.598512 0.254833
0.000000 0.598341 0.287609
0.000000 0.598293 0.319697
0.000000 0.597872 0.352671
0.000000 0.597660 0.386441
0.000000 0.597523 0.421152
0.000000 0.597836 0.456913
0.000000 0.597757 0.492259
0.000000 0.597216 0.528295
0.000000 0.597535 0.563402
0.000000 0.597071 0.597193
0.000000 0.597232 0.631280
0.000000 0.596999 0.664878
0.000000 0.596678 0.698895
0.000000 0.596777 0.732141
0.000000 0.596622 0.764426
0.000000 0.596427 0.795797
0.000000 0.596350 0.826736
0.000000 0.596377 0.857173
0.000000 0.595996 0.887074
0.000000 0.596252 0.916390
0.000000 0.596151 0.945035
0.000000 0.596079 0.972988
0.000000 0.595638 1.000000
0.000000 0.632861 0.000000
0.000000 0.632332 0.025129
0.000000 0.632328 0.050536
0.000000 0.632103 0.076378
0.000000 0.632326 0.102770
0.000000 0.631899 0.130596
0.000000 0.632193 0.159394
0.000000 0.632066 0.190559
0.000000 0.631956 0.222725
0.000000 0.631768 0.255152
0.000000 0.631797 0.287399
0.000000 0.631717 0.319593
0.000000 0.631222 0.352155
0.000000 0.631526 0.386215
0.000000 0.631186 0.420514
0.000000 0.631172 0.455838
0.000000 0.630921 0.491693
0.000000 0.630925 0.527709
0.000000 0.630565 0.562975
0.000000 0.630760 0.596523
0.000000 0.630661 0.630545
0.000000 0.630462 0.664438
0.000000 0.630391 0.698304
0.000000 0.630081 0.731855
0.000000 0.630348 0.764319
0.000000 0.630008 0.795649
0.000000 0.629900 0.826493
0.000000 0.629706 0.857035
0.000000 0.629513 0.886932
0.000000 0.629424 0.916416
0.000000 0.629675 0.945013
0.000000 0.629526 0.972949
0.000000 0.629503 1.000000
0.000000 0.665884 0.000000
0.000000 0.666157 0.025364
0.000000 0.665858 0.050975
0.000000 0.665598 0.076789
0.000000 0.665477 0.102954
0.000000 0.665663 0.130639
0.000000 0.665626 0.159705
0.000000 0.665592 0.190421
0.000000 0.665367 0.222619
0.000000 0.665073 0.255047
0.000000 0.665178 0.287426
0.000000 0.665030 0.319206
0.000000 0.665196 0.351679
0.000000 0.664944 0.385464
0.000000 0.664874 0.419982
0.000000 0.664630 0.455210
0.000000 0.664507 0.490930
0.000000 0.664730 0.526987
0.000000 0.664585 0.562148
0.000000 0.664292 0.596322
0.000000 0.664485 0.629965
0.000000 0.664193 0.664083
0.000000 0.664190 0.698176
0.000000 0.664218 0.731561
0.000000 0.663852 0.763804
0.000000 0.663698 0.795685
0.000000 0.663855 0.826545
0.000000 0.663625 0.856759
0.000000 0.663597 0.886778
0.000000 0.663486 0.916338
0.000000 0.663274 0.945037
0.000000 0.663511 0.972971
0.000000 0.663278 1.000000
0.000000 0.699487 0.000000
0.000000 0.699404 0.025646
0.000000 0.699326 0.051379
0.000000 0.699241 0.077106
0.000000 0.699140 0.103254
0.000000 0.699151 0.130816
0.000000 0.699087 0.159593
0.000000 0.698996 0.190887
0.000000 0.698884 0.222929
0.000000 0.698710 0.255032
0.000000 0.698660 0.287254
0.000000 0.698603 0.318769
0.000000 0.698469 0.351118
0.000000 0.698176 0.384783
0.000000 0.698455 0.418875
0.000000 0.698156 0.454387
0.000000 0.698032 0.490591
0.000000 0.698265 0.526479
0.000000 0.697919 0.561755
0.000000 0.697926 0.595345
0.000000 0.698027 0.629686
0.000000 0.697650 0.663894
0.000000 0.697900 0.697609
0.000000 0.697814 0.731299
0.000000 0.697425 0.763653
0.000000 0.697460 0.795450
0.000000 0.697364 0.826338
0.000000 0.697298 0.856751
0.000000 0.697480 0.886727
0.000000 0.697157 0.916270
0.000000 0.697176 0.945002
0.000000 0.697243 0.972933
0.000000 0.696932 1.000000
0.000000 0.732241 0.000000
0.000000 0.732055 0.025941
0.000000 0.731943 0.051654
0.000000 0.732168 0.077622
0.000000 0.731816 0.103717
0.000000 0.731867 0.130672
0.000000 0.731640 0.160048
0.000000 0.731912 0.190565
0.000000 0.731518 0.222500
0.000000 0.731472 0.255361
0.000000 0.731780 0.287000
0.000000 0.731631 0.318797
0.000000 0.731568 0.350748
0.000000 0.731312 0.384097
0.000000 0.731261 0.418549
0.000000 0.731227 0.453929
0.000000 0.731184 0.489822
0.000000 0.731311 0.525726
0.000000 0.730959 0.560633
0.000000 0.730954 0.595207
0.000000 0.731113 0.629060
0.000000 0.730893 0.663078
0.000000 0.730940 0.697470
0.000000 0.730926 0.730768
0.000000 0.730940 0.763365
0.000000 0.730782 0.795096
0.000000 0.730491 0.826104
0.000000 0.730803 0.856500
0.000000 0.730454 0.886579
0.000000 0.730517 0.916203
0.000000 0.730316 0.944941
0.000000 0.730491 0.972920
0.000000 0.730478 1.000000
0.000000 0.764283 0.000000
0.000000 0.764422 0.026228
0.000000 0.764363 0.052039
0.000000 0.764198 0.077988
0.000000 0.764295 0.103834
0.000000 0.764213 0.130870
0.000000 0.764125 0.159862
0.000000 0.763912 0.191007
0.000000 0.763948 0.222791
0.000000 0.763875 0.255120
0.000000 0.763907 0.287135
0.000000 0.763752 0.318490
0.000000 0.763691 0.350487
0.000000 0.763645 0.383500
0.000000 0.763796 0.418140
0.000000 0.763594 0.453488
0.000000 0.763666 0.489455
0.000000 0.763569 0.525223
0.000000 0.763501 0.560431
0.000000 0.763401 0.594221
0.000000 0.763316 0.628609
0.000000 0.763475 0.662750
0.000000 0.763334 0.696854
0.000000 0.763198 0.730429
0.000000 0.763215 0.763203
0.000000 0.763339 0.794996
0.000000 0.763275 0.825767
0.000000 0.762945 0.856469
0.000000 0.762953 0.886460
0.000000 0.763042 0.916014
0.000000 0.763039 0.944859
0.000000 0.762891 0.972936
0.000000 0.762977 1.000000
0.000000 0.795783 0.000000
0.000000 0.795743 0.026476
0.000000 0.795485 0.052434
0.000000 0.795607 0.078308
0.000000 0.795607 0.104183
0.000000 0.795559 0.130940
0.000000 0.795614 0.159887
0.000000 0.795374 0.190962
0.000000 0.795368 0.223173
0.000000 0.795417 0.254961
0.000000 0.795236 0.286607
0.000000 0.795413 0.317948
0.000000 0.795235 0.349956
0.000000 0.795304 0.382786
0.000000 0.795087 0.417345
0.000000 0.795227 0.452895
0.000000 0.795221 0.488500
0.000000 0.795028 0.524735
0.000000 0.794950 0.559227
0.000000 0.795108 0.594003
0.000000 0.794907 0.628086
0.000000 0.794930 0.662280
0.000000 0.794992 0.696804
0.000000 0.794729 0.730115
0.000000 0.794614 0.763094
0.000000 0.794627 0.794748
0.000000 0.794666 0.825667
0.000000 0.794756 0.856254
0.000000 0.794708 0.886318
0.000000 0.794707 0.915950
0.000000 0.794461 0.944845
0.000000 0.794400 0.972891
0.000000 0.794345 1.000000
0.000000 0.826555 0.000000
0.000000 0.826483 0.026681
0.000000 0.826463 0.052755
0.000000 0.826284 0.078724
0.000000 0.826440 0.104451
0.000000 0.826397 0.131217
0.000000 0.826317 0.160093
0.000000 0.826159 0.191054
0.000000 0.826243 0.223219
0.000000 0.826090 0.255232
0.000000 0.826194 0.286769
0.000000 0.826014 0.317652
0.000000 0.826135 0.349737
0.000000 0.825963 0.382406
0.000000 0.825917 0.416257
0.000000 0.825971 0.452060
0.000000 0.825786 0.487768
0.000000 0.825741 0.523733
0.000000 0.825818 0.558975
0.000000 0.825909 0.593057
0.000000 0.825864 0.627419
0.000000 0.825731 0.662048
0.000000 0.825744 0.696292
0.000000 0.825550 0.730135
0.000000 0.825699 0.762944
0.000000 0.825541 0.794425
