riemann.cube
TITLE Hasselblad Film LUT (strength=0.05, sat=0.003)
LUT_3D_SIZE 5
DOMAIN_MIN 0 0 0
DOMAIN_MAX 1 1 1
0.374343 0.374549 0.374434
0.032262 0.032425 0.256759
0.026339 0.026583 0.379474
0.030387 0.030622 0.664127
0.032226 0.032304 0.928854
0.032560 0.256886 0.032476
0.031916 0.253500 0.253906
0.026437 0.191619 0.379430
0.030391 0.222555 0.664327
0.031802 0.240760 0.928968
0.025945 0.380202 0.026297
0.026273 0.379412 0.191274
0.026672 0.375447 0.375803
0.030809 0.442223 0.664033
0.031758 0.480243 0.928891
0.030284 0.664457 0.030427
0.030544 0.664302 0.222894
0.030773 0.664275 0.442093
0.031253 0.684137 0.683870
0.032381 0.719372 0.928818
0.032288 0.928775 0.031561
0.032170 0.929372 0.241162
0.031852 0.928986 0.480170
0.032057 0.928958 0.719249
0.031837 0.945643 0.945614
0.256793 0.032088 0.032663
0.253504 0.031868 0.253611
0.191579 0.026185 0.379893
0.222565 0.030834 0.664421
0.241224 0.031655 0.929025
0.253837 0.253777 0.031772
0.251523 0.251270 0.251338
0.191447 0.191623 0.379678
0.222776 0.222788 0.664222
0.241162 0.241104 0.928916
0.191421 0.379611 0.026430
0.191832 0.379692 0.191673
0.189334 0.375421 0.375358
0.222698 0.442141 0.664229
0.241087 0.479791 0.929089
0.222630 0.664466 0.030530
0.222739 0.664256 0.222896
0.222700 0.664243 0.442515
0.229773 0.684022 0.684028
0.241115 0.718995 0.928839
0.241111 0.929244 0.032299
0.241186 0.929015 0.241227
0.240920 0.928850 0.479904
0.240911 0.928936 0.719375
0.244415 0.945674 0.945272
0.379446 0.026446 0.026402
0.379674 0.026408 0.191481
0.375351 0.026386 0.375648
0.442429 0.030648 0.664012
0.480548 0.032262 0.928855
0.379607 0.191539 0.026308
0.379666 0.191644 0.191692
0.375592 0.189347 0.375486
0.442554 0.222729 0.664116
0.479740 0.240831 0.929262
0.375095 0.375395 0.026451
0.375578 0.375333 0.189640
0.372880 0.372965 0.372983
0.442451 0.442347 0.664238
0.480232 0.480123 0.928656
0.442166 0.664503 0.030769
0.442310 0.664279 0.222776
0.442148 0.664135 0.442309
0.456822 0.683915 0.684179
0.480153 0.719088 0.928967
0.479989 0.929210 0.031936
0.480060 0.929310 0.241266
0.480131 0.929028 0.480245
0.479822 0.929003 0.718865
0.488259 0.945662 0.945843
0.664405 0.030583 0.030232
0.664476 0.030237 0.222934
0.664298 0.030919 0.442084
0.683846 0.031286 0.683890
0.719120 0.031918 0.928783
0.664426 0.222806 0.030494
0.664260 0.222730 0.222686
0.664152 0.222737 0.442445
0.683834 0.229963 0.683891
0.719435 0.241245 0.928892
0.664429 0.442260 0.030478
0.664280 0.442149 0.222645
0.664034 0.442112 0.442431
0.684169 0.456743 0.683964
0.719496 0.480071 0.928835
0.683831 0.683983 0.031091
0.683700 0.684161 0.229918
0.683913 0.684100 0.456884
0.685598 0.685745 0.685464
0.719076 0.719191 0.928977
0.719200 0.929399 0.032130
0.719066 0.928899 0.241110
0.719047 0.929017 0.479949
0.719311 0.929026 0.719225
0.732490 0.945940 0.945757
0.928659 0.032015 0.032112
0.929157 0.031928 0.241172
0.929138 0.032221 0.479981
0.928877 0.031888 0.719623
0.945505 0.031476 0.945693
0.929022 0.241165 0.031965
0.928690 0.241012 0.241223
0.929087 0.240873 0.480242
0.928819 0.240938 0.719249
0.945900 0.244455 0.945764
0.928983 0.480309 0.031786
0.929102 0.480075 0.240961
0.929304 0.480045 0.480258
0.929007 0.480347 0.719173
0.945898 0.488752 0.945604
0.929201 0.719117 0.032282
0.929063 0.719198 0.241089
0.929141 0.719172 0.480241
0.928980 0.719012 0.719119
0.945616 0.732314 0.945630
0.945847 0.946018 0.031523
0.945830 0.945343 0.244739
0.945442 0.945827 0.488299
0.945770 0.945735 0.732041
0.954418 0.954599 0.954508
