riemann.cube
TITLE Hasselblad Film LUT (strength=0.05, sat=0.003)
LUT_3D_SIZE 9
DOMAIN_MIN 0 0 0
DOMAIN_MAX 1 1 1
0.374343 0.374549 0.374434
0.105760 0.105640 0.311732
0.032262 0.032425 0.256759
0.027993 0.028035 0.322722
0.026339 0.026583 0.379474
0.026572 0.026641 0.432327
0.030387 0.030622 0.664127
0.031977 0.032498 0.787570
0.032226 0.032304 0.928854
0.105596 0.311261 0.105607
0.060546 0.206442 0.206382
0.032429 0.129098 0.257051
0.028145 0.109149 0.322440
0.026598 0.097114 0.379212
0.026504 0.090812 0.432371
0.030373 0.113084 0.664327
0.031941 0.115846 0.788283
0.032069 0.121594 0.928924
0.032560 0.256886 0.032476
0.032264 0.257086 0.129177
0.031916 0.253500 0.253906
0.028180 0.217457 0.322437
0.026437 0.191619 0.379430
0.026094 0.176002 0.432260
0.030391 0.222555 0.664327
0.032081 0.227847 0.788295
0.031802 0.240760 0.928968
0.028065 0.322445 0.027973
0.028174 0.322341 0.109062
0.028315 0.322504 0.217505
0.027116 0.309008 0.308897
0.026119 0.285521 0.379882
0.026470 0.261532 0.432449
0.030597 0.332470 0.664215
0.032283 0.339957 0.788085
0.032029 0.360684 0.928928
0.025945 0.380202 0.026297
0.026429 0.379728 0.097142
0.026273 0.379412 0.191274
0.026471 0.379548 0.286123
0.026672 0.375447 0.375803
0.026536 0.347110 0.432404
0.030809 0.442223 0.664033
0.032207 0.452014 0.787880
0.031758 0.480243 0.928891
0.026101 0.433023 0.026267
0.026265 0.432473 0.090469
0.026418 0.432596 0.176140
0.026597 0.432614 0.261344
0.026523 0.432523 0.346954
0.026642 0.431902 0.431793
0.030840 0.552012 0.664248
0.032356 0.563824 0.788031
0.031974 0.599911 0.928901
0.030284 0.664457 0.030427
0.030363 0.664340 0.112838
0.030544 0.664302 0.222894
0.030683 0.664373 0.332321
0.030773 0.664275 0.442093
0.030395 0.664261 0.552179
0.031253 0.684137 0.683870
0.032104 0.675766 0.787920
0.032381 0.719372 0.928818
0.032212 0.788272 0.031925
0.031878 0.788132 0.116241
0.031937 0.788212 0.228109
0.032020 0.788304 0.339503
0.032292 0.787929 0.451871
0.032096 0.788330 0.564045
0.031822 0.788347 0.675896
0.032197 0.791316 0.791092
0.031715 0.838985 0.929170
0.032288 0.928775 0.031561
0.031800 0.928981 0.121374
0.032170 0.929372 0.241162
0.032023 0.929019 0.360714
0.031852 0.928986 0.480170
0.032147 0.929282 0.599482
0.032057 0.928958 0.719249
0.032237 0.928676 0.838616
0.031837 0.945643 0.945614
0.311484 0.105828 0.105798
0.206211 0.060303 0.206674
0.129202 0.032176 0.257454
0.109324 0.028122 0.322543
0.097102 0.026500 0.379843
0.090570 0.026342 0.432543
0.112778 0.030802 0.664478
0.116205 0.032454 0.788114
0.121676 0.032337 0.928897
0.206662 0.206488 0.060783
0.169635 0.169568 0.169503
0.129295 0.129233 0.257121
0.109165 0.109349 0.322358
0.097117 0.097142 0.379596
0.090487 0.090585 0.432394
0.112759 0.112847 0.664535
0.116149 0.116255 0.788129
0.121493 0.121588 0.928790
0.129461 0.256973 0.032474
0.129009 0.257364 0.129037
0.127030 0.253723 0.253968
0.109415 0.217650 0.322387
0.097336 0.191524 0.379677
0.090457 0.175916 0.432460
0.112750 0.222530 0.664375
0.116087 0.227919 0.788124
0.121597 0.240824 0.928850
0.109075 0.322314 0.028013
0.109231 0.322358 0.109183
0.109450 0.322354 0.217632
0.104553 0.309125 0.309110
0.097297 0.285872 0.379730
0.090633 0.261482 0.432606
0.112837 0.332525 0.664261
0.116246 0.340006 0.788023
0.121520 0.360553 0.929001
0.097185 0.379576 0.026244
0.097185 0.379438 0.097271
0.097207 0.379321 0.191482
0.097259 0.379664 0.285981
0.096477 0.375480 0.375701
0.090712 0.347035 0.432475
0.112991 0.442146 0.664312
0.116197 0.451930 0.788176
0.121567 0.480292 0.929078
0.090257 0.432724 0.026444
0.090465 0.432581 0.090516
0.090714 0.432385 0.176110
0.090551 0.432535 0.261594
0.090672 0.432512 0.347121
0.090773 0.431964 0.431791
0.113031 0.552121 0.664345
0.116149 0.564045 0.788103
0.121929 0.599889 0.928976
0.112875 0.664113 0.030689
0.112841 0.664305 0.112792
0.112974 0.664159 0.222972
0.113058 0.664237 0.332599
0.113026 0.664230 0.442235
0.113016 0.664289 0.551987
0.116277 0.684051 0.683973
0.115808 0.675990 0.788151
0.121733 0.719340 0.928849
0.116126 0.787940 0.032228
0.116096 0.788102 0.116187
0.115934 0.788313 0.228180
0.116336 0.788267 0.339931
0.116287 0.788272 0.451902
0.116070 0.788120 0.563920
0.116114 0.788178 0.675838
0.116545 0.791198 0.791280
0.121271 0.838743 0.928943
0.121678 0.928738 0.032017
0.121722 0.928755 0.121569
0.121557 0.929126 0.241075
0.121450 0.929221 0.360466
0.121545 0.928969 0.480355
0.121429 0.928925 0.599947
0.121554 0.929111 0.719199
0.121627 0.929083 0.838834
0.122591 0.945884 0.945807
0.256793 0.032088 0.032663
0.257058 0.032387 0.129244
0.253504 0.031868 0.253611
0.217666 0.028437 0.322274
0.191579 0.026185 0.379893
0.176061 0.026415 0.432824
0.222565 0.030834 0.664421
0.228139 0.031838 0.788106
0.241224 0.031655 0.929025
0.256996 0.129156 0.032502
0.257027 0.129091 0.129100
0.253825 0.127122 0.253396
0.217381 0.109168 0.322471
0.191558 0.097076 0.379798
0.176066 0.090540 0.432619
0.222527 0.112797 0.664399
0.227865 0.116018 0.788125
0.241037 0.121393 0.928987
0.253837 0.253777 0.031772
0.253701 0.253685 0.127057
0.251523 0.251270 0.251338
0.217409 0.217533 0.322604
0.191447 0.191623 0.379678
0.176056 0.176095 0.432647
0.222776 0.222788 0.664222
0.228130 0.227964 0.788217
0.241162 0.241104 0.928916
0.217674 0.322229 0.028140
0.217451 0.322388 0.109244
0.217673 0.322439 0.217524
0.207489 0.309086 0.308986
0.191546 0.285871 0.379551
0.176127 0.261523 0.432718
0.222929 0.332435 0.664390
0.228068 0.340210 0.788212
0.241021 0.360632 0.928986
0.191421 0.379611 0.026430
0.191724 0.379888 0.097124
0.191832 0.379692 0.191673
0.191542 0.379776 0.285797
0.189334 0.375421 0.375358
0.175979 0.347083 0.432376
0.222698 0.442141 0.664229
0.228021 0.451967 0.788060
0.241087 0.479791 0.929089
0.175895 0.432365 0.026392
0.175993 0.432528 0.090484
0.175963 0.432725 0.176065
0.176053 0.432326 0.261743
0.176012 0.432475 0.347080
0.176031 0.432009 0.431651
0.222933 0.551875 0.664308
0.228126 0.563902 0.787942
0.241293 0.599711 0.928834
0.222630 0.664466 0.030530
0.222800 0.664321 0.112832
0.222739 0.664256 0.222896
0.222931 0.664153 0.332646
0.222700 0.664243 0.442515
0.222705 0.664207 0.552271
0.229773 0.684022 0.684028
0.227948 0.675984 0.787965
0.241115 0.718995 0.928839
0.228079 0.787988 0.032226
0.228104 0.788118 0.116028
0.228105 0.788122 0.228098
0.228107 0.788228 0.339962
0.227829 0.788221 0.451995
0.228021 0.788074 0.564050
0.227921 0.788008 0.676002
0.229058 0.791296 0.791314
0.240866 0.838825 0.928962
0.241111 0.929244 0.032299
0.240752 0.929175 0.121431
0.241186 0.929015 0.241227
0.241292 0.928921 0.360487
0.240920 0.928850 0.479904
0.241099 0.928932 0.599827
0.240911 0.928936 0.719375
0.241054 0.929072 0.838775
0.244415 0.945674 0.945272
0.322240 0.028140 0.028313
0.322405 0.028208 0.109071
0.322577 0.028043 0.217189
0.309232 0.027293 0.308963
0.285957 0.026168 0.379827
0.261928 0.026189 0.432331
0.332508 0.030694 0.664401
0.339861 0.032481 0.788320
0.361023 0.031945 0.929026
0.322610 0.109437 0.028158
0.322372 0.109322 0.109137
0.322509 0.109315 0.217302
0.309082 0.104139 0.308865
0.286024 0.097019 0.379343
0.261766 0.090510 0.432211
0.332478 0.113174 0.664243
0.340070 0.116096 0.788074
0.360779 0.121478 0.928947
0.322530 0.217519 0.028211
0.322512 0.217661 0.109277
0.322552 0.217489 0.217487
0.309131 0.207622 0.308939
0.285919 0.191572 0.379442
0.261545 0.176178 0.432353
0.332556 0.222859 0.664128
0.339976 0.227997 0.788116
0.360717 0.241325 0.929077
0.308704 0.308640 0.027033
0.308806 0.308911 0.104323
0.309052 0.308942 0.207125
0.302839 0.303058 0.302883
0.285960 0.285741 0.379691
0.261685 0.261317 0.432424
0.332656 0.332517 0.664236
0.340061 0.340194 0.788247
0.360586 0.360935 0.928906
0.285847 0.379239 0.026137
0.285863 0.379644 0.096877
0.285948 0.379409 0.191265
0.286271 0.379657 0.285665
0.282700 0.375360 0.375258
0.261733 0.346906 0.432264
0.332530 0.442168 0.664234
0.339949 0.452064 0.788142
0.360867 0.480261 0.929156
0.261472 0.432238 0.026324
0.261548 0.432492 0.090332
0.261471 0.432401 0.175750
0.261428 0.432303 0.261232
0.261559 0.432747 0.346986
0.261053 0.431923 0.431777
0.332583 0.552045 0.664075
0.340063 0.563842 0.787944
0.360681 0.599823 0.929101
0.332619 0.664380 0.030483
0.332540 0.664485 0.112951
0.332482 0.664402 0.222689
0.332612 0.664166 0.332462
0.332632 0.664340 0.442226
0.332673 0.663999 0.552296
0.343375 0.683863 0.684138
0.340288 0.675853 0.788034
0.360600 0.718943 0.928910
0.340164 0.788292 0.032021
0.339997 0.788195 0.116028
0.340292 0.788247 0.227969
0.340226 0.787794 0.339983
0.340022 0.788102 0.451959
0.339975 0.788148 0.563735
0.340109 0.788299 0.675809
0.341460 0.791596 0.791173
0.360267 0.838848 0.928605
0.360735 0.929123 0.032013
0.360243 0.928733 0.121245
0.360773 0.929119 0.241324
0.360781 0.928746 0.360652
0.360500 0.928985 0.479870
0.360696 0.929053 0.599441
0.360565 0.929111 0.719132
0.360569 0.929096 0.838597
0.366341 0.945632 0.945664
0.379446 0.026446 0.026402
0.379589 0.026429 0.097162
0.379674 0.026408 0.191481
0.379716 0.026549 0.285666
0.375351 0.026386 0.375648
0.346923 0.026217 0.432110
0.442429 0.030648 0.664012
0.451875 0.032046 0.788049
0.480548 0.032262 0.928855
0.379789 0.097301 0.026111
0.379646 0.097248 0.097072
0.379809 0.097107 0.191552
0.379616 0.097159 0.285851
0.375343 0.096193 0.375604
0.347094 0.090581 0.432355
0.442603 0.112978 0.664290
0.452090 0.115974 0.788198
0.480182 0.121685 0.929259
0.379607 0.191539 0.026308
0.379858 0.191552 0.097363
0.379666 0.191644 0.191692
0.379726 0.191677 0.286078
0.375592 0.189347 0.375486
0.347154 0.176085 0.432500
0.442554 0.222729 0.664116
0.451836 0.227776 0.788251
0.479740 0.240831 0.929262
0.379546 0.286104 0.026469
0.379660 0.285822 0.097010
0.379602 0.285923 0.191660
0.379674 0.285897 0.285899
0.375615 0.282542 0.375481
0.347157 0.261216 0.432421
0.442595 0.332605 0.664136
0.451799 0.339959 0.788207
0.479769 0.360696 0.929048
0.375095 0.375395 0.026451
0.375293 0.375537 0.096294
0.375578 0.375333 0.189640
0.375607 0.375629 0.282887
0.372880 0.372965 0.372983
0.347323 0.347162 0.432363
0.442451 0.442347 0.664238
0.451902 0.451848 0.788327
0.480232 0.480123 0.928656
0.346925 0.432772 0.026226
0.347296 0.432588 0.090636
0.347065 0.432348 0.175995
0.347038 0.432376 0.261634
0.347124 0.432390 0.347260
0.346242 0.431689 0.432049
0.442448 0.552045 0.664367
0.452042 0.563689 0.788242
0.480142 0.599734 0.928922
0.442166 0.664503 0.030769
0.442269 0.664562 0.112994
0.442310 0.664279 0.222776
0.442268 0.664412 0.332515
0.442148 0.664135 0.442309
0.442275 0.664240 0.552239
0.456822 0.683915 0.684179
0.452169 0.675951 0.788220
0.480153 0.719088 0.928967
0.452039 0.788404 0.031964
0.451941 0.788339 0.115920
0.451993 0.788272 0.228058
0.452106 0.788129 0.340125
0.451876 0.788168 0.451976
0.451840 0.788298 0.563809
0.451664 0.788259 0.675942
0.453862 0.791565 0.791546
0.480059 0.838917 0.928973
0.479989 0.929210 0.031936
0.479876 0.929007 0.121349
0.480060 0.929310 0.241266
0.480324 0.928896 0.361063
0.480131 0.929028 0.480245
0.479899 0.929356 0.599397
0.479822 0.929003 0.718865
0.480380 0.929183 0.838922
0.488259 0.945662 0.945843
0.432468 0.026511 0.026449
0.432526 0.026544 0.090583
0.432555 0.026337 0.176108
0.432719 0.026542 0.261533
0.432695 0.026169 0.346995
0.431911 0.026625 0.431569
0.551892 0.030532 0.664269
0.564213 0.032212 0.787939
0.599867 0.032147 0.928496
0.432492 0.090265 0.026325
0.432462 0.090497 0.090613
0.432520 0.090307 0.176099
0.432498 0.090782 0.261524
0.432521 0.090367 0.347127
0.431797 0.090487 0.431738
0.552063 0.112810 0.664324
0.563979 0.116074 0.788322
0.599512 0.121710 0.929070
0.432491 0.175754 0.026200
0.432622 0.176006 0.090567
0.432628 0.176131 0.176148
0.432668 0.176197 0.261537
0.432490 0.175907 0.346956
0.431920 0.175892 0.431653
0.552021 0.222769 0.664185
0.563858 0.228018 0.788252
0.599498 0.241324 0.929117
0.432541 0.261438 0.026570
0.432531 0.261390 0.090644
0.432568 0.261726 0.176019
0.432736 0.261700 0.261674
0.432740 0.261637 0.347175
0.431785 0.261099 0.431704
0.552261 0.332655 0.664102
0.563695 0.340031 0.788239
0.599519 0.360753 0.928799
0.432679 0.347146 0.026393
0.432458 0.347240 0.090469
0.432427 0.347181 0.176076
0.432522 0.347162 0.261766
0.432475 0.347171 0.347120
0.431628 0.346259 0.432130
0.552368 0.442226 0.664066
0.563862 0.451971 0.788285
0.599728 0.480169 0.928878
0.431576 0.431971 0.026770
0.431956 0.431728 0.090636
0.432074 0.431827 0.176007
0.432001 0.431898 0.261199
0.431761 0.431944 0.346412
0.434131 0.434298 0.434138
0.552346 0.552307 0.664265
0.563893 0.564241 0.788374
0.599415 0.599868 0.928968
0.552097 0.664497 0.030502
0.552256 0.664337 0.112780
0.552166 0.664340 0.222816
0.552345 0.664443 0.332660
0.552254 0.664132 0.442457
0.552115 0.664201 0.552125
0.570319 0.684038 0.684081
0.563756 0.675957 0.788383
0.599568 0.719132 0.929095
0.564147 0.788215 0.031845
0.564057 0.788232 0.115986
0.563952 0.788155 0.228303
0.564047 0.788416 0.340150
0.563933 0.788255 0.451959
0.563721 0.788125 0.563994
0.564008 0.788017 0.675874
0.566330 0.790955 0.791460
0.599396 0.838516 0.929009
0.599939 0.929279 0.031461
0.599564 0.929191 0.121392
0.599590 0.929064 0.241556
0.600038 0.929073 0.360916
0.599625 0.929102 0.480003
0.599379 0.929138 0.599561
0.599576 0.928931 0.719083
0.599623 0.928799 0.838607
0.610273 0.945441 0.945629
0.664405 0.030583 0.030232
0.664257 0.030679 0.112909
0.664476 0.030237 0.222934
0.664202 0.030811 0.332258
0.664298 0.030919 0.442084
0.664208 0.030453 0.551663
0.683846 0.031286 0.683890
0.675789 0.032200 0.788336
0.719120 0.031918 0.928783
0.664351 0.112937 0.030371
0.664272 0.112935 0.112771
0.664235 0.112693 0.222830
0.664196 0.113083 0.332562
0.664024 0.112996 0.442199
0.664145 0.112724 0.552018
0.683794 0.116320 0.683882
0.675736 0.115852 0.788299
0.718963 0.121672 0.928930
0.664426 0.222806 0.030494
0.664350 0.222709 0.112871
0.664260 0.222730 0.222686
0.664296 0.222817 0.332512
0.664152 0.222737 0.442445
0.664195 0.222688 0.552078
0.683834 0.229963 0.683891
0.675948 0.227857 0.788182
0.719435 0.241245 0.928892
0.664676 0.332390 0.030133
0.664505 0.332543 0.112937
0.664585 0.332467 0.222664
0.664405 0.332553 0.332625
0.664415 0.332468 0.442519
0.664069 0.332529 0.552024
0.683948 0.343272 0.683851
0.676084 0.339983 0.788424
0.719295 0.360666 0.929345
0.664429 0.442260 0.030478
0.664177 0.442360 0.112682
0.664280 0.442149 0.222645
0.664359 0.442284 0.332558
0.664034 0.442112 0.442431
0.663869 0.442246 0.552070
0.684169 0.456743 0.683964
0.676053 0.451885 0.788187
0.719496 0.480071 0.928835
0.664082 0.552360 0.030557
0.664148 0.552184 0.112813
0.664182 0.552015 0.222810
0.664303 0.552198 0.332503
0.664173 0.552165 0.442307
0.664252 0.552134 0.552027
0.683894 0.570563 0.683992
0.675970 0.563947 0.788300
0.718911 0.599322 0.929076
0.683831 0.683983 0.031091
0.683838 0.683997 0.116339
0.683700 0.684161 0.229918
0.683958 0.683985 0.343248
0.683913 0.684100 0.456884
0.683824 0.683938 0.570119
0.685598 0.685745 0.685464
0.675818 0.675906 0.788067
0.719076 0.719191 0.928977
0.675773 0.788255 0.032272
0.675763 0.788356 0.116245
0.675748 0.788266 0.228196
0.675928 0.788002 0.339894
0.675709 0.787990 0.451935
0.675877 0.787996 0.564276
0.676114 0.788114 0.675817
0.678525 0.791245 0.791276
0.719252 0.838765 0.928973
0.719200 0.929399 0.032130
0.719012 0.928958 0.121735
0.719066 0.928899 0.241110
0.719158 0.929129 0.360481
0.719047 0.929017 0.479949
0.719139 0.929324 0.599784
0.719311 0.929026 0.719225
0.718987 0.928909 0.838908
0.732490 0.945940 0.945757
0.788145 0.032582 0.032294
0.788222 0.032390 0.116187
0.788119 0.031862 0.228207
0.788361 0.031974 0.340265
0.788334 0.032242 0.451981
0.788232 0.032024 0.563908
0.788095 0.031906 0.676117
0.791360 0.032021 0.791520
0.838624 0.031904 0.929251
0.788228 0.115912 0.032088
0.788217 0.116181 0.116117
0.788037 0.115939 0.228197
0.788061 0.116053 0.340024
0.788129 0.116220 0.451844
0.787945 0.116410 0.563826
0.787998 0.116136 0.676061
0.791376 0.116492 0.791512
0.838845 0.121436 0.928946
0.788297 0.228029 0.031973
0.788093 0.227963 0.116113
0.787965 0.228070 0.227913
0.788133 0.227993 0.339908
0.788076 0.227950 0.451910
0.788396 0.227867 0.563822
0.788085 0.227805 0.675756
0.791244 0.228830 0.791510
0.838947 0.240818 0.928908
0.788342 0.340098 0.031957
0.788358 0.340168 0.115846
0.788050 0.339902 0.227691
0.788192 0.339774 0.339963
0.788191 0.339690 0.451813
0.788179 0.339742 0.563808
0.788233 0.339913 0.675812
0.791430 0.341349 0.791447
0.838961 0.360493 0.929037
0.788137 0.451813 0.032170
0.788042 0.451869 0.115900
0.788237 0.451900 0.227850
0.788135 0.451956 0.339947
0.788075 0.451796 0.451885
0.787866 0.451777 0.563817
0.788146 0.452017 0.675911
0.791166 0.453779 0.791301
0.838996 0.480113 0.929031
0.787976 0.563898 0.032048
0.788112 0.563956 0.115833
0.788005 0.564064 0.228080
0.787980 0.563982 0.340133
0.788146 0.564011 0.452061
0.787903 0.564048 0.563991
0.788125 0.564128 0.675983
0.791278 0.566274 0.791431
0.838521 0.599736 0.929073
0.788354 0.675991 0.032005
0.788334 0.676153 0.115993
0.788365 0.676082 0.228204
0.788177 0.675699 0.339901
0.788130 0.675996 0.451981
0.787955 0.675843 0.564116
0.788133 0.676084 0.676083
0.791310 0.678782 0.791530
0.838780 0.719513 0.929054
0.791409 0.791472 0.032355
0.791503 0.791516 0.116784
0.791445 0.791424 0.228678
0.791595 0.791271 0.341337
0.791304 0.791426 0.453881
0.791334 0.791095 0.566327
0.791213 0.791428 0.678671
0.794364 0.794507 0.794591
0.838619 0.838735 0.929181
0.838678 0.929309 0.032188
0.838609 0.929209 0.121497
0.838734 0.928949 0.240634
0.838997 0.928732 0.360655
0.838975 0.929052 0.480482
0.838704 0.928959 0.599628
0.838994 0.928911 0.719212
0.838698 0.928957 0.838515
0.854032 0.945480 0.945608
0.928659 0.032015 0.032112
0.928981 0.032262 0.121384
0.929157 0.031928 0.241172
0.929588 0.031975 0.360621
0.929138 0.032221 0.479981
0.928985 0.031894 0.599695
0.928877 0.031888 0.719623
0.928901 0.032301 0.838914
0.945505 0.031476 0.945693
0.928882 0.121694 0.032168
0.929083 0.121317 0.121790
0.928710 0.121336 0.241387
0.929143 0.121698 0.360778
0.929010 0.121791 0.480219
0.928987 0.121964 0.599582
0.928984 0.121683 0.719500
0.929102 0.121559 0.838734
0.945976 0.122495 0.945572
0.929022 0.241165 0.031965
0.928913 0.240974 0.121615
0.928690 0.241012 0.241223
0.928688 0.241029 0.360627
0.929087 0.240873 0.480242
0.929241 0.240927 0.599561
0.928819 0.240938 0.719249
0.929191 0.240972 0.838910
0.945900 0.244455 0.945764
0.929079 0.360794 0.032036
0.929212 0.360500 0.121549
0.928999 0.360889 0.241005
0.928747 0.360640 0.360738
0.928935 0.360343 0.480074
0.929185 0.360203 0.599535
0.929086 0.360584 0.719188
0.929247 0.360632 0.838683
0.945923 0.366653 0.945410
0.928983 0.480309 0.031786
0.929221 0.479935 0.121414
0.929102 0.480075 0.240961
0.928914 0.480297 0.360532
0.929304 0.480045 0.480258
0.929142 0.480069 0.599706
0.929007 0.480347 0.719173
0.929054 0.480105 0.838579
0.945898 0.488752 0.945604
0.928761 0.599834 0.031976
0.928976 0.599645 0.121711
0.928824 0.599629 0.241152
0.928957 0.599330 0.360799
0.928936 0.599477 0.480359
0.928807 0.599843 0.599575
0.929058 0.599941 0.719287
0.929068 0.599563 0.838813
0.945808 0.610302 0.945510
0.929201 0.719117 0.032282
0.929040 0.718979 0.121848
0.929063 0.719198 0.241089
0.929188 0.719189 0.360599
0.929141 0.719172 0.480241
0.929017 0.719021 0.599503
0.928980 0.719012 0.719119
0.928990 0.719215 0.838636
0.945616 0.732314 0.945630
0.929062 0.838683 0.032387
0.929069 0.838611 0.121649
0.929057 0.838607 0.241047
0.929184 0.838946 0.361050
0.928915 0.838521 0.480090
0.929025 0.838249 0.599496
0.929109 0.838691 0.718811
0.928918 0.838742 0.838536
0.945549 0.854138 0.945540
0.945847 0.946018 0.031523
0.945702 0.945489 0.122892
0.945830 0.945343 0.244739
0.945720 0.945626 0.366663
0.945442 0.945827 0.488299
0.945569 0.945514 0.610300
0.945770 0.945735 0.732041
0.945747 0.945931 0.854011
0.954418 0.954599 0.954508
