riemann.cube
TITLE Hasselblad Film LUT (strength=0.05, sat=0.003)
LUT_3D_SIZE 33
DOMAIN_MIN 0 0 0
DOMAIN_MAX 1 1 1
0.374343 0.374549 0.374434
0.311292 0.311261 0.373225
0.261468 0.261361 0.347963
0.173840 0.173671 0.366210
0.105760 0.105640 0.311732
0.057946 0.057715 0.247944
0.040140 0.040070 0.226678
0.033969 0.034128 0.234450
0.032262 0.032425 0.256759
0.031411 0.031714 0.280304
0.030286 0.030617 0.298551
0.029024 0.029198 0.311228
0.027993 0.028035 0.322722
0.027263 0.027225 0.332996
0.026461 0.026640 0.346296
0.026364 0.026411 0.363268
0.026339 0.026583 0.379474
0.026245 0.026378 0.391427
0.025939 0.026188 0.402956
0.026233 0.026298 0.415323
0.026572 0.026641 0.432327
0.027432 0.027359 0.486094
0.028279 0.028332 0.545308
0.029373 0.029594 0.606545
0.030387 0.030622 0.664127
0.030910 0.031474 0.716225
0.031245 0.031878 0.736313
0.031631 0.032299 0.759284
0.031977 0.032498 0.787570
0.032185 0.032634 0.825908
0.032238 0.032328 0.875492
0.032133 0.032275 0.900125
0.032226 0.032304 0.928854
0.311250 0.373395 0.311387
0.263965 0.325943 0.325954
0.223624 0.279271 0.310081
0.153703 0.200772 0.333302
0.098256 0.136240 0.296399
0.057997 0.086676 0.247835
0.040161 0.059844 0.226570
0.034027 0.050927 0.234433
0.032392 0.048493 0.256861
0.031505 0.047258 0.280346
0.030339 0.045560 0.298534
0.029109 0.043409 0.311165
0.028096 0.041488 0.322590
0.027297 0.039942 0.332774
0.026647 0.038851 0.346130
0.026548 0.038410 0.363106
0.026509 0.038312 0.379313
0.026318 0.037835 0.391329
0.026080 0.037440 0.402894
0.026213 0.037319 0.415286
0.026516 0.037477 0.432275
0.027413 0.038921 0.486011
0.028372 0.040759 0.545305
0.029526 0.042731 0.606614
0.030523 0.044454 0.664254
0.031107 0.045796 0.716410
0.031452 0.045931 0.736571
0.031819 0.046082 0.759543
0.032080 0.046297 0.787823
0.032361 0.046648 0.826029
0.032381 0.046778 0.875629
0.032281 0.046953 0.900285
0.032306 0.047286 0.928901
0.261186 0.347902 0.261408
0.223343 0.309937 0.279249
0.191049 0.272651 0.272734
0.134271 0.206230 0.299019
0.088797 0.150110 0.274908
0.055538 0.105889 0.240428
0.040172 0.079843 0.226552
0.034119 0.067857 0.234422
0.032470 0.064613 0.256871
0.031663 0.062864 0.280444
0.030428 0.060574 0.298539
0.029134 0.057683 0.311122
0.028114 0.055151 0.322541
0.027253 0.052914 0.332667
0.026572 0.051396 0.346062
0.026495 0.050576 0.363058
0.026517 0.050143 0.379378
0.026350 0.049232 0.391363
0.026157 0.048465 0.403062
0.026238 0.048011 0.415418
0.026554 0.048020 0.432409
0.027432 0.050218 0.486052
0.028386 0.052886 0.545378
0.029525 0.055704 0.606576
0.030455 0.058214 0.664293
0.031080 0.060076 0.716431
0.031410 0.059974 0.736670
0.031794 0.060107 0.759687
0.032013 0.060254 0.788013
0.032383 0.060758 0.826121
0.032299 0.061329 0.875746
0.032208 0.061742 0.900351
0.032155 0.062202 0.928880
0.173637 0.365909 0.173687
0.153363 0.333129 0.200782
0.134107 0.298870 0.206284
0.105015 0.244722 0.244851
0.074925 0.187545 0.242141
0.051071 0.142134 0.226520
0.039181 0.114872 0.222859
0.034104 0.101458 0.234369
0.032477 0.096690 0.256855
0.031703 0.094015 0.280492
0.030475 0.090451 0.298584
0.029189 0.086053 0.311093
0.028137 0.082150 0.322594
0.027241 0.078514 0.332748
0.026667 0.076064 0.346181
0.026595 0.074707 0.363149
0.026539 0.073692 0.379406
0.026309 0.072140 0.391364
0.026190 0.070742 0.403049
0.026165 0.069646 0.415367
0.026483 0.069347 0.432325
0.027373 0.072956 0.486001
0.028463 0.077317 0.545291
0.029521 0.081699 0.606498
0.030372 0.085716 0.664279
0.031061 0.088613 0.716400
0.031369 0.088071 0.736725
0.031704 0.087918 0.759836
0.031951 0.088044 0.788160
0.032473 0.088906 0.826236
0.032275 0.090227 0.875911
0.032254 0.091094 0.900489
0.032198 0.091954 0.928939
0.105596 0.311261 0.105607
0.097887 0.296030 0.136220
0.088578 0.274729 0.150037
0.074957 0.241969 0.187527
0.060546 0.206442 0.206382
0.046259 0.170498 0.210119
0.037861 0.146691 0.217257
0.033941 0.134099 0.233434
0.032429 0.129098 0.257051
0.031658 0.125349 0.280639
0.030393 0.120537 0.298610
0.029222 0.114596 0.311056
0.028145 0.109149 0.322440
0.027212 0.104035 0.332481
0.026720 0.100652 0.345907
0.026726 0.098676 0.362889
0.026598 0.097114 0.379212
0.026384 0.094974 0.391197
0.026378 0.093109 0.403002
0.026257 0.091455 0.415329
0.026504 0.090812 0.432371
0.027416 0.095758 0.486009
0.028510 0.101771 0.545338
0.029550 0.107688 0.606494
0.030373 0.113084 0.664327
0.031076 0.117021 0.716478
0.031402 0.116215 0.736875
0.031720 0.115705 0.759938
0.031941 0.115846 0.788283
0.032451 0.117022 0.826330
0.032205 0.119082 0.875906
0.032139 0.120231 0.900443
0.032069 0.121594 0.928924
0.057752 0.247427 0.057747
0.057556 0.247416 0.086710
0.055189 0.240145 0.105890
0.050921 0.226284 0.142134
0.045947 0.210124 0.170359
0.041278 0.193470 0.193498
0.036494 0.176870 0.211529
0.033704 0.166262 0.232269
0.032521 0.161301 0.257167
0.031807 0.156752 0.280801
0.030489 0.150785 0.298753
0.029271 0.143215 0.311151
0.028265 0.136269 0.322499
0.027309 0.129682 0.332478
0.026859 0.125327 0.346003
0.026839 0.122811 0.362915
0.026721 0.120771 0.379275
0.026465 0.118047 0.391217
0.026451 0.115546 0.403024
0.026239 0.113291 0.415247
0.026481 0.112187 0.432307
0.027395 0.118573 0.485937
0.028456 0.126160 0.545363
0.029509 0.133755 0.606478
0.030431 0.140518 0.664385
0.031167 0.145626 0.716522
0.031522 0.144326 0.737026
0.031905 0.143690 0.760022
0.032079 0.143868 0.788418
0.032495 0.145360 0.826273
0.032218 0.148174 0.875887
0.032094 0.149775 0.900303
0.031896 0.151559 0.928781
0.040025 0.226064 0.039888
0.039827 0.226025 0.059835
0.039815 0.226189 0.079808
0.038933 0.222503 0.115050
0.037400 0.217138 0.146726
0.036214 0.211411 0.176987
0.035032 0.205706 0.205842
0.033404 0.198236 0.231204
0.032469 0.193495 0.257180
0.031877 0.188207 0.280914
0.030536 0.180971 0.298822
0.029228 0.171768 0.311220
0.028168 0.163408 0.322515
0.027157 0.155414 0.332511
0.026648 0.150059 0.346085
0.026638 0.146953 0.363025
0.026591 0.144404 0.379396
0.026388 0.140946 0.391386
0.026362 0.137737 0.403140
0.026133 0.134843 0.415277
0.026421 0.133380 0.432419
0.027288 0.141163 0.485998
0.028376 0.150425 0.545328
0.029409 0.159685 0.606380
0.030347 0.167918 0.664285
0.031097 0.174149 0.716305
0.031404 0.172582 0.736807
0.031758 0.171709 0.759817
0.031978 0.171854 0.788315
0.032370 0.173597 0.826193
0.032095 0.177113 0.875789
0.032014 0.178966 0.900187
0.031845 0.181171 0.928705
0.034308 0.234196 0.033944
0.034077 0.234085 0.050933
0.034040 0.234211 0.067867
0.034002 0.234187 0.101682
0.033477 0.233320 0.134304
0.033360 0.232124 0.166635
0.033327 0.231003 0.198664
0.032931 0.228340 0.228835
0.032226 0.224394 0.256231
0.031648 0.218770 0.280202
0.030495 0.210602 0.298444
0.029314 0.200183 0.311217
0.028200 0.190285 0.322523
0.027257 0.180970 0.332600
0.026830 0.174586 0.346058
0.026718 0.170999 0.363019
0.026528 0.168062 0.379354
0.026263 0.163990 0.391352
0.026143 0.160100 0.402930
0.025936 0.156596 0.415103
0.026160 0.154720 0.432189
0.027088 0.163783 0.485814
0.028207 0.174677 0.545110
0.029313 0.185553 0.606270
0.030336 0.195146 0.664172
0.031191 0.202596 0.716250
0.031472 0.200763 0.736722
0.031810 0.199575 0.759760
0.032040 0.199766 0.788297
0.032286 0.201915 0.826280
0.032022 0.206033 0.875861
0.031926 0.208160 0.900309
0.031801 0.210855 0.928861
0.032560 0.256886 0.032476
0.032458 0.256745 0.048614
0.032504 0.256884 0.064699
0.032510 0.256901 0.096836
0.032264 0.257086 0.129177
0.032439 0.257041 0.161514
0.032507 0.257133 0.193726
0.032273 0.255870 0.224851
0.031916 0.253500 0.253906
0.031378 0.248055 0.278424
0.030307 0.239575 0.297276
0.029237 0.228394 0.310843
0.028180 0.217457 0.322437
0.027172 0.206697 0.332470
0.026690 0.199273 0.345938
0.026551 0.195082 0.363014
0.026437 0.191619 0.379430
0.026247 0.186760 0.391485
0.026096 0.182290 0.403078
0.025938 0.178211 0.415249
0.026094 0.176002 0.432260
0.027013 0.186437 0.485811
0.028106 0.198993 0.545206
0.029284 0.211519 0.606354
0.030391 0.222555 0.664327
0.031271 0.231126 0.716343
0.031557 0.229073 0.736788
0.031859 0.227688 0.759733
0.032081 0.227847 0.788295
0.032214 0.230284 0.826271
0.032052 0.235153 0.875901
0.031918 0.237570 0.900377
0.031802 0.240760 0.928968
0.031816 0.280397 0.031611
0.031770 0.280310 0.047330
0.031810 0.280394 0.063019
0.031734 0.280494 0.094181
0.031462 0.280582 0.125662
0.031630 0.280531 0.157179
0.031745 0.280701 0.188619
0.031594 0.279789 0.219299
0.031445 0.277979 0.248534
0.031095 0.273756 0.274024
0.030205 0.265784 0.293994
0.029137 0.254834 0.308850
0.028092 0.243803 0.321513
0.027198 0.232500 0.332295
0.026723 0.223990 0.345785
0.026442 0.219268 0.363038
0.026390 0.215245 0.379466
0.026208 0.209663 0.391620
0.025929 0.204466 0.403228
0.025766 0.199863 0.415363
0.026036 0.197319 0.432290
0.026996 0.209178 0.485848
0.028214 0.223315 0.545082
0.029408 0.237533 0.606213
0.030537 0.249985 0.664239
0.031437 0.259749 0.716252
0.031625 0.257282 0.736641
0.031899 0.255747 0.759754
0.032184 0.255935 0.788332
0.032274 0.258693 0.826251
0.032115 0.264268 0.875895
0.032056 0.267087 0.900409
0.031894 0.270744 0.928880
0.030745 0.298579 0.030531
0.030774 0.298567 0.045616
0.030729 0.298534 0.060697
0.030675 0.298508 0.090586
0.030504 0.298552 0.120778
0.030587 0.298569 0.151003
0.030586 0.298564 0.181208
0.030553 0.298097 0.210995
0.030499 0.296907 0.239867
0.030349 0.293816 0.265953
0.029620 0.287459 0.287619
0.028793 0.277989 0.304534
0.027841 0.267949 0.319100
0.026945 0.257178 0.331495
0.026350 0.248582 0.345882
0.026139 0.243220 0.363226
0.026041 0.238566 0.379592
0.025947 0.232241 0.391691
0.025805 0.226485 0.403351
0.025712 0.221406 0.415514
0.025984 0.218647 0.432302
0.027053 0.232022 0.485793
0.028265 0.247739 0.545026
0.029410 0.263510 0.606121
0.030590 0.277426 0.664146
0.031560 0.288296 0.716182
0.031617 0.285510 0.736577
0.031891 0.283724 0.759713
0.032192 0.283936 0.788284
0.032255 0.287012 0.826222
0.032109 0.293313 0.875917
0.032170 0.296434 0.900464
0.032031 0.300613 0.928912
0.029417 0.311116 0.029133
0.029456 0.311154 0.043356
0.029391 0.311111 0.057694
0.029287 0.311082 0.085978
0.029244 0.311172 0.114581
0.029361 0.311217 0.143254
0.029398 0.311212 0.171933
0.029471 0.311143 0.200425
0.029471 0.310648 0.228648
0.029345 0.308890 0.254944
0.028907 0.304441 0.278009
0.028295 0.297451 0.297412
0.027553 0.289338 0.314546
0.026878 0.280103 0.329177
0.026361 0.272455 0.345180
0.026173 0.267295 0.363373
0.026075 0.262133 0.379704
0.026035 0.255152 0.391694
0.025907 0.248777 0.403431
0.025916 0.243061 0.415609
0.026166 0.240032 0.432306
0.027246 0.254760 0.485855
0.028292 0.272088 0.545155
0.029379 0.289522 0.606176
0.030502 0.304904 0.664150
0.031439 0.316899 0.716162
0.031565 0.313692 0.736583
0.031953 0.311670 0.759690
0.032278 0.311932 0.788200
0.032292 0.315296 0.826234
0.032138 0.322296 0.876026
0.032111 0.325847 0.900548
0.031895 0.330581 0.929010
0.028065 0.322445 0.027973
0.028168 0.322532 0.041377
0.028201 0.322418 0.055062
0.028104 0.322312 0.081870
0.028174 0.322341 0.109062
0.028318 0.322427 0.136159
0.028292 0.322437 0.163367
0.028259 0.322460 0.190303
0.028315 0.322504 0.217505
0.028280 0.321873 0.243580
0.027981 0.319252 0.267622
0.027562 0.314619 0.289098
0.027116 0.309008 0.308897
0.026597 0.301710 0.325937
0.026199 0.295385 0.343946
0.026091 0.290908 0.363245
0.026119 0.285521 0.379882
0.026083 0.277962 0.391822
0.026083 0.271103 0.403633
0.026102 0.264926 0.415772
0.026470 0.261532 0.432449
0.027448 0.277636 0.485969
0.028545 0.296549 0.545277
0.029522 0.315652 0.606333
0.030597 0.332470 0.664215
0.031350 0.345550 0.716189
0.031543 0.342005 0.736651
0.031831 0.339753 0.759666
0.032283 0.339957 0.788085
0.032296 0.343614 0.826117
0.032202 0.351423 0.875935
0.032190 0.355394 0.900392
0.032029 0.360684 0.928928
0.027020 0.332663 0.027029
0.027135 0.332731 0.039751
0.027111 0.332621 0.052698
0.027094 0.332539 0.078229
0.027125 0.332544 0.103960
0.027138 0.332623 0.129568
0.027157 0.332525 0.155381
0.027198 0.332595 0.180842
0.027169 0.332615 0.206572
0.027322 0.332658 0.232189
0.027286 0.331537 0.256786
0.026979 0.329262 0.279708
0.026775 0.326056 0.301730
0.026481 0.321470 0.321515
0.026232 0.317155 0.341622
0.026176 0.313880 0.362195
0.026193 0.308787 0.379523
0.026140 0.300966 0.391775
0.026213 0.293475 0.403567
0.026155 0.286814 0.415769
0.026503 0.282968 0.432522
0.027510 0.300352 0.486004
0.028561 0.320849 0.545242
0.029451 0.341584 0.606239
0.030493 0.359837 0.663931
0.031299 0.374111 0.715938
0.031480 0.370212 0.736397
0.031792 0.367689 0.759475
0.032234 0.367914 0.787980
0.032226 0.371819 0.826104
0.032096 0.380401 0.875871
0.032102 0.384744 0.900354
0.031888 0.390569 0.928890
0.026367 0.346306 0.026498
0.026462 0.346291 0.038762
0.026407 0.346206 0.051162
0.026533 0.346168 0.075798
0.026642 0.346081 0.100520
0.026530 0.346060 0.125251
0.026519 0.345894 0.149955
0.026630 0.346012 0.174493
0.026528 0.345921 0.199130
0.026567 0.345956 0.223852
0.026599 0.345769 0.248412
0.026518 0.345135 0.272362
0.026547 0.343708 0.295793
0.026346 0.341405 0.317623
0.026224 0.339217 0.339786
0.026293 0.337114 0.361573
0.026230 0.332340 0.379437
0.025996 0.324137 0.391931
0.026139 0.315835 0.403512
0.026134 0.308537 0.415657
0.026465 0.304392 0.432413
0.027498 0.323113 0.485908
0.028556 0.345264 0.545214
0.029485 0.367695 0.606242
0.030541 0.387426 0.663961
0.031343 0.402814 0.715894
0.031586 0.398609 0.736456
0.031915 0.395839 0.759441
0.032302 0.395895 0.788010
0.032249 0.400219 0.826148
0.032063 0.409546 0.876012
0.031990 0.414195 0.900407
0.031769 0.420524 0.929033
0.026144 0.363558 0.026251
0.026224 0.363466 0.038364
0.026223 0.363379 0.050438
0.026355 0.363392 0.074550
0.026474 0.363246 0.098713
0.026395 0.363170 0.122846
0.026424 0.363107 0.146895
0.026537 0.363197 0.170818
0.026445 0.363143 0.194941
0.026374 0.363213 0.219079
0.026411 0.363020 0.243174
0.026300 0.363168 0.267333
0.026402 0.362829 0.291431
0.026370 0.361940 0.314345
0.026480 0.361049 0.337573
0.026630 0.360328 0.360556
0.026721 0.355836 0.379042
0.026345 0.347260 0.391901
0.026328 0.338121 0.403373
0.026314 0.330219 0.415635
0.026599 0.325648 0.432494
0.027509 0.345633 0.486073
0.028660 0.369547 0.545341
0.029722 0.393755 0.606422
0.030601 0.414962 0.664055
0.031340 0.431443 0.715893
0.031626 0.426995 0.736344
0.031922 0.423924 0.759388
0.032203 0.423927 0.787895
0.032184 0.428495 0.826108
0.032027 0.438590 0.875974
0.031911 0.443528 0.900388
0.031666 0.450330 0.928950
0.025945 0.380202 0.026297
0.026063 0.380032 0.038199
0.026111 0.379935 0.050013
0.026348 0.379996 0.073542
0.026429 0.379728 0.097142
0.026347 0.379540 0.120789
0.026339 0.379422 0.144187
0.026449 0.379452 0.167675
0.026273 0.379412 0.191274
0.026302 0.379479 0.214952
0.026339 0.379308 0.238615
0.026325 0.379544 0.262307
0.026471 0.379548 0.286123
0.026488 0.379243 0.309382
0.026598 0.378859 0.332733
0.026683 0.378781 0.355967
0.026672 0.375447 0.375803
0.026253 0.367523 0.389656
0.026223 0.358607 0.401716
0.026191 0.351196 0.414822
0.026536 0.347110 0.432404
0.027521 0.368493 0.485875
0.028750 0.393902 0.545181
0.029874 0.419657 0.606306
0.030809 0.442223 0.664033
0.031534 0.459851 0.715984
0.031761 0.455144 0.736410
0.031967 0.452003 0.759362
0.032207 0.452014 0.787880
0.032227 0.456997 0.825979
0.032051 0.467799 0.875807
0.031986 0.473042 0.900253
0.031758 0.480243 0.928891
0.025919 0.392241 0.026264
0.025951 0.392096 0.037794
0.025968 0.392026 0.049225
0.026138 0.392103 0.072105
0.026284 0.391884 0.095033
0.026131 0.391680 0.118034
0.026210 0.391588 0.140845
0.026308 0.391617 0.163686
0.026236 0.391598 0.186583
0.026245 0.391611 0.209580
0.026308 0.391510 0.232566
0.026274 0.391672 0.255459
0.026457 0.391656 0.278484
0.026431 0.391764 0.301446
0.026540 0.391743 0.324354
0.026616 0.391884 0.347228
0.026551 0.389607 0.367718
0.026142 0.383417 0.383479
0.026195 0.375710 0.397081
0.026201 0.369680 0.411974
0.026511 0.367303 0.431506
0.027585 0.391171 0.486095
0.028810 0.418236 0.545388
0.029954 0.445575 0.606326
0.030836 0.469638 0.664108
0.031630 0.488430 0.715945
0.031838 0.483324 0.736262
0.032071 0.479950 0.759251
0.032151 0.480069 0.787814
0.032188 0.485353 0.825922
0.032014 0.496872 0.875759
0.031926 0.502481 0.900228
0.031673 0.510201 0.928806
0.025889 0.403785 0.026071
0.025900 0.403632 0.037306
0.025916 0.403561 0.048428
0.026085 0.403577 0.070704
0.026194 0.403410 0.093094
0.026066 0.403226 0.115571
0.026168 0.403229 0.137714
0.026304 0.403256 0.159992
0.026292 0.403264 0.182215
0.026228 0.403420 0.204429
0.026253 0.403299 0.226704
0.026269 0.403398 0.249068
0.026431 0.403407 0.271392
0.026424 0.403570 0.293702
0.026578 0.403361 0.315898
0.026621 0.403478 0.338188
0.026468 0.401807 0.358749
0.026059 0.397175 0.375818
0.026026 0.391154 0.391218
0.026072 0.387019 0.408052
0.026520 0.386794 0.429606
0.027654 0.413563 0.485642
0.028875 0.442564 0.545309
0.030124 0.471569 0.606256
0.031047 0.497057 0.664172
0.031749 0.516974 0.716074
0.032006 0.511540 0.736331
0.032314 0.507875 0.759330
0.032342 0.508010 0.787858
0.032370 0.513694 0.825915
0.032235 0.525909 0.875734
0.032114 0.531887 0.900216
0.031798 0.540189 0.928754
0.025845 0.416005 0.025908
0.025944 0.415831 0.036845
0.025969 0.415672 0.047697
0.026022 0.415583 0.069423
0.026161 0.415411 0.091281
0.026131 0.415410 0.113122
0.026205 0.415504 0.134738
0.026298 0.415546 0.156459
0.026309 0.415592 0.178226
0.026263 0.415715 0.199811
0.026290 0.415579 0.221598
0.026222 0.415627 0.243375
0.026365 0.415680 0.265121
0.026373 0.415815 0.286798
0.026552 0.415587 0.308417
0.026523 0.415682 0.330110
0.026447 0.414836 0.351018
0.026101 0.411997 0.369614
0.026107 0.408066 0.387009
0.026031 0.405722 0.405600
0.026486 0.407406 0.428980
0.027576 0.436799 0.486053
0.028811 0.467433 0.545631
0.029981 0.497642 0.606252
0.030964 0.524574 0.664215
0.031738 0.545620 0.716111
0.032030 0.539726 0.736286
0.032303 0.535775 0.759404
0.032317 0.536003 0.787879
0.032400 0.541989 0.825932
0.032246 0.554886 0.875709
0.032108 0.561286 0.900286
0.031791 0.570138 0.928749
0.026101 0.433023 0.026267
0.026169 0.432837 0.036972
0.026171 0.432693 0.047582
0.026172 0.432666 0.068965
0.026265 0.432473 0.090469
0.026238 0.432453 0.111959
0.026334 0.432540 0.133310
0.026430 0.432575 0.154795
0.026418 0.432596 0.176140
0.026414 0.432688 0.197347
0.026479 0.432587 0.218634
0.026442 0.432556 0.240010
0.026597 0.432614 0.261344
0.026577 0.432631 0.282710
0.026786 0.432393 0.304032
0.026674 0.432439 0.325526
0.026523 0.432523 0.346954
0.026258 0.431453 0.367237
0.026327 0.429716 0.386778
0.026195 0.429136 0.407410
0.026642 0.431902 0.431793
0.027672 0.462973 0.489075
0.028743 0.494215 0.547884
0.029798 0.524593 0.607275
0.030840 0.552012 0.664248
0.031624 0.574137 0.716192
0.031932 0.567789 0.736413
0.032242 0.563602 0.759510
0.032356 0.563824 0.788031
0.032471 0.570190 0.826055
0.032307 0.583766 0.875829
0.032234 0.590560 0.900442
0.031974 0.599911 0.928901
0.027080 0.486277 0.027250
0.027198 0.486218 0.038575
0.027248 0.486033 0.049845
0.027223 0.485931 0.072618
0.027289 0.485817 0.095531
0.027219 0.485902 0.118435
0.027202 0.485936 0.141214
0.027179 0.486097 0.164104
0.027216 0.486192 0.186868
0.027165 0.486273 0.209397
0.027301 0.486196 0.232031
0.027258 0.486142 0.254774
0.027441 0.486175 0.277495
0.027368 0.486129 0.300125
0.027575 0.486015 0.322801
0.027567 0.486064 0.345569
0.027525 0.486152 0.368282
0.027261 0.486130 0.391009
0.027414 0.485750 0.413482
0.027257 0.486031 0.436692
0.027514 0.489016 0.462879
0.028308 0.515267 0.515447
0.029191 0.540584 0.567993
0.029988 0.564768 0.620494
0.030892 0.586094 0.670584
0.031563 0.602838 0.716271
0.031872 0.596068 0.736456
0.032152 0.591635 0.759702
0.032261 0.591771 0.788152
0.032412 0.598459 0.826220
0.032311 0.612808 0.875976
0.032249 0.620064 0.900599
0.032084 0.629895 0.928939
0.028195 0.545540 0.028355
0.028336 0.545473 0.040545
0.028368 0.545321 0.052603
0.028318 0.545246 0.077053
0.028325 0.545145 0.101438
0.028239 0.545226 0.125984
0.028259 0.545202 0.150346
0.028295 0.545327 0.174839
0.028386 0.545380 0.199249
0.028359 0.545442 0.223531
0.028431 0.545324 0.247765
0.028309 0.545365 0.272192
0.028391 0.545461 0.296637
0.028343 0.545351 0.320944
0.028507 0.545330 0.345257
0.028644 0.545466 0.369609
0.028619 0.545502 0.393859
0.028455 0.545423 0.418103
0.028406 0.545438 0.442530
0.028249 0.545765 0.467292
0.028316 0.547932 0.494042
0.028940 0.567993 0.540521
0.029557 0.587295 0.587023
0.030302 0.605115 0.632828
0.031107 0.620120 0.676202
0.031702 0.631269 0.715921
0.031905 0.624378 0.736412
0.032211 0.619671 0.759635
0.032270 0.619747 0.788096
0.032483 0.626761 0.826160
0.032341 0.641832 0.875893
0.032361 0.649443 0.900580
0.032187 0.659791 0.928981
0.029319 0.606576 0.029432
0.029449 0.606511 0.042532
0.029504 0.606375 0.055475
0.029386 0.606347 0.081560
0.029374 0.606239 0.107489
0.029419 0.606305 0.133721
0.029438 0.606261 0.159728
0.029436 0.606343 0.185776
0.029530 0.606360 0.211908
0.029633 0.606331 0.237826
0.029653 0.606363 0.263730
0.029529 0.606402 0.289685
0.029631 0.606480 0.315732
0.029548 0.606375 0.341730
0.029590 0.606468 0.367730
0.029713 0.606528 0.393688
0.029702 0.606569 0.419633
0.029532 0.606567 0.445590
0.029523 0.606604 0.471726
0.029369 0.606510 0.497818
0.029289 0.607447 0.524854
0.029656 0.620705 0.564977
0.030108 0.633145 0.605064
0.030626 0.644530 0.644324
0.031217 0.653266 0.681184
0.031770 0.658996 0.715133
0.031950 0.652280 0.736182
0.032087 0.647884 0.759601
0.032183 0.647853 0.788037
0.032436 0.655194 0.826082
0.032255 0.670866 0.875783
0.032322 0.678781 0.900424
0.032321 0.689426 0.928883
0.030284 0.664457 0.030427
0.030437 0.664381 0.044285
0.030480 0.664359 0.057977
0.030385 0.664376 0.085437
0.030363 0.664340 0.112838
0.030436 0.664362 0.140547
0.030462 0.664349 0.167973
0.030410 0.664271 0.195416
0.030544 0.664302 0.222894
0.030577 0.664195 0.250239
0.030637 0.664247 0.277519
0.030511 0.664260 0.304874
0.030683 0.664373 0.332321
0.030588 0.664190 0.359823
0.030619 0.664275 0.387269
0.030763 0.664266 0.414663
0.030773 0.664275 0.442093
0.030631 0.664244 0.469483
0.030607 0.664268 0.497085
0.030586 0.664227 0.524698
0.030395 0.664261 0.552179
0.030455 0.670539 0.586199
0.030665 0.676343 0.620217
0.030943 0.681360 0.653135
0.031253 0.684137 0.683870
0.031605 0.684730 0.712604
0.031819 0.678938 0.734690
0.031959 0.675203 0.758838
0.032104 0.675766 0.787920
0.032401 0.683417 0.826013
0.032249 0.699875 0.875775
0.032359 0.708186 0.900356
0.032381 0.719372 0.928818
0.031240 0.716202 0.031230
0.031326 0.716110 0.045753
0.031344 0.716149 0.060010
0.031227 0.716096 0.088495
0.031133 0.716161 0.117076
0.031179 0.716231 0.145878
0.031173 0.716283 0.174302
0.031096 0.716224 0.202889
0.031197 0.716325 0.231478
0.031222 0.716205 0.259937
0.031281 0.716257 0.288402
0.031240 0.716245 0.316853
0.031434 0.716255 0.345368
0.031390 0.716104 0.374084
0.031397 0.716236 0.402643
0.031569 0.716278 0.431172
0.031523 0.716290 0.459807
0.031394 0.716423 0.488357
0.031423 0.716400 0.517111
0.031398 0.716345 0.545748
0.031164 0.716328 0.574335
0.031199 0.716352 0.602911
0.031257 0.715997 0.631396
0.031377 0.715269 0.658876
0.031527 0.712862 0.684591
0.031697 0.708688 0.708508
0.031875 0.704336 0.732020
0.031963 0.701917 0.757370
0.032002 0.703540 0.787422
0.032198 0.711971 0.825947
0.032060 0.729050 0.875642
0.032029 0.737699 0.900225
0.032013 0.749315 0.928807
0.031642 0.736716 0.031360
0.031604 0.736527 0.045758
0.031602 0.736620 0.059875
0.031446 0.736612 0.088052
0.031355 0.736709 0.116287
0.031393 0.736649 0.144716
0.031448 0.736774 0.172879
0.031336 0.736658 0.201039
0.031423 0.736650 0.229283
0.031418 0.736583 0.257418
0.031425 0.736716 0.285562
0.031435 0.736753 0.313649
0.031679 0.736757 0.341824
0.031738 0.736688 0.370267
0.031822 0.736684 0.398554
0.031903 0.736695 0.426730
0.031849 0.736665 0.455012
0.031683 0.736734 0.483290
0.031600 0.736714 0.511643
0.031606 0.736774 0.540030
0.031446 0.736713 0.568351
0.031420 0.736766 0.596522
0.031519 0.736632 0.624920
0.031626 0.736409 0.652608
0.031645 0.734999 0.679030
0.031826 0.732292 0.704165
0.031974 0.729427 0.729187
