yang_mills.cube
TITLE Riemann+Yang+SkinProtect LUT (strength=0.1, protect=True, skin_prot=1.0)
LUT_3D_SIZE 5
DOMAIN_MIN 0 0 0
DOMAIN_MAX 1 1 1
0.000000 0.000000 0.000000
0.000000 0.000000 0.223737
0.000000 0.000000 0.460504
0.000000 0.000000 0.751671
0.000000 0.000000 1.000000
0.000000 0.223910 0.000000
0.000000 0.224073 0.223769
0.000000 0.224240 0.460742
0.000000 0.224132 0.751874
0.000000 0.223906 1.000000
0.000000 0.460666 0.000000
0.000000 0.460426 0.223839
0.000000 0.460579 0.461058
0.000000 0.460575 0.751661
0.000000 0.460749 1.000000
0.000000 0.751717 0.000000
0.000000 0.751745 0.223919
0.000000 0.751825 0.461055
0.000000 0.751738 0.751726
0.000000 0.751862 1.000000
0.000000 1.000000 0.000000
0.000000 1.000000 0.223991
0.000000 1.000000 0.460859
0.000000 1.000000 0.751900
0.000000 1.000000 1.000000
0.223762 0.000000 0.000000
0.223947 0.000000 0.224077
0.224122 0.000000 0.461162
0.223784 0.000000 0.751612
0.223947 0.000000 1.000000
0.224170 0.223910 0.000000
0.224152 0.224199 0.223912
0.224076 0.223996 0.461028
0.224042 0.224124 0.751890
0.223849 0.224080 1.000000
0.224203 0.460494 0.000000
0.224002 0.461122 0.224156
0.224006 0.460802 0.460520
0.223889 0.460577 0.751819
0.223700 0.460710 1.000000
0.223804 0.751614 0.000000
0.224111 0.751829 0.223874
0.224052 0.751916 0.460450
0.224213 0.751900 0.751859
0.224144 0.751815 1.000000
0.224114 1.000000 0.000000
0.224164 1.000000 0.224243
0.223831 1.000000 0.460893
0.224081 1.000000 0.751675
0.224001 1.000000 1.000000
0.460470 0.000000 0.000000
0.460709 0.000000 0.223701
0.460869 0.000000 0.460939
0.461111 0.000000 0.751628
0.460620 0.000000 1.000000
0.461082 0.224171 0.000000
0.465540 0.227285 0.227352
0.460756 0.223751 0.460861
0.460574 0.224049 0.751731
0.460669 0.224225 1.000000
0.461098 0.460833 0.000000
0.461087 0.460761 0.223795
0.460635 0.460747 0.461119
0.460603 0.460429 0.751687
0.460544 0.460484 1.000000
0.460445 0.751838 0.000000
0.460560 0.751761 0.223961
0.460648 0.751926 0.460772
0.460917 0.751695 0.751727
0.460427 0.751868 1.000000
0.460804 1.000000 0.000000
0.460422 1.000000 0.224221
0.460592 1.000000 0.460875
0.460515 1.000000 0.751753
0.461146 1.000000 1.000000
0.751706 0.000000 0.000000
0.751713 0.000000 0.224231
0.751711 0.000000 0.461103
0.751941 0.000000 0.751686
0.751718 0.000000 1.000000
0.751721 0.224050 0.000000
0.751612 0.223959 0.223754
0.751707 0.223840 0.460644
0.751851 0.224080 0.751902
0.751717 0.224154 1.000000
0.751778 0.460454 0.000000
0.751613 0.460999 0.224103
0.751225 0.471675 0.471805
0.751752 0.460682 0.751762
0.751944 0.460917 1.000000
0.751939 0.751859 0.000000
0.751606 0.751846 0.223943
0.751763 0.751653 0.460656
0.751712 0.751694 0.751741
0.751674 0.751611 1.000000
0.751892 1.000000 0.000000
0.751678 1.000000 0.224160
0.751810 1.000000 0.460439
0.751827 1.000000 0.751918
0.751816 1.000000 1.000000
1.000000 0.000000 0.000000
1.000000 0.000000 0.224114
1.000000 0.000000 0.460486
1.000000 0.000000 0.751715
1.000000 0.000000 1.000000
1.000000 0.223820 0.000000
1.000000 0.224094 0.224035
1.000000 0.224204 0.460436
1.000000 0.223909 0.751644
1.000000 0.223909 1.000000
1.000000 0.460714 0.000000
1.000000 0.461139 0.224173
1.000000 0.460521 0.460576
1.000000 0.460470 0.751659
1.000000 0.461117 1.000000
1.000000 0.751708 0.000000
1.000000 0.751607 0.223715
1.000000 0.751914 0.460525
1.000000 0.751923 0.751874
1.000000 0.751656 1.000000
1.000000 1.000000 0.000000
1.000000 1.000000 0.224007
1.000000 1.000000 0.460448
1.000000 1.000000 0.751633
1.000000 1.000000 1.000000
