yang_mills.cube
TITLE Riemann+Yang+SkinProtect LUT (strength=0.1, protect=True, skin_prot=1.0)
LUT_3D_SIZE 33
DOMAIN_MIN 0 0 0
DOMAIN_MAX 1 1 1
0.000000 0.000000 0.000000
0.000000 0.000000 0.053396
0.000000 0.000000 0.081537
0.000000 0.000000 0.097843
0.000000 0.000000 0.118501
0.000000 0.000000 0.141055
0.000000 0.000000 0.165972
0.000000 0.000000 0.193911
0.000000 0.000000 0.223737
0.000000 0.000000 0.253394
0.000000 0.000000 0.280408
0.000000 0.000000 0.306342
0.000000 0.000000 0.332205
0.000000 0.000000 0.360130
0.000000 0.000000 0.392021
0.000000 0.000000 0.425772
0.000000 0.000000 0.460504
0.000000 0.000000 0.495213
0.000000 0.000000 0.529510
0.000000 0.000000 0.564065
0.000000 0.000000 0.600205
0.000000 0.000000 0.637958
0.000000 0.000000 0.676513
0.000000 0.000000 0.715521
0.000000 0.000000 0.751671
0.000000 0.000000 0.785575
0.000000 0.000000 0.818146
0.000000 0.000000 0.850306
0.000000 0.000000 0.882052
0.000000 0.000000 0.913241
0.000000 0.000000 0.943540
0.000000 0.000000 0.972146
0.000000 0.000000 1.000000
0.000000 0.053628 0.000000
0.000000 0.053336 0.053633
0.000000 0.053275 0.081641
0.000000 0.053441 0.097675
0.000000 0.053533 0.118599
0.000000 0.053291 0.141197
0.000000 0.053321 0.165878
0.000000 0.053302 0.194129
0.000000 0.053309 0.224196
0.000000 0.053230 0.253016
0.000000 0.053584 0.280399
0.000000 0.053615 0.305716
0.000000 0.053395 0.332290
0.000000 0.053322 0.360259
0.000000 0.053604 0.391965
0.000000 0.053527 0.425794
0.000000 0.053649 0.460757
0.000000 0.053481 0.495670
0.000000 0.053249 0.529687
0.000000 0.053440 0.564053
0.000000 0.053278 0.600296
0.000000 0.053493 0.638074
0.000000 0.053365 0.676470
0.000000 0.053491 0.715786
0.000000 0.053332 0.751822
0.000000 0.053458 0.785573
0.000000 0.053523 0.818109
0.000000 0.053395 0.850228
0.000000 0.053424 0.881977
0.000000 0.053574 0.913248
0.000000 0.053553 0.943518
0.000000 0.053584 0.972157
0.000000 0.053399 1.000000
0.000000 0.081554 0.000000
0.000000 0.081426 0.053364
0.000000 0.081606 0.081396
0.000000 0.081583 0.097580
0.000000 0.081811 0.118431
0.000000 0.081750 0.141083
0.000000 0.081631 0.165753
0.000000 0.081750 0.193980
0.000000 0.081496 0.223757
0.000000 0.081796 0.253312
0.000000 0.081412 0.280306
0.000000 0.081677 0.306065
0.000000 0.081669 0.331927
0.000000 0.081703 0.360182
0.000000 0.081356 0.391387
0.000000 0.081486 0.426041
0.000000 0.081633 0.460637
0.000000 0.081311 0.495827
0.000000 0.081546 0.529659
0.000000 0.081540 0.564348
0.000000 0.081553 0.599903
0.000000 0.081659 0.637521
0.000000 0.081456 0.676721
0.000000 0.081321 0.715420
0.000000 0.081591 0.751628
0.000000 0.081607 0.785580
0.000000 0.081553 0.818102
0.000000 0.081375 0.850285
0.000000 0.081505 0.882020
0.000000 0.081287 0.913241
0.000000 0.081613 0.943558
0.000000 0.081747 0.972170
0.000000 0.081414 1.000000
0.000000 0.097862 0.000000
0.000000 0.097840 0.053306
0.000000 0.097862 0.081538
0.000000 0.097878 0.097605
0.000000 0.097968 0.118330
0.000000 0.097555 0.140899
0.000000 0.097846 0.165922
0.000000 0.097593 0.194078
0.000000 0.097652 0.223790
0.000000 0.097860 0.253180
0.000000 0.097879 0.280660
0.000000 0.097714 0.306110
0.000000 0.097649 0.331809
0.000000 0.097633 0.359986
0.000000 0.097769 0.391583
0.000000 0.097967 0.425839
0.000000 0.097586 0.460750
0.000000 0.098035 0.495252
0.000000 0.097878 0.529402
0.000000 0.097690 0.564194
0.000000 0.097961 0.600172
0.000000 0.097755 0.638072
0.000000 0.098015 0.676493
0.000000 0.098103 0.715419
0.000000 0.098133 0.751879
0.000000 0.097810 0.785593
0.000000 0.097804 0.818300
0.000000 0.097631 0.850341
0.000000 0.097705 0.882092
0.000000 0.097652 0.913309
0.000000 0.097739 0.943569
0.000000 0.098042 0.972153
0.000000 0.098120 1.000000
0.000000 0.118587 0.000000
0.000000 0.118502 0.053647
0.000000 0.118431 0.081606
0.000000 0.118304 0.097838
0.000000 0.118573 0.118499
0.000000 0.118386 0.140895
0.000000 0.118416 0.165787
0.000000 0.118525 0.194160
0.000000 0.118517 0.224013
0.000000 0.118286 0.253182
0.000000 0.118464 0.280433
0.000000 0.118429 0.306228
0.000000 0.118587 0.332290
0.000000 0.118567 0.360278
0.000000 0.118444 0.392028
0.000000 0.118570 0.425583
0.000000 0.118488 0.461015
0.000000 0.118307 0.495388
0.000000 0.118546 0.529861
0.000000 0.118309 0.563848
0.000000 0.118425 0.600385
0.000000 0.118459 0.637718
0.000000 0.118423 0.676847
0.000000 0.118502 0.715258
0.000000 0.118406 0.751894
0.000000 0.118585 0.785456
0.000000 0.118534 0.818230
0.000000 0.118329 0.850406
0.000000 0.118291 0.882064
0.000000 0.118584 0.913310
0.000000 0.118453 0.943533
0.000000 0.118578 0.972145
0.000000 0.118597 1.000000
0.000000 0.141000 0.000000
0.000000 0.140873 0.053240
0.000000 0.140886 0.081613
0.000000 0.141017 0.098089
0.000000 0.140827 0.118370
0.000000 0.140829 0.140876
0.000000 0.141038 0.165759
0.000000 0.140841 0.194377
0.000000 0.140986 0.224210
0.000000 0.140972 0.253159
0.000000 0.140969 0.280207
0.000000 0.140949 0.306303
0.000000 0.140836 0.331760
0.000000 0.141011 0.360565
0.000000 0.140845 0.392109
0.000000 0.141117 0.425915
0.000000 0.141196 0.460772
0.000000 0.140810 0.495179
0.000000 0.141085 0.529446
0.000000 0.141023 0.564215
0.000000 0.141035 0.600213
0.000000 0.140957 0.637890
0.000000 0.141175 0.676806
0.000000 0.141122 0.715319
0.000000 0.141005 0.751705
0.000000 0.140857 0.785557
0.000000 0.140950 0.818242
0.000000 0.140992 0.850351
0.000000 0.140954 0.882120
0.000000 0.141111 0.913293
0.000000 0.140973 0.943562
0.000000 0.141026 0.972156
0.000000 0.141077 1.000000
0.000000 0.166188 0.000000
0.000000 0.165754 0.053253
0.000000 0.165867 0.081370
0.000000 0.166029 0.097952
0.000000 0.166156 0.118322
0.000000 0.165755 0.141141
0.000000 0.166115 0.165822
0.000000 0.165956 0.193948
0.000000 0.165789 0.223871
0.000000 0.166129 0.252978
0.000000 0.166034 0.280560
0.000000 0.166071 0.306320
0.000000 0.166157 0.331940
0.000000 0.165820 0.359989
0.000000 0.165900 0.391617
0.000000 0.165786 0.425743
0.000000 0.165992 0.460703
0.000000 0.166162 0.495118
0.000000 0.165809 0.529635
0.000000 0.165883 0.563975
0.000000 0.166200 0.600360
0.000000 0.166169 0.637780
0.000000 0.166035 0.676797
0.000000 0.165797 0.715603
0.000000 0.165978 0.751842
0.000000 0.165901 0.785400
0.000000 0.165866 0.818128
0.000000 0.165801 0.850410
0.000000 0.165834 0.882060
0.000000 0.165907 0.913216
0.000000 0.165841 0.943512
0.000000 0.166024 0.972158
0.000000 0.165781 1.000000
0.000000 0.194159 0.000000
0.000000 0.193944 0.053393
0.000000 0.194128 0.081501
0.000000 0.193922 0.097854
0.000000 0.194224 0.118595
0.000000 0.194220 0.141148
0.000000 0.194228 0.165820
0.000000 0.194152 0.194252
0.000000 0.194356 0.223781
0.000000 0.194045 0.253227
0.000000 0.193976 0.280100
0.000000 0.194376 0.306129
0.000000 0.194325 0.332095
0.000000 0.193944 0.360254
0.000000 0.194019 0.391373
0.000000 0.193895 0.425804
0.000000 0.194383 0.460840
0.000000 0.194296 0.495603
0.000000 0.194221 0.529355
0.000000 0.194103 0.564373
0.000000 0.194074 0.600274
0.000000 0.194350 0.637770
0.000000 0.194060 0.676866
0.000000 0.194064 0.715208
0.000000 0.193897 0.751659
0.000000 0.194077 0.785483
0.000000 0.194173 0.818293
0.000000 0.194211 0.850289
0.000000 0.194146 0.882063
0.000000 0.194046 0.913208
0.000000 0.194280 0.943561
0.000000 0.194224 0.972158
0.000000 0.194278 1.000000
0.000000 0.223910 0.000000
0.000000 0.224112 0.053418
0.000000 0.223998 0.081741
0.000000 0.224005 0.097898
0.000000 0.223886 0.118311
0.000000 0.223948 0.141008
0.000000 0.223869 0.165944
0.000000 0.223717 0.194287
0.000000 0.224073 0.223769
0.000000 0.224014 0.253260
0.000000 0.223699 0.280476
0.000000 0.224254 0.305857
0.000000 0.223769 0.331898
0.000000 0.223810 0.360340
0.000000 0.224034 0.391451
0.000000 0.223954 0.426007
0.000000 0.224240 0.460742
0.000000 0.224055 0.495695
0.000000 0.224200 0.529797
0.000000 0.224070 0.564357
0.000000 0.223788 0.599918
0.000000 0.223809 0.637827
0.000000 0.223993 0.677000
0.000000 0.224239 0.715272
0.000000 0.224132 0.751874
0.000000 0.223814 0.785503
0.000000 0.223794 0.818158
0.000000 0.223848 0.850249
0.000000 0.223975 0.881958
0.000000 0.223709 0.913228
0.000000 0.223892 0.943586
0.000000 0.224172 0.972161
0.000000 0.223906 1.000000
0.000000 0.253243 0.000000
0.000000 0.253294 0.053600
0.000000 0.253492 0.081598
0.000000 0.253041 0.098068
0.000000 0.253092 0.118466
0.000000 0.253067 0.140892
0.000000 0.253029 0.166183
0.000000 0.253417 0.194294
0.000000 0.253173 0.223847
0.000000 0.253159 0.252916
0.000000 0.252903 0.280322
0.000000 0.253338 0.306115
0.000000 0.253161 0.331782
0.000000 0.253425 0.359890
0.000000 0.253286 0.391915
0.000000 0.253273 0.426045
0.000000 0.253488 0.460497
0.000000 0.253261 0.495725
0.000000 0.253472 0.529371
0.000000 0.252971 0.564354
0.000000 0.252918 0.599868
0.000000 0.253131 0.637564
0.000000 0.253258 0.676423
0.000000 0.253310 0.715478
0.000000 0.253253 0.751947
0.000000 0.253083 0.785547
0.000000 0.253102 0.818123
0.000000 0.253206 0.850421
0.000000 0.253169 0.882009
0.000000 0.253400 0.913287
0.000000 0.252948 0.943568
0.000000 0.253186 0.972187
0.000000 0.252978 1.000000
0.000000 0.280501 0.000000
0.000000 0.280514 0.053322
0.000000 0.280141 0.081413
0.000000 0.280184 0.097580
0.000000 0.280623 0.118300
0.000000 0.280386 0.140923
0.000000 0.280408 0.165848
0.000000 0.280475 0.194179
0.000000 0.280683 0.224047
0.000000 0.280351 0.253085
0.000000 0.280359 0.280185
0.000000 0.280456 0.306069
0.000000 0.280467 0.331627
0.000000 0.280416 0.360269
0.000000 0.280214 0.391651
0.000000 0.280542 0.425490
0.000000 0.280599 0.460832
0.000000 0.280539 0.495807
0.000000 0.280199 0.529752
0.000000 0.280101 0.564290
0.000000 0.280511 0.600248
0.000000 0.280096 0.637954
0.000000 0.280541 0.676617
0.000000 0.280165 0.715616
0.000000 0.280710 0.751893
0.000000 0.280594 0.785543
0.000000 0.280316 0.818282
0.000000 0.280631 0.850276
0.000000 0.280591 0.882054
0.000000 0.280551 0.913300
0.000000 0.280551 0.943557
0.000000 0.280590 0.972182
0.000000 0.280646 1.000000
0.000000 0.305767 0.000000
0.000000 0.305849 0.053253
0.000000 0.306346 0.081474
0.000000 0.306042 0.097719
0.000000 0.305933 0.118589
0.000000 0.305718 0.140980
0.000000 0.306303 0.165882
0.000000 0.306057 0.194108
0.000000 0.306058 0.224140
0.000000 0.305717 0.253375
0.000000 0.305822 0.280642
0.000000 0.306317 0.305849
0.000000 0.305792 0.331719
0.000000 0.306354 0.360233
0.000000 0.306295 0.391372
0.000000 0.305774 0.425429
0.000000 0.306143 0.460546
0.000000 0.305987 0.495821
0.000000 0.305964 0.529375
0.000000 0.306129 0.563861
0.000000 0.305804 0.600328
0.000000 0.306220 0.637493
0.000000 0.306004 0.676834
0.000000 0.305863 0.715562
0.000000 0.305919 0.751755
0.000000 0.306046 0.785599
0.000000 0.306283 0.818270
0.000000 0.305852 0.850370
0.000000 0.305700 0.881967
0.000000 0.306183 0.913253
0.000000 0.306291 0.943561
0.000000 0.305726 0.972148
0.000000 0.305823 1.000000
0.000000 0.332223 0.000000
0.000000 0.331835 0.053505
0.000000 0.332102 0.081421
0.000000 0.332135 0.097751
0.000000 0.331643 0.118523
0.000000 0.331941 0.140940
0.000000 0.331811 0.165888
0.000000 0.332134 0.194291
0.000000 0.331904 0.223892
0.000000 0.331963 0.253131
0.000000 0.331613 0.280493
0.000000 0.331932 0.306138
0.000000 0.332021 0.332203
0.000000 0.332198 0.360188
0.000000 0.331877 0.392048
0.000000 0.331673 0.425680
0.000000 0.331617 0.461100
0.000000 0.331870 0.495606
0.000000 0.331657 0.529793
0.000000 0.332078 0.564341
0.000000 0.331857 0.600420
0.000000 0.332097 0.637585
0.000000 0.331905 0.676525
0.000000 0.331760 0.715340
0.000000 0.331869 0.751809
0.000000 0.331732 0.785441
0.000000 0.331954 0.818324
0.000000 0.331806 0.850203
0.000000 0.331980 0.882010
0.000000 0.331902 0.913238
0.000000 0.332136 0.943574
0.000000 0.331975 0.972166
0.000000 0.332212 1.000000
0.000000 0.360112 0.000000
0.000000 0.360058 0.053482
0.000000 0.359945 0.081800
0.000000 0.360561 0.097966
0.000000 0.360280 0.118386
0.000000 0.359939 0.141192
0.000000 0.360471 0.166030
0.000000 0.359996 0.194002
0.000000 0.360295 0.224208
0.000000 0.360053 0.253242
0.000000 0.360034 0.280655
0.000000 0.360216 0.306069
0.000000 0.360416 0.331657
0.000000 0.360263 0.360036
0.000000 0.359995 0.391795
0.000000 0.360428 0.425573
0.000000 0.360205 0.461012
0.000000 0.359926 0.495733
0.000000 0.359919 0.529359
0.000000 0.359880 0.564171
0.000000 0.360223 0.600377
0.000000 0.360182 0.637539
0.000000 0.360437 0.676739
0.000000 0.360406 0.715335
0.000000 0.360456 0.751789
0.000000 0.360058 0.785446
0.000000 0.360459 0.818202
0.000000 0.360125 0.850264
0.000000 0.359903 0.882080
0.000000 0.359940 0.913256
0.000000 0.360359 0.943579
0.000000 0.360191 0.972181
0.000000 0.360255 1.000000
0.000000 0.391939 0.000000
0.000000 0.391861 0.053388
0.000000 0.391801 0.081539
0.000000 0.392066 0.097681
0.000000 0.391632 0.118527
0.000000 0.391495 0.140849
0.000000 0.391635 0.165855
0.000000 0.391778 0.194217
0.000000 0.391475 0.223695
0.000000 0.391773 0.253230
0.000000 0.391745 0.280437
0.000000 0.391633 0.306220
0.000000 0.391721 0.331729
0.000000 0.391553 0.359940
0.000000 0.391719 0.391920
0.000000 0.391877 0.425575
0.000000 0.391573 0.460986
0.000000 0.391691 0.495398
0.000000 0.391590 0.529560
0.000000 0.391881 0.563857
0.000000 0.392018 0.599819
0.000000 0.391934 0.637932
0.000000 0.391827 0.676654
0.000000 0.391415 0.715754
0.000000 0.392009 0.751726
0.000000 0.391669 0.785608
0.000000 0.391694 0.818186
0.000000 0.391596 0.850326
0.000000 0.391577 0.882020
0.000000 0.391601 0.913209
0.000000 0.391442 0.943597
0.000000 0.391692 0.972164
0.000000 0.391655 1.000000
0.000000 0.426148 0.000000
0.000000 0.425847 0.053239
0.000000 0.426059 0.081788
0.000000 0.425567 0.097704
0.000000 0.425772 0.118372
0.000000 0.426040 0.141159
0.000000 0.425582 0.165788
0.000000 0.425911 0.193931
0.000000 0.425564 0.224245
0.000000 0.426107 0.252916
0.000000 0.425667 0.280686
0.000000 0.425548 0.306102
0.000000 0.425493 0.332069
0.000000 0.425856 0.360072
0.000000 0.425923 0.392055
0.000000 0.425555 0.425442
0.000000 0.425657 0.460671
0.000000 0.425995 0.495316
0.000000 0.425929 0.529726
0.000000 0.425647 0.564066
0.000000 0.425790 0.599975
0.000000 0.426065 0.638075
0.000000 0.425450 0.676438
0.000000 0.425453 0.715230
0.000000 0.425971 0.751614
0.000000 0.425889 0.785412
0.000000 0.426050 0.818156
0.000000 0.425432 0.850310
0.000000 0.425693 0.882061
0.000000 0.426127 0.913195
0.000000 0.425827 0.943520
0.000000 0.425436 0.972153
0.000000 0.425770 1.000000
0.000000 0.460666 0.000000
0.000000 0.461018 0.053562
0.000000 0.461080 0.081324
0.000000 0.460498 0.098149
0.000000 0.461160 0.118476
0.000000 0.461123 0.141067
0.000000 0.460481 0.166109
0.000000 0.460646 0.194287
0.000000 0.460426 0.223839
0.000000 0.460881 0.253059
0.000000 0.460762 0.280320
0.000000 0.460953 0.306127
0.000000 0.460445 0.331952
0.000000 0.460752 0.360385
0.000000 0.460866 0.391789
0.000000 0.461047 0.426118
0.000000 0.460579 0.461058
0.000000 0.461014 0.495547
0.000000 0.461139 0.529345
0.000000 0.461106 0.564341
0.000000 0.460995 0.599971
0.000000 0.460648 0.637615
0.000000 0.460758 0.676843
0.000000 0.460754 0.715495
0.000000 0.460575 0.751661
0.000000 0.460732 0.785412
0.000000 0.460762 0.818226
0.000000 0.460799 0.850220
0.000000 0.460636 0.882094
0.000000 0.460651 0.913235
0.000000 0.460837 0.943571
0.000000 0.461002 0.972157
0.000000 0.460749 1.000000
0.000000 0.495798 0.000000
0.000000 0.495599 0.053598
0.000000 0.495752 0.081293
0.000000 0.495283 0.097814
0.000000 0.495436 0.118597
0.000000 0.495560 0.140883
0.000000 0.495155 0.165994
0.000000 0.495590 0.194200
0.000000 0.495260 0.223984
0.000000 0.495471 0.252966
0.000000 0.495362 0.280512
0.000000 0.495678 0.305717
0.000000 0.495797 0.332194
0.000000 0.495824 0.360517
0.000000 0.495711 0.391835
0.000000 0.495661 0.426091
0.000000 0.495421 0.460657
0.000000 0.495373 0.495552
0.000000 0.495501 0.529888
0.000000 0.495251 0.564137
0.000000 0.495143 0.600093
0.000000 0.495333 0.637779
0.000000 0.495339 0.676693
0.000000 0.495756 0.715687
0.000000 0.495582 0.751727
0.000000 0.495429 0.785534
0.000000 0.495436 0.818181
0.000000 0.495449 0.850246
0.000000 0.495566 0.881958
0.000000 0.495299 0.913248
0.000000 0.495814 0.943588
0.000000 0.495188 0.972146
0.000000 0.495421 1.000000
0.000000 0.529533 0.000000
0.000000 0.529800 0.053609
0.000000 0.529859 0.081534
0.000000 0.529435 0.098036
0.000000 0.529892 0.118414
0.000000 0.529833 0.140821
0.000000 0.529522 0.165819
0.000000 0.529358 0.193878
0.000000 0.529652 0.223695
0.000000 0.529300 0.253343
0.000000 0.529639 0.280148
0.000000 0.529760 0.305963
0.000000 0.529360 0.332282
0.000000 0.529521 0.360235
0.000000 0.529806 0.391646
0.000000 0.529718 0.425668
0.000000 0.529358 0.461156
0.000000 0.529291 0.495484
0.000000 0.529297 0.529959
0.000000 0.529853 0.564478
0.000000 0.529911 0.600169
0.000000 0.529730 0.638104
0.000000 0.529830 0.676553
0.000000 0.529698 0.715453
0.000000 0.529656 0.751946
0.000000 0.529362 0.785411
0.000000 0.530016 0.818322
0.000000 0.529534 0.850214
0.000000 0.529723 0.882005
0.000000 0.529736 0.913226
0.000000 0.529561 0.943592
0.000000 0.529849 0.972147
0.000000 0.529283 1.000000
0.000000 0.563870 0.000000
0.000000 0.564112 0.053292
0.000000 0.564200 0.081641
0.000000 0.563898 0.097585
0.000000 0.563793 0.118470
0.000000 0.563941 0.141134
0.000000 0.563935 0.166180
0.000000 0.563825 0.193928
0.000000 0.564498 0.224157
0.000000 0.564476 0.253035
0.000000 0.564389 0.280631
0.000000 0.564469 0.305885
0.000000 0.564041 0.331973
0.000000 0.563897 0.360167
0.000000 0.563856 0.391783
0.000000 0.564430 0.426067
0.000000 0.564467 0.460523
0.000000 0.563875 0.495352
0.000000 0.564456 0.529717
0.000000 0.563968 0.564135
0.000000 0.564335 0.600343
0.000000 0.564162 0.637506
0.000000 0.563870 0.676821
0.000000 0.564151 0.715690
0.000000 0.564086 0.751780
0.000000 0.563966 0.785376
0.000000 0.564007 0.818150
0.000000 0.564190 0.850321
0.000000 0.563816 0.882036
0.000000 0.564311 0.913227
0.000000 0.564319 0.943517
0.000000 0.564365 0.972180
0.000000 0.563910 1.000000
0.000000 0.600424 0.000000
0.000000 0.599822 0.053347
0.000000 0.599961 0.081279
0.000000 0.599788 0.097552
0.000000 0.600249 0.118350
0.000000 0.599790 0.141195
0.000000 0.600350 0.165752
0.000000 0.600316 0.194127
0.000000 0.600305 0.224118
0.000000 0.600184 0.253324
0.000000 0.600370 0.280516
0.000000 0.600402 0.306053
0.000000 0.599848 0.331916
0.000000 0.600423 0.360522
0.000000 0.600087 0.391808
0.000000 0.600212 0.425669
0.000000 0.600002 0.460623
0.000000 0.600153 0.495426
0.000000 0.599789 0.529856
0.000000 0.600209 0.563972
0.000000 0.600215 0.600051
0.000000 0.600078 0.637532
0.000000 0.600122 0.676488
0.000000 0.599830 0.715699
0.000000 0.600353 0.751907
0.000000 0.600016 0.785430
0.000000 0.600009 0.818087
0.000000 0.599880 0.850335
0.000000 0.599751 0.882006
0.000000 0.599771 0.913324
0.000000 0.600271 0.943530
0.000000 0.600205 0.972151
0.000000 0.600318 1.000000
0.000000 0.637583 0.000000
0.000000 0.638114 0.053230
0.000000 0.637806 0.081503
0.000000 0.637556 0.097685
0.000000 0.637509 0.118284
0.000000 0.637913 0.141104
0.000000 0.637988 0.165997
0.000000 0.638069 0.193928
0.000000 0.637869 0.223947
0.000000 0.637569 0.253191
0.000000 0.637854 0.280637
0.000000 0.637767 0.305936
0.000000 0.638142 0.331897
0.000000 0.637902 0.360352
0.000000 0.637930 0.391937
0.000000 0.637703 0.425718
0.000000 0.637653 0.460527
0.000000 0.638111 0.495362
0.000000 0.638029 0.529582
0.000000 0.637729 0.564449
0.000000 0.638142 0.599978
0.000000 0.637845 0.637684
0.000000 0.637971 0.676857
0.000000 0.638143 0.715696
0.000000 0.637736 0.751625
0.000000 0.637642 0.785669
0.000000 0.638003 0.818319
0.000000 0.637797 0.850210
0.000000 0.637886 0.881964
0.000000 0.637853 0.913317
0.000000 0.637673 0.943590
0.000000 0.638151 0.972183
0.000000 0.637939 1.000000
0.000000 0.677002 0.000000
0.000000 0.676985 0.053336
0.000000 0.676977 0.081612
0.000000 0.676958 0.097585
0.000000 0.676914 0.118333
0.000000 0.677040 0.141147
0.000000 0.677052 0.165818
0.000000 0.677024 0.194332
0.000000 0.676963 0.224190
0.000000 0.676808 0.253146
0.000000 0.676842 0.280559
0.000000 0.676865 0.305769
0.000000 0.676771 0.331793
0.000000 0.676436 0.360252
0.000000 0.676968 0.391492
0.000000 0.676625 0.425573
0.000000 0.676546 0.460856
0.000000 0.677010 0.495512
0.000000 0.676593 0.529888
0.000000 0.676714 0.563867
0.000000 0.676976 0.600331
0.000000 0.676515 0.638080
0.000000 0.677003 0.676561
0.000000 0.676982 0.715742
0.000000 0.676501 0.751708
0.000000 0.676663 0.785637
0.000000 0.676628 0.818292
0.000000 0.676637 0.850353
0.000000 0.677022 0.882025
0.000000 0.676642 0.913320
0.000000 0.676780 0.943590
0.000000 0.676990 0.972155
0.000000 0.676629 1.000000
0.000000 0.715633 0.000000
0.000000 0.715430 0.053506
0.000000 0.715343 0.081312
0.000000 0.715785 0.097981
0.000000 0.715323 0.118545
0.000000 0.715490 0.140869
0.000000 0.715225 0.166206
0.000000 0.715739 0.193947
0.000000 0.715210 0.223695
0.000000 0.715227 0.253446
0.000000 0.715798 0.280399
0.000000 0.715653 0.306068
0.000000 0.715643 0.331881
0.000000 0.715332 0.360147
0.000000 0.715340 0.391829
0.000000 0.715376 0.425791
0.000000 0.715398 0.460754
0.000000 0.715685 0.495417
0.000000 0.715223 0.529466
0.000000 0.715304 0.564431
0.000000 0.715641 0.600192
0.000000 0.715386 0.637555
0.000000 0.715548 0.676914
0.000000 0.715615 0.715367
0.000000 0.715726 0.751654
0.000000 0.715567 0.785486
0.000000 0.715199 0.818238
0.000000 0.715776 0.850254
0.000000 0.715320 0.881989
0.000000 0.715507 0.913323
0.000000 0.715280 0.943565
0.000000 0.715643 0.972151
0.000000 0.715711 1.000000
0.000000 0.751717 0.000000
0.000000 0.751901 0.053636
0.000000 0.751887 0.081364
0.000000 0.751767 0.098005
0.000000 0.751910 0.118412
0.000000 0.751874 0.140933
0.000000 0.751831 0.165952
0.000000 0.751663 0.194328
0.000000 0.751745 0.223919
0.000000 0.751717 0.253177
0.000000 0.751794 0.280629
0.000000 0.751685 0.306032
0.000000 0.751669 0.332078
0.000000 0.751669 0.360131
0.000000 0.751865 0.392082
0.000000 0.751709 0.426027
0.000000 0.751825 0.461055
0.000000 0.751774 0.495572
0.000000 0.751751 0.529963
0.000000 0.751697 0.563836
0.000000 0.751657 0.600301
0.000000 0.751862 0.637746
0.000000 0.751766 0.676543
0.000000 0.751676 0.715293
0.000000 0.751738 0.751726
0.000000 0.751907 0.785589
0.000000 0.751888 0.818081
0.000000 0.751604 0.850374
0.000000 0.751658 0.881981
0.000000 0.751792 0.913206
0.000000 0.751834 0.943519
0.000000 0.751732 0.972178
0.000000 0.751862 1.000000
0.000000 0.785593 0.000000
0.000000 0.785593 0.053581
0.000000 0.785374 0.081444
0.000000 0.785536 0.097909
0.000000 0.785575 0.118510
0.000000 0.785566 0.140870
0.000000 0.785661 0.165911
0.000000 0.785460 0.194221
0.000000 0.785494 0.224235
0.000000 0.785582 0.252988
0.000000 0.785440 0.280195
0.000000 0.785657 0.305760
0.000000 0.785518 0.332004
0.000000 0.785627 0.359998
0.000000 0.785449 0.391949
0.000000 0.785629 0.426112
0.000000 0.785662 0.460767
0.000000 0.785508 0.495743
0.000000 0.785470 0.529459
0.000000 0.785667 0.564290
0.000000 0.785506 0.600308
0.000000 0.785568 0.637730
0.000000 0.785669 0.677031
0.000000 0.785445 0.715258
0.000000 0.785370 0.751850
0.000000 0.785422 0.785543
0.000000 0.785501 0.818161
0.000000 0.785631 0.850310
0.000000 0.785622 0.881952
0.000000 0.785660 0.913213
0.000000 0.785453 0.943540
0.000000 0.785432 0.972142
0.000000 0.785416 1.000000
0.000000 0.818320 0.000000
0.000000 0.818283 0.053318
0.000000 0.818298 0.081290
0.000000 0.818154 0.098057
0.000000 0.818345 0.118527
0.000000 0.818337 0.141013
0.000000 0.818292 0.166049
0.000000 0.818169 0.194251
0.000000 0.818288 0.224215
0.000000 0.818170 0.253230
0.000000 0.818309 0.280451
0.000000 0.818164 0.305735
0.000000 0.818320 0.332243
0.000000 0.818182 0.360199
0.000000 0.818172 0.391523
0.000000 0.818261 0.425954
0.000000 0.818111 0.460702
0.000000 0.818101 0.495399
0.000000 0.818212 0.529908
0.000000 0.818338 0.564003
0.000000 0.818329 0.600111
0.000000 0.818231 0.638062
0.000000 0.818279 0.676817
0.000000 0.818120 0.715747
0.000000 0.818303 0.751934
0.000000 0.818180 0.785423
