yang_mills.cube
TITLE Riemann+Yang+SkinProtect LUT (strength=0.1, protect=True, skin_prot=1.0)
LUT_3D_SIZE 9
DOMAIN_MIN 0 0 0
DOMAIN_MAX 1 1 1
0.000000 0.000000 0.000000
0.000000 0.000000 0.118501
0.000000 0.000000 0.223737
0.000000 0.000000 0.332205
0.000000 0.000000 0.460504
0.000000 0.000000 0.600205
0.000000 0.000000 0.751671
0.000000 0.000000 0.882052
0.000000 0.000000 1.000000
0.000000 0.118587 0.000000
0.000000 0.118573 0.118499
0.000000 0.118517 0.224013
0.000000 0.118587 0.332290
0.000000 0.118488 0.461015
0.000000 0.118425 0.600385
0.000000 0.118406 0.751894
0.000000 0.118291 0.882064
0.000000 0.118597 1.000000
0.000000 0.223910 0.000000
0.000000 0.223886 0.118311
0.000000 0.224073 0.223769
0.000000 0.223769 0.331898
0.000000 0.224240 0.460742
0.000000 0.223788 0.599918
0.000000 0.224132 0.751874
0.000000 0.223975 0.881958
0.000000 0.223906 1.000000
0.000000 0.332223 0.000000
0.000000 0.331643 0.118523
0.000000 0.331904 0.223892
0.000000 0.332021 0.332203
0.000000 0.331617 0.461100
0.000000 0.331857 0.600420
0.000000 0.331869 0.751809
0.000000 0.331980 0.882010
0.000000 0.332212 1.000000
0.000000 0.460666 0.000000
0.000000 0.461160 0.118476
0.000000 0.460426 0.223839
0.000000 0.460445 0.331952
0.000000 0.460579 0.461058
0.000000 0.460995 0.599971
0.000000 0.460575 0.751661
0.000000 0.460636 0.882094
0.000000 0.460749 1.000000
0.000000 0.600424 0.000000
0.000000 0.600249 0.118350
0.000000 0.600305 0.224118
0.000000 0.599848 0.331916
0.000000 0.600002 0.460623
0.000000 0.600215 0.600051
0.000000 0.600353 0.751907
0.000000 0.599751 0.882006
0.000000 0.600318 1.000000
0.000000 0.751717 0.000000
0.000000 0.751910 0.118412
0.000000 0.751745 0.223919
0.000000 0.751669 0.332078
0.000000 0.751825 0.461055
0.000000 0.751657 0.600301
0.000000 0.751738 0.751726
0.000000 0.751658 0.881981
0.000000 0.751862 1.000000
0.000000 0.882046 0.000000
0.000000 0.881965 0.118419
0.000000 0.882033 0.223977
0.000000 0.882072 0.332119
0.000000 0.882043 0.461110
0.000000 0.882090 0.600132
0.000000 0.881963 0.751749
0.000000 0.882117 0.882050
0.000000 0.882080 1.000000
0.000000 1.000000 0.000000
0.000000 1.000000 0.118345
0.000000 1.000000 0.223991
0.000000 1.000000 0.332027
0.000000 1.000000 0.460859
0.000000 1.000000 0.599893
0.000000 1.000000 0.751900
0.000000 1.000000 0.882066
0.000000 1.000000 1.000000
0.118374 0.000000 0.000000
0.118543 0.000000 0.118316
0.118493 0.000000 0.224078
0.118464 0.000000 0.332179
0.118492 0.000000 0.460543
0.118325 0.000000 0.599927
0.118329 0.000000 0.751764
0.118456 0.000000 0.882124
0.118451 0.000000 1.000000
0.118549 0.118459 0.000000
0.118396 0.118311 0.118385
0.118347 0.118345 0.224103
0.118556 0.118499 0.331700
0.118527 0.118541 0.461097
0.118511 0.118338 0.600075
0.118497 0.118505 0.751797
0.118345 0.118421 0.882025
0.118406 0.118579 1.000000
0.118362 0.223784 0.000000
0.118606 0.223750 0.118324
0.118331 0.224158 0.224157
0.118479 0.223990 0.332232
0.118569 0.223732 0.461015
0.118348 0.223853 0.599994
0.118507 0.224086 0.751796
0.118338 0.223984 0.881979
0.118381 0.224179 1.000000
0.118345 0.331959 0.000000
0.118408 0.332087 0.118448
0.118388 0.331672 0.224037
0.118350 0.331953 0.331833
0.118344 0.332227 0.460447
0.118502 0.332072 0.600133
0.118351 0.332261 0.751867
0.118583 0.332057 0.882081
0.118403 0.332056 1.000000
0.118516 0.460829 0.000000
0.118570 0.460922 0.118503
0.118567 0.460943 0.223812
0.118305 0.461112 0.332224
0.118486 0.460978 0.461010
0.118444 0.460822 0.600095
0.118420 0.460799 0.751665
0.118289 0.460800 0.881998
0.118585 0.460823 1.000000
0.118339 0.599900 0.000000
0.118428 0.599767 0.118377
0.118283 0.599911 0.223822
0.118374 0.599954 0.332010
0.118309 0.600321 0.460647
0.118487 0.600299 0.600289
0.118565 0.599983 0.751887
0.118465 0.600294 0.882052
0.118480 0.600234 1.000000
0.118510 0.751859 0.000000
0.118423 0.751707 0.118552
0.118452 0.751616 0.224156
0.118523 0.751646 0.331999
0.118503 0.751805 0.460802
0.118457 0.751699 0.599872
0.118368 0.751778 0.751829
0.118310 0.751666 0.881992
0.118512 0.751756 1.000000
0.118499 0.881989 0.000000
0.118324 0.881984 0.118601
0.118386 0.882045 0.223787
0.118523 0.882021 0.332206
0.118344 0.882100 0.460610
0.118384 0.881974 0.599988
0.118597 0.882115 0.751873
0.118347 0.881985 0.882084
0.118372 0.882034 1.000000
0.118419 1.000000 0.000000
0.118356 1.000000 0.118299
0.118282 1.000000 0.223974
0.118424 1.000000 0.332021
0.118557 1.000000 0.460917
0.118417 1.000000 0.599946
0.118600 1.000000 0.751926
0.118285 1.000000 0.882062
0.118303 1.000000 1.000000
0.223762 0.000000 0.000000
0.224247 0.000000 0.118337
0.223947 0.000000 0.224077
0.224155 0.000000 0.331864
0.224122 0.000000 0.461162
0.223939 0.000000 0.600138
0.223784 0.000000 0.751612
0.223999 0.000000 0.881975
0.223947 0.000000 1.000000
0.223918 0.118498 0.000000
0.224785 0.118536 0.118690
0.223916 0.118474 0.223793
0.224192 0.118418 0.332278
0.223997 0.118515 0.460976
0.224034 0.118309 0.599866
0.223707 0.118578 0.751684
0.224189 0.118284 0.882097
0.224073 0.118588 1.000000
0.224170 0.223910 0.000000
0.224052 0.223999 0.118584
0.224152 0.224199 0.223912
0.224064 0.223903 0.331937
0.224076 0.223996 0.461028
0.223998 0.223704 0.600365
0.224042 0.224124 0.751890
0.224226 0.224202 0.882028
0.223849 0.224080 1.000000
0.224043 0.331964 0.000000
0.223856 0.331867 0.118469
0.223697 0.331616 0.223888
0.223842 0.331716 0.331609
0.224146 0.332082 0.460852
0.224012 0.331602 0.600228
0.223815 0.331994 0.751944
0.223769 0.331747 0.882125
0.223900 0.332102 1.000000
0.224203 0.460494 0.000000
0.224011 0.460915 0.118475
0.224002 0.461122 0.224156
0.223839 0.460973 0.332257
0.224006 0.460802 0.460520
0.223818 0.460442 0.599880
0.223889 0.460577 0.751819
0.224087 0.460908 0.881965
0.223700 0.460710 1.000000
0.223846 0.600087 0.000000
0.224183 0.600084 0.118287
0.223977 0.600331 0.223930
0.224023 0.599911 0.332237
0.224070 0.600395 0.460768
0.223896 0.600114 0.600099
0.224157 0.600256 0.751923
0.223827 0.600296 0.882024
0.223779 0.600313 1.000000
0.223804 0.751614 0.000000
0.223811 0.751619 0.118471
0.224111 0.751829 0.223874
0.223831 0.751814 0.331764
0.224052 0.751916 0.460450
0.223774 0.751668 0.600306
0.224213 0.751900 0.751859
0.223893 0.751755 0.882002
0.224144 0.751815 1.000000
0.223843 0.881989 0.000000
0.223708 0.882032 0.118451
0.223957 0.882098 0.223907
0.224189 0.882014 0.332055
0.223801 0.882117 0.460793
0.224187 0.882039 0.599998
0.224098 0.881967 0.751896
0.223920 0.881951 0.882017
0.223812 0.882106 1.000000
0.224114 1.000000 0.000000
0.223736 1.000000 0.118470
0.224164 1.000000 0.224243
0.224189 1.000000 0.331981
0.223831 1.000000 0.460893
0.223787 1.000000 0.600169
0.224081 1.000000 0.751675
0.223743 1.000000 0.882023
0.224001 1.000000 1.000000
0.332220 0.000000 0.000000
0.331755 0.000000 0.118370
0.332220 0.000000 0.223942
0.332021 0.000000 0.331850
0.331720 0.000000 0.460577
0.332126 0.000000 0.600412
0.331762 0.000000 0.751914
0.332034 0.000000 0.882043
0.332144 0.000000 1.000000
0.332070 0.118422 0.000000
0.331987 0.118510 0.118411
0.332095 0.118517 0.224158
0.332274 0.118346 0.332185
0.332105 0.118330 0.460447
0.332081 0.118321 0.600197
0.332240 0.118550 0.751823
0.332177 0.118491 0.882032
0.332059 0.118372 1.000000
0.332092 0.224033 0.000000
0.332281 0.224237 0.118558
0.340552 0.228954 0.229174
0.331713 0.224196 0.332049
0.332080 0.223853 0.460914
0.332128 0.224212 0.599846
0.332137 0.224178 0.751752
0.331996 0.224003 0.882013
0.332033 0.224244 1.000000
0.332229 0.331964 0.000000
0.332250 0.331606 0.118349
0.332195 0.332300 0.223873
0.331752 0.332209 0.331692
0.332092 0.331765 0.460747
0.331921 0.331759 0.600302
0.331860 0.332068 0.751828
0.331991 0.331911 0.881985
0.331997 0.331874 1.000000
0.331794 0.460628 0.000000
0.332251 0.460900 0.118438
0.331982 0.460701 0.223708
0.331964 0.460585 0.331954
0.331711 0.460680 0.460746
0.331965 0.460610 0.600045
0.332252 0.460864 0.751863
0.331792 0.460708 0.881991
0.332149 0.460959 1.000000
0.332251 0.600038 0.000000
0.331693 0.600038 0.118408
0.332302 0.600266 0.223955
0.331671 0.599929 0.332295
0.331781 0.600355 0.460890
0.331781 0.600003 0.599748
0.332225 0.600287 0.751884
0.331986 0.599809 0.882127
0.331851 0.600296 1.000000
0.331780 0.751864 0.000000
0.331840 0.751803 0.118575
0.332284 0.751939 0.223972
0.332282 0.751899 0.332150
0.332088 0.751766 0.460656
0.331828 0.751821 0.599848
0.331695 0.751825 0.751821
0.332250 0.751753 0.881993
0.331748 0.751776 1.000000
0.332149 0.882031 0.000000
0.332274 0.881986 0.118339
0.332215 0.882028 0.224028
0.331926 0.882118 0.332278
0.332303 0.882024 0.461067
0.331891 0.882073 0.600243
0.331622 0.881977 0.751777
0.331726 0.881964 0.882076
0.331662 0.882074 1.000000
0.332202 1.000000 0.000000
0.331639 1.000000 0.118464
0.331977 1.000000 0.223963
0.331802 1.000000 0.331603
0.331815 1.000000 0.460626
0.332071 1.000000 0.600217
0.332024 1.000000 0.751827
0.331890 1.000000 0.882085
0.331722 1.000000 1.000000
0.460470 0.000000 0.000000
0.460620 0.000000 0.118364
0.460709 0.000000 0.223701
0.460452 0.000000 0.332142
0.460869 0.000000 0.460939
0.460680 0.000000 0.600032
0.461111 0.000000 0.751628
0.461092 0.000000 0.882068
0.460620 0.000000 1.000000
0.460516 0.118441 0.000000
0.461117 0.118319 0.118345
0.460689 0.118346 0.224171
0.460435 0.118607 0.332140
0.460569 0.118413 0.461033
0.460661 0.118387 0.600208
0.460870 0.118283 0.751725
0.461146 0.118439 0.882058
0.460722 0.118525 1.000000
0.461082 0.224171 0.000000
0.461083 0.223827 0.118388
0.465540 0.227285 0.227352
0.461147 0.223987 0.332051
0.460756 0.223751 0.460861
0.460875 0.223755 0.600249
0.460574 0.224049 0.751731
0.460900 0.224141 0.882054
0.460669 0.224225 1.000000
0.460795 0.332019 0.000000
0.460662 0.331722 0.118416
0.467966 0.339809 0.228744
0.473114 0.345557 0.345205
0.460665 0.332104 0.460438
0.460696 0.332284 0.600062
0.460664 0.332053 0.751927
0.460456 0.332048 0.882024
0.460747 0.331971 1.000000
0.461098 0.460833 0.000000
0.460633 0.460909 0.118537
0.461087 0.460761 0.223795
0.460535 0.460929 0.331625
0.460635 0.460747 0.461119
0.460775 0.461077 0.600307
0.460603 0.460429 0.751687
0.460622 0.460818 0.882072
0.460544 0.460484 1.000000
0.460429 0.600360 0.000000
0.461075 0.600009 0.118408
0.460427 0.599904 0.223813
0.460531 0.599925 0.331718
0.460737 0.600233 0.460565
0.461031 0.600137 0.599777
0.461091 0.599934 0.751734
0.460937 0.599841 0.881954
0.460720 0.600322 1.000000
0.460445 0.751838 0.000000
0.460514 0.751770 0.118367
0.460560 0.751761 0.223961
0.460552 0.751883 0.331694
0.460648 0.751926 0.460772
0.460696 0.751682 0.600055
0.460917 0.751695 0.751727
0.460766 0.751902 0.882033
0.460427 0.751868 1.000000
0.460617 0.881963 0.000000
0.461112 0.882034 0.118558
0.460432 0.882075 0.223738
0.460545 0.881999 0.331682
0.461090 0.882102 0.460877
0.460606 0.882097 0.600088
0.460719 0.882120 0.751941
0.460746 0.882007 0.881993
0.461043 0.882041 1.000000
0.460804 1.000000 0.000000
0.460515 1.000000 0.118552
0.460422 1.000000 0.224221
0.460905 1.000000 0.331873
0.460592 1.000000 0.460875
0.460950 1.000000 0.600026
0.460515 1.000000 0.751753
0.461001 1.000000 0.881978
0.461146 1.000000 1.000000
0.600032 0.000000 0.000000
0.599920 0.000000 0.118401
0.600267 0.000000 0.224114
0.600416 0.000000 0.331754
0.599999 0.000000 0.460632
0.600093 0.000000 0.599881
0.599802 0.000000 0.751618
0.600051 0.000000 0.882101
0.599871 0.000000 1.000000
0.599817 0.118323 0.000000
0.599740 0.118289 0.118439
0.599945 0.118462 0.223830
0.599754 0.118530 0.331986
0.600304 0.118322 0.461072
0.599911 0.118528 0.599932
0.600082 0.118348 0.751922
0.600306 0.118452 0.882047
0.600382 0.118533 1.000000
0.599997 0.223710 0.000000
0.599798 0.223955 0.118384
0.600194 0.223811 0.224079
0.600192 0.223974 0.331851
0.600240 0.223925 0.460544
0.600207 0.223902 0.600135
0.600239 0.223834 0.751619
0.600342 0.224207 0.881953
0.599857 0.224234 1.000000
0.600166 0.332072 0.000000
0.600085 0.331969 0.118441
0.600406 0.331639 0.223823
0.607672 0.345225 0.345434
0.600333 0.331758 0.460863
0.600233 0.331623 0.600221
0.599993 0.332065 0.751827
0.600297 0.331761 0.881963
0.599780 0.331803 1.000000
0.599739 0.460704 0.000000
0.600319 0.460972 0.118440
0.599817 0.460926 0.224191
0.611856 0.479147 0.351965
0.607911 0.473193 0.472991
0.599893 0.460474 0.599933
0.600147 0.460518 0.751723
0.599959 0.460899 0.882093
0.600041 0.460667 1.000000
0.599817 0.600162 0.000000
0.600070 0.600301 0.118322
0.599999 0.600246 0.223936
0.599856 0.600251 0.331763
0.600311 0.600383 0.460686
0.599747 0.599994 0.600219
0.600058 0.600383 0.751807
0.599801 0.599962 0.881951
0.600059 0.599772 1.000000
0.600140 0.751838 0.000000
0.600233 0.751783 0.118388
0.599957 0.751811 0.224001
0.599724 0.751921 0.332101
0.600328 0.751669 0.460981
0.600105 0.751723 0.600319
0.599957 0.751761 0.751913
0.599733 0.751923 0.882013
0.600081 0.751792 1.000000
0.600081 0.882010 0.000000
0.600230 0.882058 0.118284
0.600086 0.882098 0.224231
0.600144 0.882032 0.332114
0.600402 0.882126 0.460698
0.600281 0.882008 0.599862
0.600189 0.882001 0.751786
0.600343 0.882040 0.882044
0.600122 0.881957 1.000000
0.600147 1.000000 0.000000
0.600390 1.000000 0.118402
0.599903 1.000000 0.224085
0.600280 1.000000 0.332101
0.599789 1.000000 0.460611
0.600035 1.000000 0.600204
0.600148 1.000000 0.751871
0.600316 1.000000 0.881974
0.600164 1.000000 1.000000
0.751706 0.000000 0.000000
0.751894 0.000000 0.118490
0.751713 0.000000 0.224231
0.751784 0.000000 0.331878
0.751711 0.000000 0.461103
0.751811 0.000000 0.599973
0.751941 0.000000 0.751686
0.751605 0.000000 0.881951
0.751718 0.000000 1.000000
0.751761 0.118486 0.000000
0.751846 0.118363 0.118441
0.751947 0.118579 0.223784
0.751822 0.118458 0.332293
0.751742 0.118547 0.460968
0.751913 0.118528 0.600041
0.751614 0.118439 0.751756
0.751744 0.118387 0.882082
0.751937 0.118516 1.000000
0.751721 0.224050 0.000000
0.751833 0.223951 0.118310
0.751612 0.223959 0.223754
0.751818 0.223748 0.331627
0.751707 0.223840 0.460644
0.751810 0.224047 0.599887
0.751851 0.224080 0.751902
0.751945 0.223797 0.882107
0.751717 0.224154 1.000000
0.751873 0.331656 0.000000
0.751906 0.332223 0.118547
0.751740 0.331987 0.224078
0.751712 0.336465 0.336276
0.751767 0.332241 0.460823
0.751802 0.332197 0.600052
0.751687 0.331760 0.751929
0.751927 0.332195 0.881979
0.751712 0.331787 1.000000
0.751778 0.460454 0.000000
0.751946 0.460846 0.118320
0.751613 0.460999 0.224103
0.751531 0.469227 0.341013
0.751225 0.471675 0.471805
0.751751 0.460677 0.599759
0.751752 0.460682 0.751762
0.751693 0.460469 0.882114
0.751944 0.460917 1.000000
0.751764 0.599773 0.000000
0.751829 0.599755 0.118601
0.751863 0.599795 0.223964
0.751648 0.602690 0.336533
0.751134 0.610292 0.477016
0.751401 0.604254 0.604226
0.751716 0.600110 0.751853
0.751777 0.600237 0.882059
0.751882 0.599781 1.000000
0.751939 0.751859 0.000000
0.751910 0.751819 0.118327
0.751606 0.751846 0.223943
0.751649 0.751890 0.332016
0.751763 0.751653 0.460656
0.751897 0.751925 0.600278
0.751712 0.751694 0.751741
0.751675 0.751717 0.882028
0.751674 0.751611 1.000000
0.751703 0.882020 0.000000
0.751919 0.882041 0.118340
0.751848 0.882088 0.224020
0.751802 0.881963 0.332082
0.751604 0.881961 0.460656
0.751761 0.882108 0.600383
0.751813 0.882121 0.751625
0.751615 0.882116 0.882019
0.751654 0.882002 1.000000
0.751892 1.000000 0.000000
0.751676 1.000000 0.118472
0.751678 1.000000 0.224160
0.751656 1.000000 0.331627
0.751810 1.000000 0.460439
0.751784 1.000000 0.599756
0.751827 1.000000 0.751918
0.751892 1.000000 0.881956
0.751816 1.000000 1.000000
0.882112 0.000000 0.000000
0.882115 0.000000 0.118491
0.881972 0.000000 0.223730
0.882129 0.000000 0.332267
0.882014 0.000000 0.461064
0.881977 0.000000 0.599936
0.882049 0.000000 0.751735
0.882126 0.000000 0.881955
0.882055 0.000000 1.000000
0.882030 0.118491 0.000000
0.881987 0.118406 0.118579
0.882072 0.118534 0.224039
0.882060 0.118524 0.331836
0.882012 0.118558 0.460414
0.881992 0.118444 0.599934
0.882059 0.118462 0.751725
0.882049 0.118582 0.881998
0.882029 0.118534 1.000000
0.881990 0.224015 0.000000
0.881981 0.224022 0.118570
0.882002 0.223714 0.223739
0.882100 0.224134 0.332003
0.882056 0.223779 0.460490
0.881971 0.223802 0.600165
0.882057 0.223850 0.751701
0.881951 0.223701 0.882034
0.882010 0.224169 1.000000
0.882058 0.331984 0.000000
0.882023 0.332287 0.118564
0.882100 0.331906 0.223706
0.881926 0.332347 0.332573
0.882021 0.332326 0.460777
0.881994 0.331935 0.599740
0.882040 0.331713 0.751814
0.882015 0.332248 0.882009
0.881973 0.332171 1.000000
0.882052 0.460978 0.000000
0.882074 0.461001 0.118496
0.881958 0.460726 0.223771
0.881827 0.461957 0.333138
0.881366 0.463955 0.464368
0.882095 0.460860 0.599946
0.882070 0.461071 0.751656
0.881968 0.460828 0.882045
0.881986 0.460563 1.000000
0.882022 0.599900 0.000000
0.882041 0.599777 0.118376
0.882013 0.600098 0.223963
0.881809 0.600317 0.333058
0.880849 0.604497 0.467880
0.880979 0.603714 0.603987
0.882105 0.600074 0.751899
0.882070 0.600363 0.882130
0.882101 0.600211 1.000000
0.882074 0.751653 0.000000
0.881986 0.751928 0.118325
0.881991 0.751825 0.223827
0.881985 0.751642 0.332387
0.881464 0.751616 0.464311
0.880443 0.751507 0.605764
0.881539 0.751770 0.751676
0.882047 0.751812 0.882077
0.881993 0.751688 1.000000
0.882014 0.882056 0.000000
0.882067 0.882020 0.118363
0.881951 0.882035 0.223813
0.882043 0.882031 0.331701
0.882022 0.881986 0.460447
0.881962 0.881969 0.600399
0.882086 0.882116 0.751803
0.882075 0.882092 0.882044
0.882060 0.882044 1.000000
0.882008 1.000000 0.000000
0.881954 1.000000 0.118571
0.881980 1.000000 0.223943
0.881963 1.000000 0.332011
0.882095 1.000000 0.461146
0.881953 1.000000 0.599952
0.882108 1.000000 0.751714
0.882084 1.000000 0.882124
0.881991 1.000000 1.000000
1.000000 0.000000 0.000000
1.000000 0.000000 0.118375
1.000000 0.000000 0.224114
1.000000 0.000000 0.332228
1.000000 0.000000 0.460486
1.000000 0.000000 0.599955
1.000000 0.000000 0.751715
1.000000 0.000000 0.882000
1.000000 0.000000 1.000000
1.000000 0.118514 0.000000
1.000000 0.118313 0.118458
1.000000 0.118487 0.223841
1.000000 0.118462 0.332252
1.000000 0.118604 0.460470
1.000000 0.118476 0.600310
1.000000 0.118590 0.751750
1.000000 0.118344 0.882080
1.000000 0.118403 1.000000
1.000000 0.223820 0.000000
1.000000 0.224181 0.118446
1.000000 0.224094 0.224035
1.000000 0.223822 0.331927
1.000000 0.224204 0.460436
1.000000 0.223826 0.600356
1.000000 0.223909 0.751644
1.000000 0.223711 0.882034
1.000000 0.223909 1.000000
1.000000 0.332164 0.000000
1.000000 0.331629 0.118588
1.000000 0.331680 0.223904
1.000000 0.331826 0.331877
1.000000 0.331922 0.460872
1.000000 0.332279 0.599795
1.000000 0.331827 0.751710
1.000000 0.332163 0.882065
1.000000 0.332180 1.000000
1.000000 0.460714 0.000000
1.000000 0.460563 0.118590
1.000000 0.461139 0.224173
1.000000 0.461135 0.331791
1.000000 0.460521 0.460576
1.000000 0.461039 0.599808
1.000000 0.460470 0.751659
1.000000 0.461059 0.882112
1.000000 0.461117 1.000000
1.000000 0.599779 0.000000
1.000000 0.599771 0.118443
1.000000 0.600076 0.223824
1.000000 0.599882 0.332090
1.000000 0.600052 0.460477
1.000000 0.599978 0.599790
1.000000 0.600407 0.751910
1.000000 0.599744 0.881998
1.000000 0.599980 1.000000
1.000000 0.751708 0.000000
1.000000 0.751751 0.118458
1.000000 0.751607 0.223715
1.000000 0.751761 0.331785
1.000000 0.751914 0.460525
1.000000 0.751864 0.600286
1.000000 0.751923 0.751874
1.000000 0.751782 0.881951
1.000000 0.751656 1.000000
1.000000 0.882002 0.000000
1.000000 0.881966 0.118469
1.000000 0.882022 0.223708
1.000000 0.882018 0.332089
1.000000 0.882098 0.460466
1.000000 0.881968 0.600339
1.000000 0.882104 0.751642
1.000000 0.881954 0.882051
1.000000 0.882098 1.000000
1.000000 1.000000 0.000000
1.000000 1.000000 0.118400
1.000000 1.000000 0.224007
1.000000 1.000000 0.332004
1.000000 1.000000 0.460448
1.000000 1.000000 0.599724
1.000000 1.000000 0.751633
1.000000 1.000000 0.882130
1.000000 1.000000 1.000000
