zeta.cube
TITLE Riemann+Yang LUT (strength=0.03, ym=0.2, opacity=0.3)
LUT_3D_SIZE 33
DOMAIN_MIN 0 0 0
DOMAIN_MAX 1 1 1
0.000000 0.000000 0.000000
0.000000 0.000000 0.041418
0.000000 0.000000 0.061613
0.000000 0.000000 0.084738
0.000000 0.000000 0.106453
0.000000 0.000000 0.132811
0.000000 0.000000 0.167669
0.000000 0.000000 0.209693
0.000000 0.000000 0.253765
0.000000 0.000000 0.291797
0.000000 0.000000 0.315209
0.000000 0.000000 0.330989
0.000000 0.000000 0.344279
0.000000 0.000000 0.364173
0.000000 0.000000 0.396805
0.000000 0.000000 0.441072
0.000000 0.000000 0.491068
0.000000 0.000000 0.536623
0.000000 0.000000 0.571231
0.000000 0.000000 0.596779
0.000000 0.000000 0.615612
0.000000 0.000000 0.635024
0.000000 0.000000 0.662424
0.000000 0.000000 0.700874
0.000000 0.000000 0.746007
0.000000 0.000000 0.787671
0.000000 0.000000 0.823797
0.000000 0.000000 0.855282
0.000000 0.000000 0.883323
0.000000 0.000000 0.910545
0.000000 0.000000 0.939176
0.000000 0.000000 0.969540
0.000000 0.000000 1.000000
0.000000 0.041650 0.000000
0.000000 0.041358 0.041655
0.000000 0.041296 0.061646
0.000000 0.041463 0.084671
0.000000 0.041555 0.106551
0.000000 0.041313 0.132952
0.000000 0.041342 0.167576
0.000000 0.041323 0.209911
0.000000 0.041331 0.254377
0.000000 0.041252 0.291331
0.000000 0.041606 0.315199
0.000000 0.041637 0.330363
0.000000 0.041417 0.344364
0.000000 0.041344 0.364303
0.000000 0.041626 0.396749
0.000000 0.041548 0.441094
0.000000 0.041671 0.491322
0.000000 0.041503 0.536986
0.000000 0.041271 0.571367
0.000000 0.041462 0.596770
0.000000 0.041300 0.615703
0.000000 0.041515 0.635139
0.000000 0.041387 0.662381
0.000000 0.041513 0.701140
0.000000 0.041354 0.746251
0.000000 0.041480 0.787669
0.000000 0.041544 0.823760
0.000000 0.041417 0.855203
0.000000 0.041445 0.883247
0.000000 0.041596 0.910552
0.000000 0.041575 0.939154
0.000000 0.041605 0.969552
0.000000 0.041421 1.000000
0.000000 0.061619 0.000000
0.000000 0.061579 0.041386
0.000000 0.061635 0.061569
0.000000 0.061628 0.084633
0.000000 0.061699 0.106383
0.000000 0.061680 0.132839
0.000000 0.061643 0.167451
0.000000 0.061680 0.209762
0.000000 0.061600 0.253791
0.000000 0.061694 0.291697
0.000000 0.061574 0.315092
0.000000 0.061657 0.330712
0.000000 0.061655 0.344001
0.000000 0.061665 0.364225
0.000000 0.061557 0.396172
0.000000 0.061597 0.441341
0.000000 0.061643 0.491202
0.000000 0.061543 0.537110
0.000000 0.061616 0.571345
0.000000 0.061614 0.596986
0.000000 0.061618 0.615311
0.000000 0.061651 0.634586
0.000000 0.061588 0.662632
0.000000 0.061546 0.700773
0.000000 0.061630 0.745937
0.000000 0.061635 0.787676
0.000000 0.061618 0.823752
0.000000 0.061563 0.855260
0.000000 0.061603 0.883291
0.000000 0.061535 0.910546
0.000000 0.061637 0.939195
0.000000 0.061679 0.969565
0.000000 0.061575 1.000000
0.000000 0.084745 0.000000
0.000000 0.084737 0.041328
0.000000 0.084745 0.061614
0.000000 0.084752 0.084643
0.000000 0.084788 0.106282
0.000000 0.084623 0.132654
0.000000 0.084739 0.167620
0.000000 0.084638 0.209860
0.000000 0.084661 0.253835
0.000000 0.084745 0.291533
0.000000 0.084752 0.315499
0.000000 0.084686 0.330757
0.000000 0.084660 0.343883
0.000000 0.084654 0.364030
0.000000 0.084708 0.396367
0.000000 0.084787 0.441139
0.000000 0.084635 0.491314
0.000000 0.084815 0.536653
0.000000 0.084752 0.571149
0.000000 0.084677 0.596874
0.000000 0.084785 0.615580
0.000000 0.084703 0.635137
0.000000 0.084807 0.662404
0.000000 0.084842 0.700772
0.000000 0.084854 0.746342
0.000000 0.084725 0.787689
0.000000 0.084722 0.823950
0.000000 0.084653 0.855316
0.000000 0.084683 0.883363
0.000000 0.084661 0.910613
0.000000 0.084696 0.939206
0.000000 0.084817 0.969548
0.000000 0.084849 1.000000
0.000000 0.106539 0.000000
0.000000 0.106454 0.041668
0.000000 0.106383 0.061635
0.000000 0.106256 0.084736
0.000000 0.106525 0.106451
0.000000 0.106338 0.132650
0.000000 0.106368 0.167485
0.000000 0.106477 0.209942
0.000000 0.106469 0.254133
0.000000 0.106238 0.291535
0.000000 0.106416 0.315238
0.000000 0.106381 0.330875
0.000000 0.106539 0.344363
0.000000 0.106519 0.364322
0.000000 0.106396 0.396812
0.000000 0.106521 0.440883
0.000000 0.106440 0.491580
0.000000 0.106259 0.536761
0.000000 0.106498 0.571499
0.000000 0.106261 0.596620
0.000000 0.106376 0.615792
0.000000 0.106411 0.634783
0.000000 0.106375 0.662758
0.000000 0.106454 0.700611
0.000000 0.106358 0.746367
0.000000 0.106537 0.787552
0.000000 0.106485 0.823881
0.000000 0.106281 0.855382
0.000000 0.106243 0.883335
0.000000 0.106536 0.910614
0.000000 0.106405 0.939170
0.000000 0.106529 0.969539
0.000000 0.106548 1.000000
0.000000 0.132756 0.000000
0.000000 0.132628 0.041261
0.000000 0.132641 0.061637
0.000000 0.132773 0.084836
0.000000 0.132582 0.106321
0.000000 0.132584 0.132631
0.000000 0.132794 0.167457
0.000000 0.132596 0.210159
0.000000 0.132741 0.254396
0.000000 0.132728 0.291507
0.000000 0.132724 0.314979
0.000000 0.132704 0.330950
0.000000 0.132591 0.343834
0.000000 0.132767 0.364608
0.000000 0.132600 0.396893
0.000000 0.132872 0.441216
0.000000 0.132951 0.491336
0.000000 0.132565 0.536596
0.000000 0.132841 0.571183
0.000000 0.132778 0.596889
0.000000 0.132790 0.615621
0.000000 0.132713 0.634955
0.000000 0.132930 0.662717
0.000000 0.132877 0.700673
0.000000 0.132760 0.746061
0.000000 0.132612 0.787653
0.000000 0.132705 0.823892
0.000000 0.132747 0.855326
0.000000 0.132709 0.883391
0.000000 0.132866 0.910597
0.000000 0.132728 0.939199
0.000000 0.132781 0.969551
0.000000 0.132832 1.000000
0.000000 0.167886 0.000000
0.000000 0.167452 0.041274
0.000000 0.167565 0.061561
0.000000 0.167726 0.084782
0.000000 0.167854 0.106274
0.000000 0.167453 0.132896
0.000000 0.167813 0.167520
0.000000 0.167653 0.209730
0.000000 0.167487 0.253944
0.000000 0.167827 0.291284
0.000000 0.167731 0.315383
0.000000 0.167768 0.330967
0.000000 0.167854 0.344014
0.000000 0.167517 0.364033
0.000000 0.167598 0.396401
0.000000 0.167484 0.441043
0.000000 0.167689 0.491268
0.000000 0.167860 0.536548
0.000000 0.167506 0.571327
0.000000 0.167581 0.596713
0.000000 0.167897 0.615768
0.000000 0.167867 0.634845
0.000000 0.167732 0.662708
0.000000 0.167494 0.700957
0.000000 0.167676 0.746283
0.000000 0.167598 0.787496
0.000000 0.167563 0.823779
0.000000 0.167498 0.855385
0.000000 0.167531 0.883331
0.000000 0.167605 0.910520
0.000000 0.167538 0.939149
0.000000 0.167721 0.969553
0.000000 0.167479 1.000000
0.000000 0.209941 0.000000
0.000000 0.209726 0.041415
0.000000 0.209911 0.061602
0.000000 0.209704 0.084742
0.000000 0.210006 0.106547
0.000000 0.210002 0.132903
0.000000 0.210010 0.167517
0.000000 0.209935 0.210034
0.000000 0.210138 0.253824
0.000000 0.209827 0.291591
0.000000 0.209759 0.314856
0.000000 0.210159 0.330776
0.000000 0.210107 0.344169
0.000000 0.209727 0.364298
0.000000 0.209801 0.396158
0.000000 0.209677 0.441105
0.000000 0.210165 0.491405
0.000000 0.210078 0.536932
0.000000 0.210003 0.571113
0.000000 0.209885 0.597005
0.000000 0.209856 0.615682
0.000000 0.210132 0.634836
0.000000 0.209842 0.662777
0.000000 0.209846 0.700561
0.000000 0.209679 0.745988
0.000000 0.209859 0.787579
0.000000 0.209956 0.823944
0.000000 0.209993 0.855264
0.000000 0.209928 0.883334
0.000000 0.209828 0.910512
0.000000 0.210062 0.939198
0.000000 0.210006 0.969552
0.000000 0.210060 1.000000
0.000000 0.253995 0.000000
0.000000 0.254265 0.041440
0.000000 0.254113 0.061677
0.000000 0.254122 0.084760
0.000000 0.253964 0.106263
0.000000 0.254047 0.132764
0.000000 0.253941 0.167642
0.000000 0.253738 0.210069
0.000000 0.254213 0.253807
0.000000 0.254134 0.291631
0.000000 0.253714 0.315288
0.000000 0.254454 0.330504
0.000000 0.253807 0.343972
0.000000 0.253861 0.364384
0.000000 0.254161 0.396236
0.000000 0.254054 0.441307
0.000000 0.254436 0.491306
0.000000 0.254188 0.537005
0.000000 0.254382 0.571450
0.000000 0.254208 0.596992
0.000000 0.253833 0.615326
0.000000 0.253861 0.634893
0.000000 0.254106 0.662911
0.000000 0.254435 0.700626
0.000000 0.254292 0.746335
0.000000 0.253867 0.787599
0.000000 0.253841 0.823809
0.000000 0.253913 0.855224
0.000000 0.254082 0.883229
0.000000 0.253728 0.910532
0.000000 0.253971 0.939223
0.000000 0.254345 0.969556
0.000000 0.253990 1.000000
0.000000 0.291610 0.000000
0.000000 0.291674 0.041622
0.000000 0.291918 0.061633
0.000000 0.291362 0.084828
0.000000 0.291425 0.106418
0.000000 0.291394 0.132647
0.000000 0.291347 0.167881
0.000000 0.291825 0.210076
0.000000 0.291524 0.253911
0.000000 0.291508 0.291208
0.000000 0.291192 0.315110
0.000000 0.291727 0.330762
0.000000 0.291509 0.343856
0.000000 0.291835 0.363934
0.000000 0.291664 0.396700
0.000000 0.291648 0.441345
0.000000 0.291912 0.491061
0.000000 0.291634 0.537029
0.000000 0.291893 0.571126
0.000000 0.291276 0.596991
0.000000 0.291211 0.615276
0.000000 0.291473 0.634629
0.000000 0.291629 0.662334
0.000000 0.291693 0.700832
0.000000 0.291624 0.746453
0.000000 0.291413 0.787643
0.000000 0.291438 0.823773
0.000000 0.291566 0.855397
0.000000 0.291520 0.883279
0.000000 0.291805 0.910591
0.000000 0.291248 0.939205
0.000000 0.291541 0.969582
0.000000 0.291284 1.000000
0.000000 0.315316 0.000000
0.000000 0.315331 0.041344
0.000000 0.314903 0.061575
0.000000 0.314953 0.084633
0.000000 0.315456 0.106252
0.000000 0.315184 0.132679
0.000000 0.315209 0.167546
0.000000 0.315286 0.209961
0.000000 0.315525 0.254179
0.000000 0.315144 0.291416
0.000000 0.315153 0.314954
0.000000 0.315265 0.330716
0.000000 0.315277 0.343701
0.000000 0.315219 0.364312
0.000000 0.314986 0.396436
0.000000 0.315363 0.440790
0.000000 0.315429 0.491396
0.000000 0.315359 0.537094
0.000000 0.314970 0.571416
0.000000 0.314857 0.596943
0.000000 0.315328 0.615656
0.000000 0.314851 0.635019
0.000000 0.315362 0.662528
0.000000 0.314931 0.700969
0.000000 0.315555 0.746365
0.000000 0.315423 0.787639
0.000000 0.315104 0.823933
0.000000 0.315465 0.855252
0.000000 0.315419 0.883325
0.000000 0.315374 0.910604
0.000000 0.315374 0.939193
0.000000 0.315419 0.969577
0.000000 0.315482 1.000000
0.000000 0.330414 0.000000
0.000000 0.330496 0.041275
0.000000 0.330993 0.061594
0.000000 0.330689 0.084688
0.000000 0.330580 0.106541
0.000000 0.330365 0.132735
0.000000 0.330950 0.167580
0.000000 0.330704 0.209890
0.000000 0.330705 0.254302
0.000000 0.330364 0.291774
0.000000 0.330469 0.315478
0.000000 0.330964 0.330496
0.000000 0.330439 0.343793
0.000000 0.331001 0.364277
0.000000 0.330942 0.396156
0.000000 0.330421 0.440729
0.000000 0.330790 0.491110
0.000000 0.330634 0.537105
0.000000 0.330611 0.571129
0.000000 0.330775 0.596629
0.000000 0.330451 0.615736
0.000000 0.330867 0.634559
0.000000 0.330651 0.662745
0.000000 0.330510 0.700916
0.000000 0.330566 0.746143
0.000000 0.330693 0.787696
0.000000 0.330930 0.823920
0.000000 0.330499 0.855345
0.000000 0.330347 0.883238
0.000000 0.330830 0.910558
0.000000 0.330937 0.939198
0.000000 0.330373 0.969542
0.000000 0.330470 1.000000
0.000000 0.344297 0.000000
0.000000 0.343908 0.041527
0.000000 0.344176 0.061577
0.000000 0.344209 0.084701
0.000000 0.343717 0.106475
0.000000 0.344015 0.132695
0.000000 0.343885 0.167586
0.000000 0.344207 0.210073
0.000000 0.343978 0.253971
0.000000 0.344037 0.291473
0.000000 0.343687 0.315307
0.000000 0.344006 0.330785
0.000000 0.344095 0.344277
0.000000 0.344272 0.364232
0.000000 0.343951 0.396833
0.000000 0.343746 0.440980
0.000000 0.343691 0.491665
0.000000 0.343943 0.536934
0.000000 0.343731 0.571448
0.000000 0.344151 0.596981
0.000000 0.343931 0.615828
0.000000 0.344171 0.634651
0.000000 0.343978 0.662436
0.000000 0.343833 0.700693
0.000000 0.343943 0.746229
0.000000 0.343806 0.787537
0.000000 0.344028 0.823975
0.000000 0.343879 0.855178
0.000000 0.344053 0.883281
0.000000 0.343975 0.910542
0.000000 0.344209 0.939211
0.000000 0.344049 0.969561
0.000000 0.344286 1.000000
0.000000 0.364155 0.000000
0.000000 0.364102 0.041504
0.000000 0.363989 0.061695
0.000000 0.364604 0.084787
0.000000 0.364324 0.106338
0.000000 0.363983 0.132947
0.000000 0.364515 0.167727
0.000000 0.364040 0.209785
0.000000 0.364339 0.254393
0.000000 0.364097 0.291610
0.000000 0.364078 0.315493
0.000000 0.364260 0.330716
0.000000 0.364460 0.343731
0.000000 0.364306 0.364080
0.000000 0.364039 0.396580
0.000000 0.364472 0.440873
0.000000 0.364249 0.491576
0.000000 0.363970 0.537036
0.000000 0.363962 0.571117
0.000000 0.363924 0.596856
0.000000 0.364266 0.615785
0.000000 0.364226 0.634605
0.000000 0.364481 0.662650
0.000000 0.364450 0.700688
0.000000 0.364500 0.746197
0.000000 0.364102 0.787543
0.000000 0.364503 0.823852
0.000000 0.364169 0.855239
0.000000 0.363947 0.883351
0.000000 0.363984 0.910561
0.000000 0.364403 0.939216
0.000000 0.364235 0.969575
0.000000 0.364298 1.000000
0.000000 0.396723 0.000000
0.000000 0.396646 0.041410
0.000000 0.396586 0.061614
0.000000 0.396850 0.084673
0.000000 0.396416 0.106479
0.000000 0.396280 0.132604
0.000000 0.396420 0.167552
0.000000 0.396563 0.209999
0.000000 0.396259 0.253709
0.000000 0.396557 0.291595
0.000000 0.396529 0.315242
0.000000 0.396418 0.330867
0.000000 0.396505 0.343802
0.000000 0.396337 0.363984
0.000000 0.396504 0.396705
0.000000 0.396662 0.440875
0.000000 0.396357 0.491550
0.000000 0.396476 0.536770
0.000000 0.396374 0.571270
0.000000 0.396666 0.596627
0.000000 0.396802 0.615227
0.000000 0.396718 0.634998
0.000000 0.396611 0.662565
0.000000 0.396200 0.701108
0.000000 0.396793 0.746096
0.000000 0.396453 0.787704
0.000000 0.396479 0.823836
0.000000 0.396381 0.855301
0.000000 0.396361 0.883291
0.000000 0.396386 0.910513
0.000000 0.396226 0.939234
0.000000 0.396476 0.969559
0.000000 0.396440 1.000000
0.000000 0.441448 0.000000
0.000000 0.441147 0.041261
0.000000 0.441359 0.061692
0.000000 0.440867 0.084682
0.000000 0.441072 0.106324
0.000000 0.441340 0.132915
0.000000 0.440882 0.167486
0.000000 0.441211 0.209713
0.000000 0.440865 0.254442
0.000000 0.441408 0.291208
0.000000 0.440967 0.315528
0.000000 0.440848 0.330749
0.000000 0.440793 0.344143
0.000000 0.441156 0.364116
0.000000 0.441223 0.396840
0.000000 0.440855 0.440742
0.000000 0.440957 0.491235
0.000000 0.441295 0.536704
0.000000 0.441230 0.571396
0.000000 0.440948 0.596780
0.000000 0.441090 0.615383
0.000000 0.441365 0.635140
0.000000 0.440750 0.662349
0.000000 0.440753 0.700584
0.000000 0.441271 0.745914
0.000000 0.441189 0.787508
0.000000 0.441350 0.823807
0.000000 0.440732 0.855285
0.000000 0.440993 0.883332
0.000000 0.441427 0.910500
0.000000 0.441127 0.939156
0.000000 0.440736 0.969548
0.000000 0.441071 1.000000
0.000000 0.491230 0.000000
0.000000 0.491583 0.041583
0.000000 0.491644 0.061547
0.000000 0.491062 0.084860
0.000000 0.491725 0.106428
0.000000 0.491688 0.132822
0.000000 0.491046 0.167806
0.000000 0.491211 0.210069
0.000000 0.490990 0.253901
0.000000 0.491445 0.291384
0.000000 0.491326 0.315108
0.000000 0.491518 0.330774
0.000000 0.491010 0.344026
0.000000 0.491317 0.364429
0.000000 0.491431 0.396573
0.000000 0.491611 0.441418
0.000000 0.491143 0.491623
0.000000 0.491579 0.536888
0.000000 0.491704 0.571106
0.000000 0.491671 0.596981
0.000000 0.491559 0.615379
0.000000 0.491213 0.634680
0.000000 0.491323 0.662754
0.000000 0.491318 0.700849
0.000000 0.491139 0.745990
0.000000 0.491297 0.787508
0.000000 0.491326 0.823876
0.000000 0.491364 0.855195
0.000000 0.491201 0.883365
0.000000 0.491216 0.910539
0.000000 0.491402 0.939207
0.000000 0.491567 0.969552
0.000000 0.491313 1.000000
0.000000 0.537087 0.000000
0.000000 0.536930 0.041620
0.000000 0.537050 0.061537
0.000000 0.536679 0.084726
0.000000 0.536800 0.106549
0.000000 0.536898 0.132638
0.000000 0.536577 0.167691
0.000000 0.536922 0.209982
0.000000 0.536660 0.254093
0.000000 0.536828 0.291270
0.000000 0.536741 0.315329
0.000000 0.536992 0.330364
0.000000 0.537086 0.344268
0.000000 0.537108 0.364561
0.000000 0.537018 0.396619
0.000000 0.536978 0.441391
0.000000 0.536788 0.491222
0.000000 0.536750 0.536892
0.000000 0.536851 0.571520
0.000000 0.536653 0.596832
0.000000 0.536568 0.615500
0.000000 0.536718 0.634844
0.000000 0.536723 0.662604
0.000000 0.537054 0.701040
0.000000 0.536916 0.746097
0.000000 0.536794 0.787630
0.000000 0.536800 0.823831
0.000000 0.536810 0.855221
0.000000 0.536903 0.883229
0.000000 0.536691 0.910552
0.000000 0.537100 0.939225
0.000000 0.536603 0.969540
0.000000 0.536788 1.000000
0.000000 0.571249 0.000000
0.000000 0.571453 0.041631
0.000000 0.571497 0.061613
0.000000 0.571175 0.084815
0.000000 0.571523 0.106366
0.000000 0.571478 0.132576
0.000000 0.571241 0.167516
0.000000 0.571116 0.209660
0.000000 0.571340 0.253708
0.000000 0.571072 0.291734
0.000000 0.571330 0.314911
0.000000 0.571422 0.330610
0.000000 0.571118 0.344356
0.000000 0.571241 0.364278
0.000000 0.571458 0.396431
0.000000 0.571390 0.440968
0.000000 0.571116 0.491721
0.000000 0.571065 0.536838
0.000000 0.571070 0.571574
0.000000 0.571493 0.597082
0.000000 0.571538 0.615576
0.000000 0.571399 0.635170
0.000000 0.571476 0.662464
0.000000 0.571375 0.700807
0.000000 0.571343 0.746451
0.000000 0.571119 0.787507
0.000000 0.571617 0.823973
0.000000 0.571250 0.855189
0.000000 0.571394 0.883276
0.000000 0.571404 0.910530
0.000000 0.571271 0.939229
0.000000 0.571490 0.969541
0.000000 0.571059 1.000000
0.000000 0.596636 0.000000
0.000000 0.596813 0.041314
0.000000 0.596878 0.061646
0.000000 0.596657 0.084635
0.000000 0.596580 0.106422
0.000000 0.596688 0.132889
0.000000 0.596683 0.167877
0.000000 0.596603 0.209711
0.000000 0.597096 0.254325
0.000000 0.597080 0.291355
0.000000 0.597016 0.315465
0.000000 0.597075 0.330532
0.000000 0.596761 0.344047
0.000000 0.596656 0.364211
0.000000 0.596626 0.396567
0.000000 0.597046 0.441367
0.000000 0.597073 0.491087
0.000000 0.596640 0.536734
0.000000 0.597066 0.571390
0.000000 0.596708 0.596830
0.000000 0.596976 0.615750
0.000000 0.596850 0.634571
0.000000 0.596636 0.662732
0.000000 0.596842 0.701043
0.000000 0.596794 0.746183
0.000000 0.596706 0.787472
0.000000 0.596736 0.823801
0.000000 0.596870 0.855296
0.000000 0.596596 0.883307
0.000000 0.596959 0.910531
0.000000 0.596965 0.939154
0.000000 0.596999 0.969575
0.000000 0.596665 1.000000
0.000000 0.615832 0.000000
0.000000 0.615229 0.041369
0.000000 0.615369 0.061533
0.000000 0.615196 0.084621
0.000000 0.615656 0.106302
0.000000 0.615198 0.132950
0.000000 0.615758 0.167450
0.000000 0.615724 0.209910
0.000000 0.615713 0.254273
0.000000 0.615592 0.291711
0.000000 0.615778 0.315333
0.000000 0.615810 0.330700
0.000000 0.615255 0.343990
0.000000 0.615831 0.364565
0.000000 0.615495 0.396592
0.000000 0.615619 0.440970
0.000000 0.615410 0.491188
0.000000 0.615561 0.536792
0.000000 0.615197 0.571496
0.000000 0.615617 0.596711
0.000000 0.615623 0.615458
0.000000 0.615485 0.634597
0.000000 0.615530 0.662399
0.000000 0.615238 0.701053
0.000000 0.615761 0.746388
0.000000 0.615424 0.787526
0.000000 0.615417 0.823738
0.000000 0.615288 0.855310
0.000000 0.615159 0.883277
0.000000 0.615179 0.910628
0.000000 0.615679 0.939167
0.000000 0.615613 0.969546
0.000000 0.615726 1.000000
0.000000 0.634648 0.000000
0.000000 0.635179 0.041252
0.000000 0.634871 0.061603
0.000000 0.634621 0.084675
0.000000 0.634574 0.106236
0.000000 0.634978 0.132859
0.000000 0.635054 0.167694
0.000000 0.635134 0.209710
0.000000 0.634934 0.254044
0.000000 0.634634 0.291546
0.000000 0.634919 0.315472
0.000000 0.634833 0.330583
0.000000 0.635207 0.343971
0.000000 0.634968 0.364395
0.000000 0.634995 0.396721
0.000000 0.634769 0.441019
0.000000 0.634718 0.491092
0.000000 0.635177 0.536741
0.000000 0.635094 0.571286
0.000000 0.634795 0.597060
0.000000 0.635208 0.615385
0.000000 0.634911 0.634749
0.000000 0.635037 0.662768
0.000000 0.635208 0.701049
0.000000 0.634802 0.745933
0.000000 0.634707 0.787766
0.000000 0.635068 0.823970
0.000000 0.634862 0.855185
0.000000 0.634951 0.883235
0.000000 0.634919 0.910621
0.000000 0.634739 0.939226
0.000000 0.635217 0.969577
0.000000 0.635004 1.000000
0.000000 0.662913 0.000000
0.000000 0.662896 0.041358
0.000000 0.662888 0.061637
0.000000 0.662869 0.084635
0.000000 0.662825 0.106285
0.000000 0.662951 0.132903
0.000000 0.662963 0.167515
0.000000 0.662935 0.210114
0.000000 0.662874 0.254368
0.000000 0.662719 0.291492
0.000000 0.662753 0.315382
0.000000 0.662776 0.330416
0.000000 0.662682 0.343867
0.000000 0.662347 0.364296
0.000000 0.662879 0.396276
0.000000 0.662536 0.440873
0.000000 0.662457 0.491420
0.000000 0.662921 0.536860
0.000000 0.662504 0.571520
0.000000 0.662625 0.596634
0.000000 0.662887 0.615738
0.000000 0.662426 0.635145
0.000000 0.662914 0.662472
0.000000 0.662893 0.701096
0.000000 0.662412 0.746067
0.000000 0.662574 0.787733
0.000000 0.662539 0.823943
0.000000 0.662548 0.855328
0.000000 0.662933 0.883296
0.000000 0.662553 0.910624
0.000000 0.662691 0.939227
0.000000 0.662901 0.969549
0.000000 0.662540 1.000000
0.000000 0.700986 0.000000
0.000000 0.700783 0.041528
0.000000 0.700696 0.061543
0.000000 0.701138 0.084793
0.000000 0.700676 0.106497
0.000000 0.700844 0.132624
0.000000 0.700578 0.167903
0.000000 0.701093 0.209730
0.000000 0.700563 0.253709
0.000000 0.700581 0.291861
0.000000 0.701151 0.315199
0.000000 0.701007 0.330715
0.000000 0.700997 0.343955
0.000000 0.700685 0.364191
0.000000 0.700694 0.396614
0.000000 0.700730 0.441091
0.000000 0.700752 0.491319
0.000000 0.701038 0.536785
0.000000 0.700577 0.571198
0.000000 0.700657 0.597047
0.000000 0.700994 0.615600
0.000000 0.700739 0.634621
0.000000 0.700901 0.662825
0.000000 0.700968 0.700721
0.000000 0.701079 0.745980
0.000000 0.700920 0.787582
0.000000 0.700552 0.823888
0.000000 0.701130 0.855229
0.000000 0.700673 0.883260
0.000000 0.700860 0.910628
0.000000 0.700633 0.939202
0.000000 0.700996 0.969546
0.000000 0.701065 1.000000
0.000000 0.746081 0.000000
0.000000 0.746378 0.041658
0.000000 0.746356 0.061559
0.000000 0.746162 0.084803
0.000000 0.746393 0.106363
0.000000 0.746334 0.132688
0.000000 0.746265 0.167650
0.000000 0.745993 0.210110
0.000000 0.746126 0.254007
0.000000 0.746080 0.291529
0.000000 0.746205 0.315463
0.000000 0.746030 0.330679
0.000000 0.746004 0.344151
0.000000 0.746003 0.364175
0.000000 0.746320 0.396866
0.000000 0.746068 0.441327
0.000000 0.746256 0.491619
0.000000 0.746174 0.536908
0.000000 0.746136 0.571577
0.000000 0.746049 0.596611
0.000000 0.745985 0.615709
0.000000 0.746315 0.634811
0.000000 0.746161 0.662454
0.000000 0.746015 0.700647
0.000000 0.746115 0.746096
0.000000 0.746388 0.787685
0.000000 0.746358 0.823732
0.000000 0.745898 0.855350
0.000000 0.745985 0.883252
0.000000 0.746202 0.910510
0.000000 0.746270 0.939155
0.000000 0.746105 0.969572
0.000000 0.746316 1.000000
0.000000 0.787689 0.000000
0.000000 0.787689 0.041603
0.000000 0.787470 0.061584
0.000000 0.787632 0.084764
0.000000 0.787671 0.106462
0.000000 0.787662 0.132625
0.000000 0.787757 0.167609
0.000000 0.787556 0.210003
0.000000 0.787590 0.254429
0.000000 0.787678 0.291297
0.000000 0.787536 0.314965
0.000000 0.787753 0.330407
0.000000 0.787614 0.344078
0.000000 0.787723 0.364042
0.000000 0.787545 0.396733
0.000000 0.787725 0.441412
0.000000 0.787758 0.491331
0.000000 0.787604 0.537044
0.000000 0.787566 0.571193
0.000000 0.787763 0.596944
0.000000 0.787602 0.615716
0.000000 0.787664 0.634795
0.000000 0.787765 0.662942
0.000000 0.787541 0.700611
0.000000 0.787466 0.746297
0.000000 0.787518 0.787639
0.000000 0.787597 0.823812
0.000000 0.787727 0.855286
0.000000 0.787718 0.883223
0.000000 0.787756 0.910517
0.000000 0.787549 0.939177
0.000000 0.787528 0.969536
0.000000 0.787512 1.000000
0.000000 0.823971 0.000000
0.000000 0.823933 0.041340
0.000000 0.823949 0.061536
0.000000 0.823805 0.084823
0.000000 0.823996 0.106479
0.000000 0.823988 0.132768
0.000000 0.823943 0.167747
0.000000 0.823819 0.210033
0.000000 0.823939 0.254401
0.000000 0.823820 0.291595
0.000000 0.823959 0.315259
0.000000 0.823814 0.330382
0.000000 0.823970 0.344317
0.000000 0.823833 0.364243
0.000000 0.823823 0.396307
0.000000 0.823912 0.441254
0.000000 0.823762 0.491267
0.000000 0.823752 0.536770
0.000000 0.823863 0.571535
0.000000 0.823989 0.596733
0.000000 0.823979 0.615519
0.000000 0.823881 0.635127
0.000000 0.823929 0.662728
0.000000 0.823770 0.701101
0.000000 0.823954 0.746432
0.000000 0.823831 0.787519
