zeta.cube
TITLE Riemann+Yang LUT (strength=0.03, ym=0.2, opacity=0.3)
LUT_3D_SIZE 5
DOMAIN_MIN 0 0 0
DOMAIN_MAX 1 1 1
0.000000 0.000000 0.000000
0.000000 0.000000 0.253765
0.000000 0.000000 0.491068
0.000000 0.000000 0.746007
0.000000 0.000000 1.000000
0.000000 0.253995 0.000000
0.000000 0.254213 0.253807
0.000000 0.254436 0.491306
0.000000 0.254292 0.746335
0.000000 0.253990 1.000000
0.000000 0.491230 0.000000
0.000000 0.490990 0.253901
0.000000 0.491143 0.491623
0.000000 0.491139 0.745990
0.000000 0.491313 1.000000
0.000000 0.746081 0.000000
0.000000 0.746126 0.254007
0.000000 0.746256 0.491619
0.000000 0.746115 0.746096
0.000000 0.746316 1.000000
0.000000 1.000000 0.000000
0.000000 1.000000 0.254103
0.000000 1.000000 0.491423
0.000000 1.000000 0.746377
0.000000 1.000000 1.000000
0.253798 0.000000 0.000000
0.254045 0.000000 0.254218
0.254278 0.000000 0.491726
0.253827 0.000000 0.745911
0.254044 0.000000 1.000000
0.254342 0.253995 0.000000
0.254318 0.254381 0.253999
0.254216 0.254110 0.491592
0.254171 0.254280 0.746360
0.253914 0.254222 1.000000
0.254386 0.491058 0.000000
0.254117 0.491687 0.254324
0.254124 0.491366 0.491084
0.253967 0.491141 0.746246
0.253715 0.491275 1.000000
0.253854 0.745915 0.000000
0.254263 0.746263 0.253948
0.254185 0.746402 0.491014
0.254400 0.746377 0.746311
0.254307 0.746239 1.000000
0.254267 1.000000 0.000000
0.254333 1.000000 0.254440
0.253891 1.000000 0.491458
0.254223 1.000000 0.746013
0.254116 1.000000 1.000000
0.491035 0.000000 0.000000
0.491274 0.000000 0.253717
0.491433 0.000000 0.491504
0.491676 0.000000 0.745937
0.491184 0.000000 1.000000
0.491647 0.254343 0.000000
0.491182 0.254168 0.254271
0.491321 0.253783 0.491426
0.491138 0.254181 0.746104
0.491234 0.254415 1.000000
0.491662 0.491398 0.000000
0.491652 0.491326 0.253843
0.491200 0.491311 0.491684
0.491168 0.490994 0.746033
0.491109 0.491049 1.000000
0.491010 0.746276 0.000000
0.491124 0.746153 0.254063
0.491213 0.746419 0.491336
0.491481 0.746046 0.746097
0.490991 0.746325 1.000000
0.491368 1.000000 0.000000
0.490987 1.000000 0.254410
0.491157 1.000000 0.491440
0.491080 1.000000 0.746138
0.491711 1.000000 1.000000
0.746064 0.000000 0.000000
0.746074 0.000000 0.254424
0.746072 0.000000 0.491667
0.746444 0.000000 0.746030
0.746083 0.000000 1.000000
0.746088 0.254182 0.000000
0.745912 0.254061 0.253788
0.746064 0.253902 0.491208
0.746298 0.254221 0.746380
0.746082 0.254320 1.000000
0.746179 0.491019 0.000000
0.745912 0.491564 0.254252
0.746047 0.491345 0.491525
0.746138 0.491247 0.746153
0.746448 0.491482 1.000000
0.746439 0.746311 0.000000
0.745901 0.746290 0.254039
0.746155 0.745978 0.491221
0.746072 0.746044 0.746120
0.746011 0.745909 1.000000
0.746363 1.000000 0.000000
0.746017 1.000000 0.254329
0.746231 1.000000 0.491003
0.746259 1.000000 0.746405
0.746241 1.000000 1.000000
1.000000 0.000000 0.000000
1.000000 0.000000 0.254268
1.000000 0.000000 0.491050
1.000000 0.000000 0.746078
1.000000 0.000000 1.000000
1.000000 0.253875 0.000000
1.000000 0.254240 0.254161
1.000000 0.254388 0.491001
1.000000 0.253994 0.745962
1.000000 0.253994 1.000000
1.000000 0.491279 0.000000
1.000000 0.491703 0.254346
1.000000 0.491086 0.491141
1.000000 0.491034 0.745988
1.000000 0.491681 1.000000
1.000000 0.746067 0.000000
1.000000 0.745903 0.253735
1.000000 0.746399 0.491089
1.000000 0.746413 0.746334
1.000000 0.745982 1.000000
1.000000 1.000000 0.000000
1.000000 1.000000 0.254125
1.000000 1.000000 0.491013
1.000000 1.000000 0.745946
1.000000 1.000000 1.000000
