zeta.cube
TITLE Riemann+Yang LUT (strength=0.03, ym=0.2, opacity=0.3)
LUT_3D_SIZE 9
DOMAIN_MIN 0 0 0
DOMAIN_MAX 1 1 1
0.000000 0.000000 0.000000
0.000000 0.000000 0.106453
0.000000 0.000000 0.253765
0.000000 0.000000 0.344279
0.000000 0.000000 0.491068
0.000000 0.000000 0.615612
0.000000 0.000000 0.746007
0.000000 0.000000 0.883323
0.000000 0.000000 1.000000
0.000000 0.106539 0.000000
0.000000 0.106525 0.106451
0.000000 0.106469 0.254133
0.000000 0.106539 0.344363
0.000000 0.106440 0.491580
0.000000 0.106376 0.615792
0.000000 0.106358 0.746367
0.000000 0.106243 0.883335
0.000000 0.106548 1.000000
0.000000 0.253995 0.000000
0.000000 0.253964 0.106263
0.000000 0.254213 0.253807
0.000000 0.253807 0.343972
0.000000 0.254436 0.491306
0.000000 0.253833 0.615326
0.000000 0.254292 0.746335
0.000000 0.254082 0.883229
0.000000 0.253990 1.000000
0.000000 0.344297 0.000000
0.000000 0.343717 0.106475
0.000000 0.343978 0.253971
0.000000 0.344095 0.344277
0.000000 0.343691 0.491665
0.000000 0.343931 0.615828
0.000000 0.343943 0.746229
0.000000 0.344053 0.883281
0.000000 0.344286 1.000000
0.000000 0.491230 0.000000
0.000000 0.491725 0.106428
0.000000 0.490990 0.253901
0.000000 0.491010 0.344026
0.000000 0.491143 0.491623
0.000000 0.491559 0.615379
0.000000 0.491139 0.745990
0.000000 0.491201 0.883365
0.000000 0.491313 1.000000
0.000000 0.615832 0.000000
0.000000 0.615656 0.106302
0.000000 0.615713 0.254273
0.000000 0.615255 0.343990
0.000000 0.615410 0.491188
0.000000 0.615623 0.615458
0.000000 0.615761 0.746388
0.000000 0.615159 0.883277
0.000000 0.615726 1.000000
0.000000 0.746081 0.000000
0.000000 0.746393 0.106363
0.000000 0.746126 0.254007
0.000000 0.746004 0.344151
0.000000 0.746256 0.491619
0.000000 0.745985 0.615709
0.000000 0.746115 0.746096
0.000000 0.745985 0.883252
0.000000 0.746316 1.000000
0.000000 0.883317 0.000000
0.000000 0.883235 0.106370
0.000000 0.883304 0.254084
0.000000 0.883343 0.344193
0.000000 0.883314 0.491675
0.000000 0.883361 0.615540
0.000000 0.883234 0.746133
0.000000 0.883388 0.883321
0.000000 0.883351 1.000000
0.000000 1.000000 0.000000
0.000000 1.000000 0.106297
0.000000 1.000000 0.254103
0.000000 1.000000 0.344101
0.000000 1.000000 0.491423
0.000000 1.000000 0.615301
0.000000 1.000000 0.746377
0.000000 1.000000 0.883337
0.000000 1.000000 1.000000
0.106325 0.000000 0.000000
0.106495 0.000000 0.106268
0.106445 0.000000 0.254219
0.106416 0.000000 0.344252
0.106444 0.000000 0.491107
0.106277 0.000000 0.615334
0.106280 0.000000 0.746156
0.106408 0.000000 0.883395
0.106403 0.000000 1.000000
0.106501 0.106411 0.000000
0.106348 0.106263 0.106337
0.106298 0.106297 0.254252
0.106508 0.106451 0.343774
0.106479 0.106493 0.491661
0.106463 0.106290 0.615482
0.106449 0.106457 0.746211
0.106297 0.106373 0.883296
0.106358 0.106531 1.000000
0.106314 0.253828 0.000000
0.106558 0.253781 0.106276
0.106283 0.254326 0.254325
0.106431 0.254102 0.344306
0.106521 0.253758 0.491579
0.106300 0.253920 0.615402
0.106459 0.254230 0.746209
0.106290 0.254094 0.883250
0.106333 0.254355 1.000000
0.106297 0.344033 0.000000
0.106360 0.344160 0.106400
0.106340 0.343746 0.254164
0.106302 0.344027 0.343907
0.106296 0.344301 0.491012
0.106454 0.344146 0.615541
0.106303 0.344334 0.746323
0.106534 0.344130 0.883352
0.106355 0.344130 1.000000
0.106468 0.491393 0.000000
0.106522 0.491487 0.106455
0.106519 0.491507 0.253865
0.106257 0.491677 0.344298
0.106438 0.491543 0.491575
0.106395 0.491386 0.615503
0.106372 0.491364 0.745998
0.106241 0.491365 0.883269
0.106537 0.491388 1.000000
0.106291 0.615308 0.000000
0.106380 0.615175 0.106329
0.106235 0.615319 0.253878
0.106325 0.615361 0.344084
0.106261 0.615729 0.491211
0.106439 0.615706 0.615697
0.106516 0.615391 0.746357
0.106417 0.615702 0.883323
0.106432 0.615642 1.000000
0.106462 0.746311 0.000000
0.106375 0.746065 0.106504
0.106404 0.745918 0.254323
0.106475 0.745966 0.344073
0.106455 0.746223 0.491366
0.106409 0.746051 0.615280
0.106320 0.746180 0.746263
0.106261 0.745999 0.883263
0.106463 0.746144 1.000000
0.106451 0.883260 0.000000
0.106276 0.883255 0.106553
0.106338 0.883316 0.253832
0.106475 0.883292 0.344280
0.106296 0.883371 0.491174
0.106336 0.883245 0.615396
0.106549 0.883386 0.746333
0.106299 0.883256 0.883355
0.106324 0.883305 1.000000
0.106371 1.000000 0.000000
0.106308 1.000000 0.106251
0.106234 1.000000 0.254080
0.106376 1.000000 0.344094
0.106509 1.000000 0.491481
0.106368 1.000000 0.615354
0.106552 1.000000 0.746418
0.106237 1.000000 0.883333
0.106255 1.000000 1.000000
0.253798 0.000000 0.000000
0.254445 0.000000 0.106289
0.254045 0.000000 0.254218
0.254323 0.000000 0.343938
0.254278 0.000000 0.491726
0.254033 0.000000 0.615546
0.253827 0.000000 0.745911
0.254114 0.000000 0.883246
0.254044 0.000000 1.000000
0.254005 0.106450 0.000000
0.254447 0.106350 0.106507
0.254003 0.106426 0.253839
0.254372 0.106370 0.344351
0.254111 0.106467 0.491540
0.254161 0.106260 0.615274
0.253724 0.106530 0.746027
0.254367 0.106235 0.883368
0.254212 0.106540 1.000000
0.254342 0.253995 0.000000
0.254185 0.254114 0.106535
0.254318 0.254381 0.253999
0.254201 0.253986 0.344010
0.254216 0.254110 0.491592
0.254113 0.253721 0.615773
0.254171 0.254280 0.746360
0.254416 0.254385 0.883299
0.253914 0.254222 1.000000
0.254173 0.344037 0.000000
0.253924 0.343941 0.106421
0.253711 0.343690 0.253965
0.253905 0.343790 0.343682
0.254310 0.344156 0.491417
0.254132 0.343676 0.615636
0.253869 0.344068 0.746448
0.253807 0.343820 0.883396
0.253982 0.344176 1.000000
0.254386 0.491058 0.000000
0.254130 0.491480 0.106427
0.254117 0.491687 0.254324
0.253900 0.491538 0.344331
0.254124 0.491366 0.491084
0.253873 0.491007 0.615288
0.253967 0.491141 0.746246
0.254232 0.491472 0.883236
0.253715 0.491275 1.000000
0.253909 0.615495 0.000000
0.254359 0.615492 0.106238
0.254085 0.615739 0.254022
0.254146 0.615319 0.344311
0.254209 0.615802 0.491333
0.253977 0.615522 0.615507
0.254324 0.615664 0.746414
0.253885 0.615704 0.883295
0.253821 0.615721 1.000000
0.253854 0.745915 0.000000
0.253863 0.745923 0.106423
0.254263 0.746263 0.253948
0.253890 0.746238 0.343837
0.254185 0.746402 0.491014
0.253814 0.746002 0.615714
0.254400 0.746377 0.746311
0.253973 0.746143 0.883273
0.254307 0.746239 1.000000
0.253906 0.883259 0.000000
0.253725 0.883303 0.106403
0.254059 0.883369 0.253992
0.254368 0.883285 0.344129
0.253850 0.883388 0.491358
0.254364 0.883310 0.615406
0.254245 0.883238 0.746370
0.254008 0.883222 0.883288
0.253865 0.883377 1.000000
0.254267 1.000000 0.000000
0.253764 1.000000 0.106421
0.254333 1.000000 0.254440
0.254367 1.000000 0.344054
0.253891 1.000000 0.491458
0.253831 1.000000 0.615577
0.254223 1.000000 0.746013
0.253772 1.000000 0.883294
0.254116 1.000000 1.000000
0.344294 0.000000 0.000000
0.343828 0.000000 0.106322
0.344294 0.000000 0.254038
0.344095 0.000000 0.343924
0.343794 0.000000 0.491141
0.344200 0.000000 0.615820
0.343836 0.000000 0.746400
0.344108 0.000000 0.883314
0.344218 0.000000 1.000000
0.344144 0.106373 0.000000
0.344060 0.106462 0.106363
0.344169 0.106469 0.254326
0.344348 0.106297 0.344259
0.344179 0.106282 0.491012
0.344155 0.106273 0.615604
0.344313 0.106502 0.746253
0.344250 0.106443 0.883303
0.344133 0.106324 1.000000
0.344166 0.254160 0.000000
0.344354 0.254432 0.106510
0.344311 0.253948 0.254311
0.343787 0.254377 0.344122
0.344154 0.253919 0.491478
0.344201 0.254398 0.615254
0.344211 0.254352 0.746138
0.344069 0.254120 0.883283
0.344107 0.254440 1.000000
0.344303 0.344037 0.000000
0.344323 0.343680 0.106301
0.344269 0.344374 0.253945
0.343825 0.344282 0.343766
0.344166 0.343839 0.491312
0.343995 0.343833 0.615710
0.343934 0.344141 0.746260
0.344064 0.343985 0.883256
0.344071 0.343948 1.000000
0.343868 0.491193 0.000000
0.344324 0.491465 0.106390
0.344056 0.491266 0.253726
0.344038 0.491149 0.344028
0.343785 0.491244 0.491311
0.344038 0.491174 0.615453
0.344326 0.491429 0.746317
0.343865 0.491273 0.883262
0.344223 0.491524 1.000000
0.344325 0.615446 0.000000
0.343767 0.615446 0.106359
0.344376 0.615673 0.254055
0.343745 0.615336 0.344369
0.343855 0.615763 0.491455
0.343855 0.615411 0.615156
0.344299 0.615695 0.746351
0.344060 0.615216 0.883398
0.343924 0.615704 1.000000
0.343853 0.746319 0.000000
0.343913 0.746219 0.106527
0.344358 0.746439 0.254079
0.344356 0.746376 0.344223
0.344162 0.746160 0.491221
0.343902 0.746249 0.615255
0.343769 0.746255 0.746249
0.344324 0.746139 0.883264
0.343821 0.746177 1.000000
0.344222 0.883301 0.000000
0.344348 0.883257 0.106291
0.344289 0.883299 0.254152
0.344000 0.883389 0.344352
0.344377 0.883295 0.491631
0.343965 0.883344 0.615651
0.343696 0.883248 0.746178
0.343800 0.883235 0.883347
0.343736 0.883345 1.000000
0.344276 1.000000 0.000000
0.343712 1.000000 0.106416
0.344051 1.000000 0.254066
0.343875 1.000000 0.343676
0.343889 1.000000 0.491191
0.344145 1.000000 0.615624
0.344098 1.000000 0.746258
0.343964 1.000000 0.883356
0.343795 1.000000 1.000000
0.491035 0.000000 0.000000
0.491185 0.000000 0.106316
0.491274 0.000000 0.253717
0.491016 0.000000 0.344216
0.491433 0.000000 0.491504
0.491244 0.000000 0.615440
0.491676 0.000000 0.745937
0.491656 0.000000 0.883339
0.491184 0.000000 1.000000
0.491080 0.106392 0.000000
0.491682 0.106271 0.106296
0.491253 0.106298 0.254343
0.491000 0.106559 0.344214
0.491134 0.106365 0.491598
0.491225 0.106339 0.615616
0.491434 0.106235 0.746094
0.491711 0.106390 0.883329
0.491286 0.106477 1.000000
0.491647 0.254343 0.000000
0.491647 0.253885 0.106340
0.491182 0.254168 0.254271
0.491712 0.254097 0.344124
0.491321 0.253783 0.491426
0.491439 0.253789 0.615657
0.491138 0.254181 0.746104
0.491465 0.254304 0.883325
0.491234 0.254415 1.000000
0.491360 0.344092 0.000000
0.491227 0.343796 0.106368
0.491138 0.343762 0.253900
0.491457 0.344248 0.343735
0.491229 0.344178 0.491003
0.491260 0.344357 0.615469
0.491229 0.344127 0.746420
0.491020 0.344121 0.883294
0.491311 0.344044 1.000000
0.491662 0.491398 0.000000
0.491197 0.491474 0.106489
0.491652 0.491326 0.253843
0.491100 0.491494 0.343699
0.491200 0.491311 0.491684
0.491340 0.491642 0.615715
0.491168 0.490994 0.746033
0.491186 0.491382 0.883343
0.491109 0.491049 1.000000
0.490994 0.615768 0.000000
0.491640 0.615417 0.106359
0.490992 0.615311 0.253866
0.491095 0.615333 0.343791
0.491302 0.615641 0.491130
0.491596 0.615544 0.615185
0.491656 0.615341 0.746108
0.491501 0.615248 0.883225
0.491284 0.615730 1.000000
0.491010 0.746276 0.000000
0.491079 0.746166 0.106319
0.491124 0.746153 0.254063
0.491116 0.746350 0.343768
0.491213 0.746419 0.491336
0.491260 0.746024 0.615463
0.491481 0.746046 0.746097
0.491331 0.746380 0.883304
0.490991 0.746325 1.000000
0.491182 0.883234 0.000000
0.491677 0.883305 0.106509
0.490997 0.883346 0.253765
0.491110 0.883270 0.343755
0.491654 0.883373 0.491442
0.491170 0.883368 0.615496
0.491284 0.883391 0.746443
0.491311 0.883277 0.883264
0.491608 0.883312 1.000000
0.491368 1.000000 0.000000
0.491080 1.000000 0.106504
0.490987 1.000000 0.254410
0.491470 1.000000 0.343947
0.491157 1.000000 0.491440
0.491515 1.000000 0.615434
0.491080 1.000000 0.746138
0.491565 1.000000 0.883249
0.491711 1.000000 1.000000
0.615439 0.000000 0.000000
0.615328 0.000000 0.106353
0.615675 0.000000 0.254267
0.615824 0.000000 0.343827
0.615407 0.000000 0.491197
0.615500 0.000000 0.615289
0.615210 0.000000 0.745921
0.615459 0.000000 0.883372
0.615278 0.000000 1.000000
0.615224 0.106274 0.000000
0.615147 0.106241 0.106391
0.615352 0.106414 0.253889
0.615162 0.106482 0.344060
0.615712 0.106274 0.491637
0.615319 0.106480 0.615340
0.615490 0.106300 0.746412
0.615714 0.106404 0.883318
0.615789 0.106484 1.000000
0.615405 0.253729 0.000000
0.615206 0.254055 0.106335
0.615601 0.253863 0.254221
0.615599 0.254081 0.343925
0.615648 0.254015 0.491109
0.615615 0.253985 0.615543
0.615647 0.253894 0.745922
0.615750 0.254392 0.883224
0.615265 0.254427 1.000000
0.615574 0.344145 0.000000
0.615493 0.344043 0.106393
0.615813 0.343713 0.253879
0.615203 0.343765 0.344068
0.615741 0.343832 0.491428
0.615640 0.343697 0.615629
0.615401 0.344138 0.746258
0.615705 0.343835 0.883234
0.615188 0.343877 1.000000
0.615147 0.491269 0.000000
0.615727 0.491537 0.106392
0.615225 0.491491 0.254370
0.615667 0.491312 0.343713
0.615551 0.491573 0.491278
0.615301 0.491038 0.615341
0.615555 0.491082 0.746090
0.615366 0.491464 0.883364
0.615448 0.491231 1.000000
0.615225 0.615569 0.000000
0.615478 0.615709 0.106274
0.615406 0.615654 0.254030
0.615263 0.615659 0.343837
0.615719 0.615791 0.491250
0.615154 0.615401 0.615627
0.615466 0.615791 0.746226
0.615209 0.615370 0.883222
0.615467 0.615180 1.000000
0.615547 0.746276 0.000000
0.615641 0.746188 0.106340
0.615364 0.746232 0.254117
0.615131 0.746411 0.344175
0.615736 0.746003 0.491546
0.615513 0.746091 0.615727
0.615365 0.746152 0.746398
0.615141 0.746415 0.883284
0.615489 0.746202 1.000000
0.615488 0.883281 0.000000
0.615638 0.883329 0.106236
0.615494 0.883369 0.254423
0.615551 0.883303 0.344187
0.615810 0.883397 0.491262
0.615689 0.883279 0.615270
0.615597 0.883272 0.746192
0.615751 0.883311 0.883315
0.615530 0.883228 1.000000
0.615555 1.000000 0.000000
0.615797 1.000000 0.106354
0.615310 1.000000 0.254228
0.615687 1.000000 0.344175
0.615197 1.000000 0.491175
0.615443 1.000000 0.615612
0.615555 1.000000 0.746329
0.615724 1.000000 0.883245
0.615572 1.000000 1.000000
0.746064 0.000000 0.000000
0.746367 0.000000 0.106442
0.746074 0.000000 0.254424
0.746189 0.000000 0.343952
0.746072 0.000000 0.491667
0.746233 0.000000 0.615381
0.746444 0.000000 0.746030
0.745900 0.000000 0.883222
0.746083 0.000000 1.000000
0.746153 0.106438 0.000000
0.746289 0.106315 0.106392
0.746452 0.106531 0.253828
0.746250 0.106410 0.344366
0.746122 0.106499 0.491532
0.746398 0.106480 0.615449
0.745914 0.106391 0.746145
0.746124 0.106338 0.883353
0.746436 0.106467 1.000000
0.746088 0.254182 0.000000
0.746268 0.254049 0.106262
0.745912 0.254061 0.253788
0.746245 0.253780 0.343701
0.746064 0.253902 0.491208
0.746232 0.254178 0.615295
0.746298 0.254221 0.746380
0.746449 0.253845 0.883378
0.746082 0.254320 1.000000
0.746333 0.343730 0.000000
0.746386 0.344297 0.106499
0.746118 0.344061 0.254220
0.746395 0.344058 0.343847
0.746162 0.344315 0.491388
0.746218 0.344271 0.615460
0.746032 0.343834 0.746423
0.746420 0.344269 0.883249
0.746074 0.343860 1.000000
0.746179 0.491019 0.000000
0.746450 0.491411 0.106272
0.745912 0.491564 0.254252
0.746431 0.491693 0.344142
0.746047 0.491345 0.491525
0.746135 0.491242 0.615167
0.746138 0.491247 0.746153
0.746042 0.491033 0.883385
0.746448 0.491482 1.000000
0.746157 0.615181 0.000000
0.746262 0.615162 0.106553
0.746317 0.615203 0.254067
0.746280 0.615504 0.344133
0.746448 0.615194 0.491163
0.746045 0.615304 0.615269
0.746079 0.615518 0.746301
0.746179 0.615645 0.883330
0.746348 0.615189 1.000000
0.746439 0.746311 0.000000
0.746393 0.746247 0.106279
0.745901 0.746290 0.254039
0.745971 0.746360 0.344090
0.746155 0.745978 0.491221
0.746373 0.746417 0.615686
0.746072 0.746044 0.746120
0.746013 0.746081 0.883299
0.746011 0.745909 1.000000
0.746059 0.883291 0.000000
0.746407 0.883312 0.106292
0.746293 0.883359 0.254143
0.746218 0.883234 0.344156
0.745898 0.883232 0.491221
0.746153 0.883379 0.615791
0.746237 0.883392 0.745933
0.745917 0.883387 0.883290
0.745978 0.883273 1.000000
0.746363 1.000000 0.000000
0.746015 1.000000 0.106424
0.746017 1.000000 0.254329
0.745982 1.000000 0.343701
0.746231 1.000000 0.491003
0.746190 1.000000 0.615164
0.746259 1.000000 0.746405
0.746364 1.000000 0.883227
0.746241 1.000000 1.000000
0.883383 0.000000 0.000000
0.883386 0.000000 0.106443
0.883243 0.000000 0.253756
0.883400 0.000000 0.344340
0.883285 0.000000 0.491629
0.883248 0.000000 0.615344
0.883320 0.000000 0.746110
0.883397 0.000000 0.883226
0.883326 0.000000 1.000000
0.883301 0.106443 0.000000
0.883258 0.106358 0.106531
0.883343 0.106486 0.254168
0.883331 0.106476 0.343910
0.883283 0.106510 0.490979
0.883263 0.106396 0.615342
0.883330 0.106413 0.746094
0.883320 0.106534 0.883269
0.883300 0.106486 1.000000
0.883261 0.254135 0.000000
0.883252 0.254145 0.106522
0.883273 0.253734 0.253768
0.883371 0.254294 0.344076
0.883327 0.253821 0.491055
0.883242 0.253851 0.615573
0.883328 0.253916 0.746055
0.883222 0.253716 0.883305
0.883281 0.254341 1.000000
0.883329 0.344058 0.000000
0.883294 0.344361 0.106516
0.883371 0.343980 0.253724
0.883301 0.343777 0.344006
0.883319 0.344240 0.491195
0.883265 0.344008 0.615148
0.883311 0.343786 0.746238
0.883286 0.344321 0.883280
0.883244 0.344245 1.000000
0.883323 0.491543 0.000000
0.883345 0.491565 0.106448
0.883229 0.491291 0.253810
0.883280 0.491505 0.344092
0.883261 0.490986 0.491440
0.883366 0.491425 0.615354
0.883341 0.491636 0.745983
0.883239 0.491393 0.883316
0.883257 0.491127 1.000000
0.883293 0.615308 0.000000
0.883312 0.615185 0.106328
0.883284 0.615506 0.254066
0.883236 0.615161 0.344174
0.883392 0.615448 0.491462
0.883295 0.615401 0.615721
0.883376 0.615482 0.746374
0.883340 0.615771 0.883401
0.883372 0.615618 1.000000
0.883345 0.745977 0.000000
0.883257 0.746423 0.106277
0.883262 0.746256 0.253884
0.883335 0.745989 0.343979
0.883368 0.746173 0.491377
0.883278 0.746441 0.615644
0.883335 0.746397 0.746232
0.883318 0.746235 0.883348
0.883264 0.746034 1.000000
0.883285 0.883327 0.000000
0.883338 0.883291 0.106315
0.883221 0.883306 0.253866
0.883314 0.883302 0.343775
0.883293 0.883257 0.491012
0.883233 0.883240 0.615807
0.883357 0.883387 0.746220
0.883346 0.883363 0.883315
0.883331 0.883315 1.000000
0.883279 1.000000 0.000000
0.883224 1.000000 0.106523
0.883251 1.000000 0.254040
0.883234 1.000000 0.344085
0.883366 1.000000 0.491711
0.883224 1.000000 0.615360
0.883379 1.000000 0.746075
0.883355 1.000000 0.883395
0.883262 1.000000 1.000000
1.000000 0.000000 0.000000
1.000000 0.000000 0.106326
1.000000 0.000000 0.254268
1.000000 0.000000 0.344302
1.000000 0.000000 0.491050
1.000000 0.000000 0.615362
1.000000 0.000000 0.746078
1.000000 0.000000 0.883271
1.000000 0.000000 1.000000
1.000000 0.106466 0.000000
1.000000 0.106265 0.106410
1.000000 0.106439 0.253903
1.000000 0.106414 0.344325
1.000000 0.106556 0.491035
1.000000 0.106427 0.615718
1.000000 0.106542 0.746134
1.000000 0.106296 0.883351
1.000000 0.106355 1.000000
1.000000 0.253875 0.000000
1.000000 0.254357 0.106397
1.000000 0.254240 0.254161
1.000000 0.253878 0.344001
1.000000 0.254388 0.491001
1.000000 0.253883 0.615764
1.000000 0.253994 0.745962
1.000000 0.253730 0.883305
1.000000 0.253994 1.000000
1.000000 0.344238 0.000000
1.000000 0.343703 0.106540
1.000000 0.343753 0.253987
1.000000 0.343900 0.343950
1.000000 0.343995 0.491436
1.000000 0.344352 0.615203
1.000000 0.343901 0.746070
1.000000 0.344237 0.883336
1.000000 0.344254 1.000000
1.000000 0.491279 0.000000
1.000000 0.491128 0.106541
1.000000 0.491703 0.254346
1.000000 0.491700 0.343865
1.000000 0.491086 0.491141
1.000000 0.491603 0.615216
1.000000 0.491034 0.745988
1.000000 0.491624 0.883383
1.000000 0.491681 1.000000
1.000000 0.615187 0.000000
1.000000 0.615179 0.106394
1.000000 0.615484 0.253880
1.000000 0.615290 0.344163
1.000000 0.615460 0.491041
1.000000 0.615386 0.615198
1.000000 0.615815 0.746393
1.000000 0.615152 0.883269
1.000000 0.615387 1.000000
1.000000 0.746067 0.000000
1.000000 0.746135 0.106409
1.000000 0.745903 0.253735
1.000000 0.746152 0.343859
1.000000 0.746399 0.491089
1.000000 0.746318 0.615694
1.000000 0.746413 0.746334
1.000000 0.746186 0.883222
1.000000 0.745982 1.000000
1.000000 0.883273 0.000000
1.000000 0.883237 0.106420
1.000000 0.883293 0.253726
1.000000 0.883289 0.344162
1.000000 0.883369 0.491030
1.000000 0.883238 0.615747
1.000000 0.883375 0.745960
1.000000 0.883225 0.883322
1.000000 0.883369 1.000000
1.000000 1.000000 0.000000
1.000000 1.000000 0.106352
1.000000 1.000000 0.254125
1.000000 1.000000 0.344078
1.000000 1.000000 0.491013
1.000000 1.000000 0.615132
1.000000 1.000000 0.745946
1.000000 1.000000 0.883401
1.000000 1.000000 1.000000
